;FLAVOR:Marlin
;TIME:2248
;Filament used: 1.18366m
;Layer height: 0.2
;MINX:99.262
;MINY:100.7
;MINZ:0.2
;MAXX:120.738
;MAXY:119.3
;MAXZ:49.4
;Generated with Cura_SteamEngine 5.2.2
M82 ;absolute extrusion mode
; Ender 3 Custom Start G-code
; Script based on an original created by tjjfvi (https://github.com/tjjfvi)
; An up-to-date version of the tjjfvi's original script can be found
; here:  https://csi.t6.fyi/
; Note - This script will only work in Cura V4.2 and above!
; --- Global Settings
; layer_height = {layer_height}
; smooth_spiralized_contours = {smooth_spiralized_contours}
; magic_mesh_surface_mode = {magic_mesh_surface_mode}
; machine_extruder_count = {machine_extruder_count}
; --- Single Extruder Settings
; speed_z_hop = {speed_z_hop}
; retraction_amount = {retraction_amount}
; retraction_hop = {retraction_hop}
; retraction_hop_enabled = {retraction_hop_enabled}
; retraction_enable = {retraction_enable}
; retraction_speed = {retraction_speed}
; retraction_retract_speed = {retraction_retract_speed}
; retraction_prime_speed = {retraction_prime_speed}
; speed_travel = {speed_travel}
G92 E0 ; Reset Extruder
G28 ; Home all axes
M104 S175 ; Start heating up the nozzle most of the way
M190 S60 ; Start heating the bed, wait until target temperature reached
M109 S200 ; Finish heating the nozzle
G1 Z2.0 F3000 ; Move Z Axis up little to prevent scratching of Heat Bed
G1 X0.1 Y20 Z0.3 F5000.0 ; Move to start position
G1 X0.1 Y200.0 Z0.3 F1500.0 E15 ; Draw the first line
G1 X0.4 Y200.0 Z0.3 F5000.0 ; Move to side a little
G1 X0.4 Y20 Z0.3 F1500.0 E30 ; Draw the second line
G92 E0 ; Reset Extruder
G1 Z2.0 F3000 ; Move Z Axis up little to prevent scratching of Heat Bed
G1 X5 Y20 Z0.3 F5000.0 ; Move over to prevent blob squish
G92 E0
G92 E0
G1 F1500 E-6.5
;LAYER_COUNT:247
;LAYER:0
M107
;MESH:1_head_screw_7.73cm.stl
G0 F6000 X108.45 Y118.802 Z0.2
;TYPE:WALL-INNER
G1 F1500 E0
G1 F1200 X109.56 Y118.9 E0.03706
G1 X110.44 Y118.9 E0.06633
G1 X111.549 Y118.801 E0.10336
G1 X113.059 Y118.398 E0.15534
G1 X114.469 Y117.739 E0.20711
G1 X115.743 Y116.847 E0.25884
G1 X116.848 Y115.743 E0.31079
G1 X117.488 Y114.831 E0.34785
G1 X117.928 Y114.068 E0.37714
G1 X118.397 Y113.059 E0.41415
G1 X118.801 Y111.549 E0.46614
G1 X118.938 Y109.999 E0.51789
G1 X118.801 Y108.451 E0.56958
G1 X118.398 Y106.94 E0.62159
G1 X117.927 Y105.932 E0.6586
G1 X117.487 Y105.168 E0.68792
G1 X116.847 Y104.258 E0.72493
G1 X115.742 Y103.153 E0.7769
G1 X114.469 Y102.261 E0.8286
G1 X113.058 Y101.602 E0.8804
G1 X111.55 Y101.198 E0.93232
G1 X110.439 Y101.101 E0.96941
G1 X109.56 Y101.1 E0.99865
G1 X108.451 Y101.199 E1.03568
G1 X106.941 Y101.602 E1.08766
G1 X105.531 Y102.261 E1.13943
G1 X104.257 Y103.153 E1.19116
G1 X103.152 Y104.257 E1.24311
G1 X102.512 Y105.169 E1.28017
G1 X102.072 Y105.933 E1.30949
G1 X101.603 Y106.94 E1.34644
G1 X101.199 Y108.451 E1.39846
G1 X101.062 Y110.001 E1.45021
G1 X101.199 Y111.549 E1.5019
G1 X101.602 Y113.06 E1.55391
G1 X102.073 Y114.068 E1.59092
G1 X102.513 Y114.832 E1.62024
G1 X103.153 Y115.742 E1.65724
G1 X104.258 Y116.847 E1.70922
G1 X105.531 Y117.739 E1.76092
G1 X106.942 Y118.398 E1.81272
G1 X108.45 Y118.802 E1.86464
G0 F6000 X108.38 Y119.198
;TYPE:WALL-OUTER
G1 F1200 X109.542 Y119.3 E1.90344
G1 X110.458 Y119.3 E1.9339
G1 X111.619 Y119.197 E1.97267
G1 X113.196 Y118.775 E2.02697
G1 X114.67 Y118.087 E2.08107
G1 X116.001 Y117.155 E2.13511
G1 X117.156 Y116.001 E2.18942
G1 X117.826 Y115.046 E2.22822
G1 X118.283 Y114.252 E2.25869
G1 X118.775 Y113.196 E2.29744
G1 X119.197 Y111.619 E2.35173
G1 X119.34 Y109.999 E2.40583
G1 X119.197 Y108.381 E2.45985
G1 X118.776 Y106.803 E2.51417
G1 X118.282 Y105.747 E2.55295
G1 X117.825 Y104.953 E2.58342
G1 X117.155 Y104 E2.62216
G1 X116 Y102.845 E2.67649
G1 X114.67 Y101.913 E2.73051
G1 X113.196 Y101.225 E2.78461
G1 X111.62 Y100.802 E2.83888
G1 X110.457 Y100.701 E2.87771
G1 X109.542 Y100.7 E2.90814
G1 X108.381 Y100.803 E2.94691
G1 X106.804 Y101.225 E3.00121
G1 X105.33 Y101.913 E3.05531
G1 X103.999 Y102.845 E3.10935
G1 X102.844 Y103.999 E3.16366
G1 X102.174 Y104.954 E3.20246
G1 X101.717 Y105.748 E3.23293
G1 X101.225 Y106.803 E3.27165
G1 X100.803 Y108.381 E3.32597
G1 X100.66 Y110.001 E3.38007
G1 X100.803 Y111.619 E3.43409
G1 X101.224 Y113.197 E3.48841
G1 X101.718 Y114.253 E3.52719
G1 X102.175 Y115.047 E3.55766
G1 X102.845 Y116 E3.5964
G1 X104 Y117.155 E3.65073
G1 X105.33 Y118.087 E3.70475
G1 X106.804 Y118.775 E3.75885
G1 X108.38 Y119.198 E3.81312
G0 F6000 X108.515 Y118.447
;TYPE:SKIN
G1 F1200 X109.576 Y118.54 E3.84855
G1 X110.423 Y118.54 E3.87672
G1 X111.484 Y118.446 E3.91215
G1 X112.937 Y118.057 E3.96217
G1 X114.289 Y117.425 E4.01181
G1 X115.509 Y116.571 E4.06134
G1 X116.573 Y115.508 E4.11137
G1 X117.185 Y114.636 E4.1468
G1 X117.608 Y113.9 E4.17503
G1 X118.057 Y112.937 E4.21037
G1 X118.446 Y111.484 E4.2604
G1 X118.576 Y109.998 E4.31002
G1 X118.446 Y108.516 E4.3595
G1 X118.058 Y107.062 E4.40955
G1 X117.606 Y106.098 E4.44496
G1 X117.182 Y105.36 E4.47327
G1 X116.572 Y104.493 E4.50853
G1 X115.507 Y103.429 E4.5586
G1 X114.289 Y102.575 E4.60808
G1 X112.937 Y101.943 E4.65772
G1 X111.485 Y101.553 E4.70772
G1 X110.425 Y101.461 E4.74311
G1 X109.577 Y101.461 E4.77131
G1 X108.516 Y101.554 E4.80674
G1 X107.063 Y101.943 E4.85677
G1 X105.711 Y102.575 E4.90641
G1 X104.491 Y103.429 E4.95594
G1 X103.427 Y104.492 E5.00596
G1 X102.815 Y105.364 E5.04139
G1 X102.393 Y106.099 E5.06958
G1 X101.941 Y107.066 E5.10508
G1 X101.554 Y108.516 E5.155
G1 X101.424 Y110.002 E5.20461
G1 X101.489 Y110.744 E5.22939
G1 X101.554 Y111.484 E5.25409
G1 X101.942 Y112.938 E5.30415
G1 X102.394 Y113.902 E5.33956
G1 X102.816 Y114.638 E5.36778
G1 X103.428 Y115.507 E5.40313
G1 X104.493 Y116.571 E5.4532
G1 X105.711 Y117.425 E5.50268
G1 X107.063 Y118.057 E5.55231
G1 X108.515 Y118.447 E5.60232
G0 F6000 X108.493 Y118.705
G0 X106.997 Y118.246
G0 X105.611 Y117.599
G0 X104.362 Y116.723
G0 X103.385 Y115.747
G0 X102.274 Y114.215
G0 X102.674 Y113.988
G1 F1200 X106.046 Y117.36 E5.76093
G0 F6000 X105.851 Y117.777
G0 X106.913 Y118.273
G0 X107.108 Y117.856
G1 F1200 X102.14 Y112.888 E5.99461
G0 F6000 X101.928 Y112.111
G1 F1200 X107.888 Y118.07 E6.27492
G0 F6000 X108.639 Y118.256
G1 F1200 X101.744 Y111.36 E6.59927
G0 F6000 X101.689 Y110.74
G1 F1200 X109.259 Y118.31 E6.95534
G0 F6000 X109.853 Y118.339
G1 F1200 X101.634 Y110.119 E7.34196
G0 F6000 X101.661 Y109.581
G1 F1200 X110.418 Y118.338 E7.75386
G0 F6000 X110.938 Y118.292
G1 F1200 X101.706 Y109.06 E8.1881
G0 F6000 X101.753 Y108.541
G1 F1200 X111.456 Y118.245 E8.64453
G0 F6000 X111.902 Y118.125
G1 F1200 X101.872 Y108.095 E9.11631
G0 F6000 X101.991 Y107.648
G1 F1200 X112.348 Y118.005 E9.60347
G0 F6000 X112.794 Y117.886
G1 F1200 X102.111 Y107.202 E10.10599
G0 F6000 X102.282 Y106.807
G1 F1200 X113.19 Y117.715 E10.61907
G0 F6000 X113.576 Y117.535
G1 F1200 X102.462 Y106.422 E11.14181
G0 F6000 X102.652 Y106.046
G1 F1200 X113.961 Y117.355 E11.67375
G0 F6000 X114.325 Y117.154
G1 F1200 X102.858 Y105.687 E12.21312
G0 F6000 X103.075 Y105.338
G1 F1200 X114.658 Y116.92 E12.75793
G0 F6000 X114.991 Y116.688
G1 F1200 X103.309 Y105.006 E13.30742
G0 F6000 X103.543 Y104.674
G1 F1200 X115.324 Y116.455 E13.86156
G0 F6000 X115.615 Y116.181
G1 F1200 X103.818 Y104.383 E14.41648
G0 F6000 X104.1 Y104.1
G1 F1200 X115.898 Y115.898 E14.97142
G0 F6000 X116.181 Y115.615
G1 F1200 X104.383 Y103.818 E15.52634
G0 F6000 X104.675 Y103.543
G1 F1200 X116.456 Y115.324 E16.08048
G0 F6000 X116.689 Y114.992
G1 F1200 X105.008 Y103.311 E16.62992
G0 F6000 X105.341 Y103.078
G1 F1200 X116.922 Y114.66 E17.17467
G0 F6000 X117.14 Y114.311
G1 F1200 X105.673 Y102.845 E17.71402
G0 F6000 X106.037 Y102.643
G1 F1200 X117.346 Y113.952 E18.24596
G0 F6000 X117.536 Y113.576
G1 F1200 X106.423 Y102.463 E18.76869
G0 F6000 X106.808 Y102.282
G1 F1200 X117.717 Y113.191 E19.28181
G0 F6000 X117.886 Y112.795
G1 F1200 X107.203 Y102.112 E19.78431
G0 F6000 X107.649 Y101.993
G1 F1200 X118.006 Y112.349 E20.27145
G0 F6000 X118.125 Y111.903
G1 F1200 X108.096 Y101.873 E20.7432
G0 F6000 X108.542 Y101.754
G1 F1200 X118.245 Y111.457 E21.1996
G0 F6000 X118.292 Y110.938
G1 F1200 X109.061 Y101.707 E21.6338
G0 F6000 X109.581 Y101.662
G1 F1200 X118.337 Y110.418 E22.04565
G0 F6000 X118.364 Y109.879
G1 F1200 X110.146 Y101.661 E22.4322
G0 F6000 X110.74 Y101.689
G1 F1200 X118.309 Y109.258 E22.78823
G0 F6000 X118.255 Y108.638
G1 F1200 X111.36 Y101.743 E23.11255
G0 F6000 X112.111 Y101.928
G1 F1200 X118.07 Y107.888 E23.39286
G0 F6000 X117.858 Y107.11
G1 F1200 X112.891 Y102.142 E23.62652
G0 F6000 X113.086 Y101.726
G0 X114.147 Y102.222
G0 X113.952 Y102.638
M104 S200
G1 F1200 X117.323 Y106.01 E23.7851
;MESH:NONMESH
G0 F300 X117.323 Y106.01 Z0.4
G0 F6000 X117.724 Y105.782
G0 X118.247 Y106.996
G0 X118.643 Y108.48
G0 X118.777 Y109.999
G0 X118.643 Y111.52
G0 X118.246 Y113.003
G0 X117.535 Y114.426
G0 X116.725 Y115.639
G0 X115.639 Y116.723
G0 X114.389 Y117.599
G0 X113.003 Y118.246
G0 X111.52 Y118.643
G0 X110.432 Y118.739
G0 X109.737 Y118.722
G0 X108.12 Y118.609
G0 X108.044 Y118.9
;TIME_ELAPSED:44.219489
;LAYER:1
M106 S85
;TYPE:WALL-INNER
;MESH:1_head_screw_7.73cm.stl
G1 F2850 X111.955 Y118.9 E23.91518
G1 X113.127 Y118.586 E23.95554
G1 X114.569 Y117.913 E24.00847
G1 X115.872 Y117.001 E24.06137
G1 X116.729 Y116.144 E24.10168
G1 X118.688 Y112.75 E24.23202
G1 X118.998 Y111.584 E24.27215
G1 X119.138 Y109.997 E24.32513
G1 X118.999 Y108.415 E24.37795
G1 X118.687 Y107.25 E24.41807
G1 X116.725 Y103.852 E24.54857
G1 X115.871 Y103 E24.5887
G1 X114.569 Y102.087 E24.64159
G1 X113.128 Y101.414 E24.69448
G1 X111.955 Y101.101 E24.73486
G1 X108.045 Y101.1 E24.86491
G1 X106.873 Y101.414 E24.90526
G1 X105.431 Y102.087 E24.95819
G1 X104.128 Y102.999 E25.01109
G1 X103.274 Y103.853 E25.05126
G1 X101.312 Y107.251 E25.18177
G1 X101.002 Y108.416 E25.22186
G1 X100.862 Y110.003 E25.27485
G1 X101.001 Y111.585 E25.32767
G1 X101.313 Y112.751 E25.36782
G1 X103.272 Y116.145 E25.49816
G1 X104.129 Y117 E25.53842
G1 X105.431 Y117.913 E25.59131
G1 X106.872 Y118.586 E25.64421
G1 X108.044 Y118.9 E25.68456
G0 F10500 X107.992 Y119.3
;TYPE:WALL-OUTER
G1 F2850 X112.008 Y119.3 E25.81814
G1 X113.264 Y118.963 E25.86139
G1 X114.77 Y118.261 E25.91665
G1 X116.13 Y117.309 E25.97187
G1 X117.049 Y116.39 E26.01509
G1 X119.061 Y112.904 E26.14897
G1 X119.394 Y111.654 E26.19199
G1 X119.54 Y109.997 E26.24732
G1 X119.395 Y108.345 E26.30247
G1 X119.06 Y107.096 E26.34548
G1 X117.045 Y103.606 E26.47952
G1 X116.129 Y102.692 E26.52256
G1 X114.77 Y101.739 E26.57776
G1 X113.265 Y101.036 E26.63301
G1 X112.007 Y100.701 E26.67631
G1 X107.992 Y100.7 E26.80985
G1 X106.736 Y101.037 E26.8531
G1 X105.23 Y101.739 E26.90837
G1 X103.87 Y102.691 E26.96358
G1 X102.954 Y103.607 E27.00667
G1 X100.939 Y107.097 E27.14071
G1 X100.606 Y108.346 E27.1837
G1 X100.46 Y110.003 E27.23902
G1 X100.605 Y111.655 E27.29418
G1 X100.94 Y112.905 E27.33722
G1 X102.952 Y116.391 E27.47109
G1 X103.871 Y117.308 E27.51427
G1 X105.23 Y118.261 E27.56948
G1 X106.735 Y118.964 E27.62473
G1 X107.992 Y119.3 E27.668
G0 F10500 X108.095 Y118.54
;TYPE:SKIN
G1 F2850 X111.904 Y118.54 E27.79469
G1 X113.005 Y118.245 E27.8326
G1 X114.389 Y117.599 E27.8834
G1 X115.637 Y116.725 E27.93408
G1 X116.442 Y115.92 E27.97194
G1 X118.353 Y112.608 E28.09912
G1 X118.643 Y111.52 E28.13657
G1 X118.776 Y109.995 E28.18749
G1 X118.644 Y108.48 E28.23807
G1 X118.351 Y107.393 E28.27551
G1 X116.435 Y104.071 E28.40306
G1 X115.637 Y103.276 E28.44053
G1 X114.389 Y102.401 E28.49122
G1 X113.006 Y101.754 E28.542
G1 X111.904 Y101.462 E28.57992
G1 X108.096 Y101.461 E28.70658
G1 X106.995 Y101.755 E28.74448
G1 X105.611 Y102.401 E28.79528
G1 X104.363 Y103.275 E28.84595
G1 X103.561 Y104.077 E28.88368
G1 X101.647 Y107.393 E29.01102
G1 X101.357 Y108.481 E29.04847
G1 X101.224 Y110.006 E29.09939
G1 X101.356 Y111.52 E29.14993
G1 X101.649 Y112.608 E29.18741
G1 X103.562 Y115.926 E29.3148
G1 X104.363 Y116.724 E29.3524
G1 X105.611 Y117.599 E29.4031
G1 X106.994 Y118.246 E29.45388
G1 X108.095 Y118.54 E29.49178
G0 F10500 X108.028 Y118.791
G0 X111.934 Y118.739
G0 X113.071 Y118.434
G0 X114.218 Y117.9
G0 X115.281 Y117.292
G0 X115.016 Y116.914
G1 F2850 X116.481 Y115.449 E29.56069
G0 F10500 X116.88 Y115.681
G0 X117.791 Y114.103
G0 X117.254 Y114.11
G1 F2850 X113.636 Y117.729 E29.73089
G0 F10500 X113.83 Y118.146
G0 X112.791 Y118.572
G0 X112.673 Y118.126
G1 F2850 X118.027 Y112.772 E29.98273
G0 F10500 X118.334 Y111.899
G1 F2850 X111.9 Y118.333 E30.28537
G0 F10500 X111.329 Y118.339
G1 F2850 X118.469 Y111.198 E30.62123
G0 F10500 X118.523 Y110.579
G1 F2850 X110.763 Y118.339 E30.98624
G0 F10500 X110.197 Y118.339
G1 F2850 X118.571 Y109.965 E31.38013
G0 F10500 X118.525 Y109.445
G1 F2850 X109.631 Y118.339 E31.79847
G0 F10500 X109.066 Y118.339
G1 F2850 X118.48 Y108.924 E32.2413
G0 F10500 X118.419 Y108.42
G1 F2850 X108.5 Y118.339 E32.70786
G0 F10500 X107.973 Y118.3
G1 F2850 X118.299 Y107.974 E33.19357
G0 F10500 X118.18 Y107.528
G1 F2850 X107.527 Y118.18 E33.69463
G0 F10500 X107.081 Y118.061
G1 F2850 X117.984 Y107.158 E34.20747
G0 F10500 X117.777 Y106.799
G1 F2850 X106.693 Y117.883 E34.72883
G0 F10500 X106.307 Y117.703
G1 F2850 X117.569 Y106.441 E35.25856
G0 F10500 X117.363 Y106.082
G1 F2850 X105.922 Y117.523 E35.79671
G0 F10500 X105.561 Y117.318
G1 F2850 X117.156 Y105.723 E36.3421
G0 F10500 X116.949 Y105.365
G1 F2850 X105.228 Y117.086 E36.89342
G0 F10500 X104.895 Y116.852
G1 F2850 X116.742 Y105.006 E37.45064
G0 F10500 X116.535 Y104.647
G1 F2850 X104.563 Y116.619 E38.01377
G0 F10500 X104.269 Y116.348
G1 F2850 X116.328 Y104.289 E38.58099
G0 F10500 X116.065 Y103.985
G1 F2850 X103.985 Y116.065 E39.14919
G0 F10500 X103.708 Y115.777
G1 F2850 X115.782 Y103.703 E39.71712
G0 F10500 X115.497 Y103.422
G1 F2850 X103.501 Y115.418 E40.28137
G0 F10500 X103.294 Y115.06
G1 F2850 X115.165 Y103.189 E40.83975
G0 F10500 X114.832 Y102.956
G1 F2850 X103.087 Y114.701 E41.3922
G0 F10500 X102.88 Y114.342
G1 F2850 X114.499 Y102.723 E41.93872
G0 F10500 X114.148 Y102.509
G1 F2850 X102.673 Y113.984 E42.47847
G0 F10500 X102.466 Y113.624
G1 F2850 X113.762 Y102.328 E43.0098
G0 F10500 X113.376 Y102.149
G1 F2850 X102.259 Y113.266 E43.53271
G0 F10500 X102.053 Y112.907
G1 F2850 X112.991 Y101.969 E44.0472
G0 F10500 X112.553 Y101.841
G1 F2850 X101.846 Y112.548 E44.55082
G0 F10500 X101.721 Y112.107
G1 F2850 X112.106 Y101.722 E45.0393
G0 F10500 X111.601 Y101.661
G1 F2850 X101.602 Y111.661 E45.50965
G0 F10500 X101.527 Y111.17
G1 F2850 X111.036 Y101.661 E45.95692
G0 F10500 X110.47 Y101.661
G1 F2850 X101.481 Y110.65 E46.37973
G0 F10500 X101.436 Y110.129
G1 F2850 X109.905 Y101.66 E46.77809
G0 F10500 X109.339 Y101.66
G1 F2850 X101.466 Y109.534 E47.14844
G0 F10500 X101.52 Y108.914
G1 F2850 X108.774 Y101.66 E47.48964
G0 F10500 X108.208 Y101.66
G1 F2850 X101.628 Y108.241 E47.79917
G0 F10500 X101.833 Y107.47
G1 F2850 X107.468 Y101.834 E48.06425
G0 F10500 X106.559 Y102.178
G1 F2850 X102.604 Y106.133 E48.25028
G0 F10500 X102.207 Y105.902
G0 X102.979 Y104.564
G0 X103.377 Y104.794
G1 F2850 X105.332 Y102.839 E48.34223
;MESH:NONMESH
G0 F300 X105.332 Y102.839 Z0.6
G0 F10500 X105.069 Y102.462
G0 X103.9 Y103.453
G0 X103.403 Y103.952
G0 X101.462 Y107.313
G0 X101.16 Y108.445
G0 X101.023 Y110.003
G0 X101.159 Y111.556
G0 X101.463 Y112.689
G0 X103.401 Y116.046
G0 X104.233 Y116.876
G0 X105.383 Y117.683
G0 X107.351 Y118.61
G0 X107.274 Y118.9
;TIME_ELAPSED:66.445198
;LAYER:2
M106 S170
;TYPE:WALL-INNER
;MESH:1_head_screw_7.73cm.stl
G1 F4500 X112.726 Y118.899 E48.52357
G1 X113.195 Y118.773 E48.53972
G1 X114.669 Y118.086 E48.59381
G1 X116.001 Y117.154 E48.64788
G1 X116.344 Y116.811 E48.66401
G1 X119.072 Y112.084 E48.84554
G1 X119.195 Y111.62 E48.8615
G1 X119.338 Y109.997 E48.91569
G1 X119.196 Y108.381 E48.96965
G1 X119.071 Y107.915 E48.9857
G1 X116.343 Y103.188 E49.16722
G1 X116 Y102.847 E49.18331
G1 X114.669 Y101.914 E49.23737
G1 X113.197 Y101.226 E49.29141
G1 X112.725 Y101.101 E49.30765
G1 X107.274 Y101.1 E49.48895
G1 X106.805 Y101.226 E49.5051
G1 X105.331 Y101.914 E49.55921
G1 X103.999 Y102.846 E49.61328
G1 X103.657 Y103.188 E49.62936
G1 X100.927 Y107.916 E49.81095
G1 X100.805 Y108.38 E49.82691
G1 X100.662 Y110.003 E49.8811
