;FLAVOR:Marlin
;TIME:6753
;Filament used: 3.24001m
;Layer height: 0.2
;MINX:94.779
;MINY:78.691
;MINZ:0.2
;MAXX:125.354
;MAXY:108.81
;MAXZ:115.2
;Generated with Cura_SteamEngine 5.2.2
M82 ;absolute extrusion mode
; Ender 3 Custom Start G-code
G92 E0 ; Reset Extruder
G28 ; Home all axes
M104 S175 ; Start heating up the nozzle most of the way
M190 S60 ; Start heating the bed, wait until target temperature reached
M109 S200 ; Finish heating the nozzle
G1 Z2.0 F3000 ; Move Z Axis up little to prevent scratching of Heat Bed
G1 X0.1 Y20 Z0.3 F5000.0 ; Move to start position
G1 X0.1 Y200.0 Z0.3 F1500.0 E15 ; Draw the first line
G1 X0.4 Y200.0 Z0.3 F5000.0 ; Move to side a little
G1 X0.4 Y20 Z0.3 F1500.0 E30 ; Draw the second line
G92 E0 ; Reset Extruder
G1 Z2.0 F3000 ; Move Z Axis up little to prevent scratching of Heat Bed
G1 X5 Y20 Z0.3 F5000.0 ; Move over to prevent blob squish
G92 E0
G92 E0
G1 F1500 E-6.5
;LAYER_COUNT:576
;LAYER:0
M107
G0 F6000 X98.281 Y83.861 Z0.2
;TYPE:SKIRT
G1 F1500 E0
G1 F1200 X98.588 Y83.521 E0.01524
G1 X99.022 Y83.076 E0.03591
G1 X99.362 Y82.755 E0.05146
G1 X99.862 Y82.322 E0.07346
G1 X100.233 Y82.027 E0.08923
G1 X100.78 Y81.63 E0.11171
G1 X101.189 Y81.359 E0.12803
G1 X101.71 Y81.042 E0.14831
G1 X102.153 Y80.796 E0.16516
G1 X102.729 Y80.506 E0.18661
G1 X103.205 Y80.291 E0.20398
G1 X103.732 Y80.076 E0.22291
G1 X104.245 Y79.888 E0.24109
G1 X104.672 Y79.746 E0.25605
G1 X105.198 Y79.587 E0.27433
G1 X105.57 Y79.484 E0.28717
G1 X106.136 Y79.343 E0.30657
G1 X107.069 Y79.147 E0.33828
G1 X107.915 Y79.003 E0.36682
G1 X108.783 Y78.887 E0.39595
G1 X109.612 Y78.804 E0.42366
G1 X110.425 Y78.745 E0.45077
G1 X111.393 Y78.702 E0.483
G1 X111.964 Y78.691 E0.50199
G1 X112.829 Y78.691 E0.53076
G1 X113.581 Y78.709 E0.55578
G1 X114.553 Y78.757 E0.58815
G1 X115.931 Y78.875 E0.63415
G1 X116.609 Y78.964 E0.65689
G1 X117.199 Y79.061 E0.67678
G1 X117.605 Y79.139 E0.69053
G1 X117.988 Y79.223 E0.70357
G1 X118.916 Y79.488 E0.73567
G1 X119.414 Y79.664 E0.75324
G1 X120.144 Y79.964 E0.77949
G1 X121.052 Y80.469 E0.81405
G1 X121.324 Y80.645 E0.82482
G1 X121.965 Y81.107 E0.8511
G1 X122.555 Y81.632 E0.87737
G1 X122.852 Y81.94 E0.8916
G1 X123.099 Y82.211 E0.9038
G1 X123.601 Y82.821 E0.93007
G1 X124.038 Y83.478 E0.95632
G1 X124.407 Y84.176 E0.98258
G1 X124.695 Y84.886 E1.00806
G1 X124.839 Y85.297 E1.02254
G1 X125.062 Y86.054 E1.04879
G1 X125.168 Y86.568 E1.06625
G1 X125.226 Y86.909 E1.07775
G1 X125.32 Y87.718 E1.10484
G1 X125.338 Y87.999 E1.11421
G1 X125.354 Y88.498 E1.13081
G1 X125.354 Y99.002 E1.48017
G1 X125.338 Y99.502 E1.49681
G1 X125.32 Y99.782 E1.50615
G1 X125.228 Y100.575 E1.5327
G1 X125.171 Y100.914 E1.54413
G1 X125.001 Y101.685 E1.57039
G1 X124.844 Y102.189 E1.58795
G1 X124.7 Y102.602 E1.6025
G1 X124.403 Y103.334 E1.62877
G1 X124.033 Y104.031 E1.65502
G1 X123.594 Y104.688 E1.6813
G1 X123.077 Y105.313 E1.70828
G1 X122.826 Y105.586 E1.72061
G1 X122.263 Y106.14 E1.74688
G1 X121.326 Y106.852 E1.78602
G1 X121.056 Y107.027 E1.79672
G1 X120.373 Y107.423 E1.82298
G1 X119.417 Y107.835 E1.85761
G1 X118.917 Y108.012 E1.87525
G1 X117.97 Y108.281 E1.90799
G1 X117.197 Y108.439 E1.93423
G1 X116.607 Y108.536 E1.95412
G1 X116.179 Y108.594 E1.96848
G1 X115.118 Y108.702 E2.00396
G1 X114.215 Y108.762 E2.03406
G1 X112.667 Y108.81 E2.08557
G1 X112.114 Y108.81 E2.10396
G1 X111.21 Y108.791 E2.13403
G1 X110.419 Y108.754 E2.16037
G1 X109.642 Y108.698 E2.18628
G1 X108.792 Y108.614 E2.21469
G1 X108.191 Y108.537 E2.23484
G1 X107.348 Y108.404 E2.26323
G1 X106.479 Y108.235 E2.29267
G1 X106.132 Y108.157 E2.3045
G1 X105.575 Y108.018 E2.3236
G1 X105.203 Y107.915 E2.33644
G1 X104.668 Y107.753 E2.35503
G1 X104.228 Y107.605 E2.37047
G1 X103.716 Y107.416 E2.38862
G1 X103.194 Y107.202 E2.40738
G1 X102.718 Y106.986 E2.42477
G1 X102.166 Y106.709 E2.44531
G1 X101.723 Y106.464 E2.46215
G1 X101.19 Y106.14 E2.48289
G1 X100.781 Y105.869 E2.49921
G1 X100.234 Y105.472 E2.52169
G1 X99.863 Y105.177 E2.53746
G1 X99.363 Y104.744 E2.55946
G1 X99.023 Y104.423 E2.57501
G1 X98.589 Y103.978 E2.59568
G1 X98.282 Y103.638 E2.61092
G1 X97.866 Y103.138 E2.63255
G1 X97.591 Y102.777 E2.64765
G1 X97.238 Y102.272 E2.66814
G1 X96.994 Y101.893 E2.68313
G1 X96.708 Y101.413 E2.70172
G1 X96.492 Y101.018 E2.71669
G1 X96.226 Y100.483 E2.73656
G1 X96.042 Y100.075 E2.75145
G1 X95.849 Y99.607 E2.76829
G1 X95.69 Y99.183 E2.78335
G1 X95.527 Y98.703 E2.80021
G1 X95.396 Y98.27 E2.81525
G1 X95.275 Y97.822 E2.83069
G1 X95.17 Y97.382 E2.84573
G1 X95.08 Y96.953 E2.86031
G1 X94.999 Y96.503 E2.87552
G1 X94.935 Y96.078 E2.88982
G1 X94.879 Y95.625 E2.905
G1 X94.84 Y95.23 E2.9182
G1 X94.807 Y94.773 E2.93344
G1 X94.789 Y94.378 E2.94659
G1 X94.779 Y93.575 E2.9733
G1 X94.789 Y93.115 E2.9886
G1 X94.807 Y92.724 E3.00162
G1 X94.84 Y92.266 E3.01689
G1 X94.878 Y91.879 E3.02983
G1 X94.933 Y91.43 E3.04487
G1 X94.999 Y90.992 E3.0596
G1 X95.081 Y90.538 E3.07495
G1 X95.17 Y90.114 E3.08936
G1 X95.274 Y89.678 E3.10427
G1 X95.395 Y89.229 E3.11973
G1 X95.526 Y88.796 E3.13478
G1 X95.697 Y88.294 E3.15242
G1 X95.859 Y87.866 E3.16764
G1 X96.042 Y87.423 E3.18358
G1 X96.224 Y87.019 E3.19832
G1 X96.485 Y86.494 E3.21782
G1 X96.7 Y86.099 E3.23278
G1 X96.993 Y85.606 E3.25185
G1 X97.237 Y85.227 E3.26684
G1 X97.59 Y84.722 E3.28734
G1 X97.865 Y84.361 E3.30243
G1 X98.281 Y83.861 E3.32406
G0 F6000 X98.578 Y84.129
G1 F1200 X98.885 Y83.789 E3.3393
G1 X99.297 Y83.367 E3.35892
G1 X99.637 Y83.046 E3.37447
G1 X100.111 Y82.635 E3.39534
G1 X100.482 Y82.34 E3.4111
G1 X101.001 Y81.963 E3.43244
G1 X101.41 Y81.692 E3.44875
G1 X101.904 Y81.392 E3.46798
G1 X102.347 Y81.146 E3.48483
G1 X102.894 Y80.871 E3.50519
G1 X103.37 Y80.656 E3.52257
G1 X103.87 Y80.452 E3.54053
G1 X104.383 Y80.264 E3.5587
G1 X104.788 Y80.129 E3.5729
G1 X105.666 Y79.872 E3.60333
G1 X106.232 Y79.731 E3.62273
G1 X106.558 Y79.658 E3.63384
G1 X107.409 Y79.491 E3.66268
G1 X108.255 Y79.357 E3.69117
G1 X109.049 Y79.26 E3.71778
G1 X109.855 Y79.185 E3.7447
G1 X110.63 Y79.134 E3.77053
G1 X111.4 Y79.102 E3.79616
G1 X111.971 Y79.091 E3.81516
G1 X112.821 Y79.091 E3.84343
G1 X113.339 Y79.101 E3.86066
G1 X114.533 Y79.157 E3.90042
G1 X115.628 Y79.246 E3.93696
G1 X116.231 Y79.314 E3.95714
G1 X117.134 Y79.456 E3.98754
G1 X117.519 Y79.53 E4.00058
G1 X117.902 Y79.614 E4.01362
G1 X118.783 Y79.865 E4.04409
G1 X119.281 Y80.041 E4.06166
G1 X119.992 Y80.335 E4.08725
G1 X120.835 Y80.805 E4.11935
G1 X121.107 Y80.981 E4.13013
G1 X121.73 Y81.432 E4.15571
G1 X122.556 Y82.209 E4.19343
G1 X122.803 Y82.48 E4.20562
G1 X123.291 Y83.075 E4.23122
G1 X123.715 Y83.717 E4.25681
G1 X124.069 Y84.399 E4.28236
G1 X124.318 Y85.018 E4.30455
G1 X124.462 Y85.429 E4.31904
G1 X124.678 Y86.167 E4.34461
G1 X124.773 Y86.635 E4.3605
G1 X124.831 Y86.976 E4.372
G1 X124.921 Y87.744 E4.39772
G1 X124.939 Y88.025 E4.40709
G1 X124.954 Y88.498 E4.42283
G1 X124.954 Y99.002 E4.77219
G1 X124.939 Y99.477 E4.788
G1 X124.921 Y99.757 E4.79733
G1 X124.834 Y100.509 E4.82251
G1 X124.777 Y100.848 E4.83394
G1 X124.61 Y101.599 E4.85953
G1 X124.466 Y102.057 E4.8755
G1 X124.322 Y102.47 E4.89005
G1 X124.032 Y103.182 E4.91562
G1 X123.669 Y103.861 E4.94122
G1 X123.237 Y104.497 E4.9668
G1 X122.782 Y105.042 E4.99041
G1 X122.531 Y105.315 E5.00274
G1 X121.982 Y105.854 E5.02833
G1 X121.109 Y106.517 E5.06479
G1 X120.839 Y106.692 E5.07549
G1 X120.173 Y107.076 E5.10106
G1 X119.283 Y107.458 E5.13328
G1 X118.783 Y107.635 E5.15092
G1 X117.885 Y107.89 E5.18197
G1 X117.132 Y108.044 E5.20753
G1 X116.542 Y108.141 E5.22742
G1 X116.136 Y108.196 E5.24104
G1 X115.092 Y108.303 E5.27595
G1 X113.92 Y108.376 E5.31501
G1 X112.889 Y108.407 E5.34931
G1 X112.114 Y108.41 E5.37509
G1 X111.228 Y108.391 E5.40456
G1 X110.447 Y108.355 E5.43057
G1 X109.68 Y108.3 E5.45614
G1 X108.843 Y108.217 E5.48412
G1 X107.998 Y108.105 E5.51247
G1 X107.412 Y108.01 E5.53222
G1 X106.558 Y107.843 E5.56116
G1 X105.672 Y107.63 E5.59147
G1 X105.319 Y107.532 E5.60365
G1 X104.784 Y107.37 E5.62224
G1 X104.366 Y107.23 E5.6369
G1 X103.854 Y107.041 E5.65506
G1 X103.359 Y106.838 E5.67285
G1 X102.883 Y106.622 E5.69024
G1 X102.36 Y106.359 E5.70971
G1 X101.917 Y106.114 E5.72654
G1 X101.411 Y105.807 E5.74623
G1 X101.002 Y105.536 E5.76255
G1 X100.483 Y105.159 E5.78388
G1 X100.112 Y104.864 E5.79965
G1 X99.638 Y104.453 E5.82052
G1 X99.298 Y104.132 E5.83607
G1 X98.886 Y103.71 E5.85568
G1 X98.579 Y103.37 E5.87092
G1 X98.184 Y102.895 E5.89147
G1 X97.909 Y102.534 E5.90656
G1 X97.574 Y102.056 E5.92597
G1 X97.33 Y101.677 E5.94097
G1 X97.059 Y101.221 E5.95861
G1 X96.843 Y100.826 E5.97358
G1 X96.59 Y100.318 E5.99246
G1 X96.406 Y99.91 E6.00735
G1 X96.223 Y99.466 E6.02332
G1 X96.064 Y99.042 E6.03838
G1 X95.91 Y98.587 E6.05436
G1 X95.779 Y98.154 E6.0694
G1 X95.664 Y97.729 E6.08405
G1 X95.559 Y97.289 E6.09909
G1 X95.474 Y96.882 E6.11292
G1 X95.393 Y96.432 E6.12813
G1 X95.332 Y96.029 E6.14168
G1 X95.276 Y95.576 E6.15687
G1 X95.239 Y95.201 E6.1694
G1 X95.206 Y94.744 E6.18464
G1 X95.189 Y94.37 E6.19709
G1 X95.179 Y93.584 E6.22324
G1 X95.206 Y92.753 E6.25089
G1 X95.239 Y92.295 E6.26616
G1 X95.33 Y91.478 E6.2935
G1 X95.393 Y91.063 E6.30746
G1 X95.475 Y90.609 E6.32281
G1 X95.559 Y90.207 E6.33647
G1 X95.663 Y89.771 E6.35138
G1 X95.778 Y89.345 E6.36605
G1 X95.909 Y88.912 E6.3811
G1 X96.071 Y88.435 E6.39785
G1 X96.233 Y88.007 E6.41307
G1 X96.407 Y87.588 E6.42816
G1 X96.589 Y87.184 E6.4429
G1 X96.836 Y86.685 E6.46142
G1 X97.051 Y86.29 E6.47638
G1 X97.329 Y85.822 E6.49448
G1 X97.573 Y85.443 E6.50948
G1 X97.908 Y84.965 E6.52889
G1 X98.183 Y84.604 E6.54398
G1 X98.578 Y84.129 E6.56453
G0 F6000 X98.875 Y84.397
G1 F1200 X99.182 Y84.057 E6.57977
G1 X99.572 Y83.658 E6.59832
G1 X99.912 Y83.337 E6.61388
G1 X100.36 Y82.948 E6.63361
G1 X100.731 Y82.653 E6.64938
G1 X101.222 Y82.297 E6.66955
G1 X101.631 Y82.026 E6.68587
G1 X102.099 Y81.741 E6.70409
G1 X102.542 Y81.495 E6.72094
G1 X103.059 Y81.236 E6.74018
G1 X103.535 Y81.021 E6.75755
G1 X104.007 Y80.827 E6.77452
G1 X104.52 Y80.639 E6.79269
G1 X104.904 Y80.511 E6.80616
G1 X105.43 Y80.352 E6.82443
G1 X105.763 Y80.261 E6.83592
G1 X106.637 Y80.05 E6.86582
G1 X107.227 Y79.931 E6.88584
G1 X108.045 Y79.792 E6.91343
G1 X109.088 Y79.658 E6.94841
G1 X109.882 Y79.584 E6.97493
G1 X110.48 Y79.543 E6.99487
G1 X111.408 Y79.502 E7.02577
G1 X111.979 Y79.491 E7.04476
G1 X112.813 Y79.491 E7.0725
G1 X113.331 Y79.501 E7.08973
G1 X114.766 Y79.574 E7.13752
G1 X115.835 Y79.669 E7.17322
G1 X116.48 Y79.754 E7.19485
G1 X117.07 Y79.851 E7.21474
G1 X117.817 Y80.005 E7.24011
G1 X118.65 Y80.242 E7.26891
G1 X119.148 Y80.418 E7.28648
G1 X119.838 Y80.705 E7.31134
G1 X120.618 Y81.141 E7.34106
G1 X120.89 Y81.317 E7.35183
G1 X121.495 Y81.756 E7.3767
G1 X122.261 Y82.479 E7.41173
G1 X122.508 Y82.75 E7.42392
G1 X122.981 Y83.329 E7.44879
G1 X123.39 Y83.955 E7.47366
G1 X123.73 Y84.621 E7.49853
G1 X123.94 Y85.15 E7.51746
G1 X124.084 Y85.561 E7.53195
G1 X124.294 Y86.28 E7.55686
G1 X124.379 Y86.702 E7.57118
G1 X124.437 Y87.043 E7.58268
G1 X124.522 Y87.77 E7.60703
G1 X124.54 Y88.051 E7.61639
G1 X124.554 Y88.498 E7.63127
G1 X124.554 Y99.002 E7.98063
G1 X124.54 Y99.451 E7.99557
G1 X124.522 Y99.731 E8.00491
G1 X124.439 Y100.443 E8.02875
G1 X124.382 Y100.782 E8.04018
G1 X124.219 Y101.512 E8.06506
G1 X124.089 Y101.926 E8.07949
G1 X123.945 Y102.339 E8.09404
G1 X123.661 Y103.031 E8.11892
G1 X123.305 Y103.689 E8.1438
G1 X122.881 Y104.305 E8.16867
G1 X122.488 Y104.772 E8.18897
G1 X122.237 Y105.045 E8.20131
G1 X121.702 Y105.568 E8.22619
G1 X120.891 Y106.181 E8.26001
G1 X120.621 Y106.356 E8.27071
G1 X119.973 Y106.729 E8.29557
G1 X119.15 Y107.081 E8.32535
G1 X118.65 Y107.258 E8.34299
G1 X117.8 Y107.499 E8.37237
G1 X117.068 Y107.649 E8.39723
G1 X116.478 Y107.746 E8.41711
G1 X116.093 Y107.799 E8.43004
G1 X115.065 Y107.904 E8.46441
G1 X114.162 Y107.964 E8.49451
G1 X112.877 Y108.007 E8.53727
G1 X112.114 Y108.01 E8.56265
G1 X111.245 Y107.992 E8.59156
G1 X110.661 Y107.967 E8.611
G1 X109.885 Y107.915 E8.63687
G1 X108.893 Y107.82 E8.67001
G1 X108.062 Y107.71 E8.69789
G1 X107.212 Y107.567 E8.72656
G1 X106.326 Y107.381 E8.75667
G1 X105.769 Y107.242 E8.77577
G1 X105.435 Y107.15 E8.78729
G1 X104.9 Y106.988 E8.80588
G1 X104.505 Y106.855 E8.81974
G1 X103.993 Y106.666 E8.8379
G1 X103.524 Y106.473 E8.85476
G1 X103.048 Y106.257 E8.87215
G1 X102.553 Y106.009 E8.89056
G1 X102.11 Y105.764 E8.9074
G1 X101.632 Y105.473 E8.92601
G1 X101.223 Y105.202 E8.94233
G1 X100.732 Y104.846 E8.9625
G1 X100.361 Y104.551 E8.97827
G1 X99.913 Y104.162 E8.998
G1 X99.573 Y103.841 E9.01355
G1 X99.183 Y103.442 E9.03211
G1 X98.876 Y103.102 E9.04735
G1 X98.503 Y102.653 E9.06676
G1 X98.228 Y102.292 E9.08186
G1 X97.91 Y101.839 E9.10027
G1 X97.666 Y101.46 E9.11526
G1 X97.41 Y101.029 E9.13193
G1 X97.194 Y100.634 E9.1469
G1 X96.955 Y100.154 E9.16474
G1 X96.771 Y99.746 E9.17963
G1 X96.598 Y99.326 E9.19473
G1 X96.439 Y98.902 E9.20979
G1 X96.293 Y98.471 E9.22493
G1 X96.162 Y98.038 E9.23998
G1 X96.053 Y97.636 E9.25383
G1 X95.948 Y97.196 E9.26887
G1 X95.868 Y96.811 E9.28195
G1 X95.787 Y96.361 E9.29716
G1 X95.729 Y95.98 E9.30998
G1 X95.638 Y95.172 E9.33702
G1 X95.605 Y94.715 E9.35226
G1 X95.589 Y94.361 E9.36405
G1 X95.579 Y93.593 E9.38959
G1 X95.605 Y92.782 E9.41658
G1 X95.638 Y92.324 E9.43186
G1 X95.727 Y91.527 E9.45853
G1 X95.786 Y91.134 E9.47175
G1 X95.868 Y90.68 E9.48709
G1 X95.948 Y90.3 E9.50001
G1 X96.052 Y89.864 E9.51491
G1 X96.161 Y89.461 E9.5288
G1 X96.292 Y89.028 E9.54385
G1 X96.445 Y88.577 E9.55969
G1 X96.607 Y88.149 E9.57491
G1 X96.772 Y87.752 E9.58921
G1 X96.954 Y87.348 E9.60394
G1 X97.188 Y86.876 E9.62147
G1 X97.403 Y86.481 E9.63642
G1 X97.665 Y86.039 E9.65351
G1 X97.909 Y85.66 E9.66851
G1 X98.227 Y85.207 E9.68691
G1 X98.502 Y84.846 E9.70201
G1 X98.875 Y84.397 E9.72142
G0 F6000 X99.171 Y84.665
G1 F1200 X99.478 Y84.325 E9.73666
G1 X99.846 Y83.949 E9.75416
G1 X100.186 Y83.628 E9.76971
G1 X100.609 Y83.261 E9.78834
G1 X100.98 Y82.966 E9.8041
G1 X101.443 Y82.63 E9.82313
G1 X101.852 Y82.359 E9.83945
G1 X102.293 Y82.091 E9.85661
G1 X102.736 Y81.845 E9.87346
G1 X103.223 Y81.6 E9.8916
G1 X103.699 Y81.385 E9.90897
G1 X104.145 Y81.203 E9.92499
G1 X104.658 Y81.015 E9.94316
G1 X105.019 Y80.894 E9.95583
G1 X105.545 Y80.735 E9.9741
G1 X105.86 Y80.649 E9.98496
G1 X106.716 Y80.442 E10.01425
G1 X107.306 Y80.323 E10.03427
G1 X108.11 Y80.187 E10.06139
G1 X108.933 Y80.078 E10.08901
G1 X109.91 Y79.983 E10.12165
G1 X110.508 Y79.942 E10.14159
G1 X111.416 Y79.902 E10.17182
G1 X111.987 Y79.891 E10.19081
G1 X112.805 Y79.891 E10.21802
G1 X113.522 Y79.908 E10.24188
G1 X114.732 Y79.972 E10.28218
G1 X115.56 Y80.043 E10.30982
G1 X116.415 Y80.148 E10.33847
G1 X117.005 Y80.245 E10.35836
G1 X117.731 Y80.395 E10.38301
G1 X118.516 Y80.619 E10.41016
G1 X119.014 Y80.795 E10.42773
G1 X119.685 Y81.075 E10.45191
G1 X120.4 Y81.477 E10.4792
G1 X120.672 Y81.653 E10.48997
G1 X121.26 Y82.08 E10.51414
G1 X121.965 Y82.748 E10.54644
G1 X122.212 Y83.019 E10.55864
G1 X122.671 Y83.582 E10.5828
G1 X123.065 Y84.192 E10.60695
G1 X123.39 Y84.842 E10.63112
G1 X123.563 Y85.283 E10.64688
G1 X123.707 Y85.694 E10.66136
G1 X123.909 Y86.391 E10.6855
G1 X123.985 Y86.769 E10.69832
G1 X124.043 Y87.11 E10.70983
G1 X124.123 Y87.795 E10.73277
G1 X124.141 Y88.076 E10.74213
G1 X124.154 Y88.498 E10.75617
G1 X124.154 Y99.002 E11.10554
G1 X124.14 Y99.425 E11.11961
G1 X124.122 Y99.705 E11.12895
G1 X124.045 Y100.376 E11.15141
G1 X123.988 Y100.715 E11.16284
G1 X123.828 Y101.424 E11.18702
G1 X123.711 Y101.794 E11.19993
G1 X123.567 Y102.207 E11.21447
G1 X123.291 Y102.879 E11.23864
G1 X122.942 Y103.516 E11.26279
G1 X122.525 Y104.111 E11.28696
G1 X122.194 Y104.501 E11.30397
G1 X121.943 Y104.774 E11.31631
G1 X121.422 Y105.281 E11.34049
G1 X120.674 Y105.845 E11.37165
G1 X120.404 Y106.02 E11.38235
G1 X119.773 Y106.381 E11.40653
G1 X119.016 Y106.704 E11.4339
G1 X118.516 Y106.881 E11.45154
G1 X117.715 Y107.109 E11.47924
G1 X117.003 Y107.255 E11.50341
G1 X116.413 Y107.352 E11.5233
G1 X116.05 Y107.401 E11.53548
G1 X115.039 Y107.504 E11.56928
G1 X113.896 Y107.576 E11.60738
G1 X112.667 Y107.61 E11.64827
G1 X111.975 Y107.609 E11.67128
G1 X111.405 Y107.597 E11.69025
G1 X110.678 Y107.567 E11.71445
G1 X109.912 Y107.516 E11.73998
G1 X109.167 Y107.448 E11.76486
