;FLAVOR:Marlin
;TIME:3846
;Filament used: 2.16485m
;Layer height: 0.2
;MINX:91.245
;MINY:86.573
;MINZ:0.2
;MAXX:128.755
;MAXY:112.928
;MAXZ:49.6
;Generated with Cura_SteamEngine 5.2.2
M82 ;absolute extrusion mode
; Ender 3 Custom Start G-code
G92 E0 ; Reset Extruder
G28 ; Home all axes
M104 S175 ; Start heating up the nozzle most of the way
M190 S60 ; Start heating the bed, wait until target temperature reached
M109 S200 ; Finish heating the nozzle
G1 Z2.0 F3000 ; Move Z Axis up little to prevent scratching of Heat Bed
G1 X0.1 Y20 Z0.3 F5000.0 ; Move to start position
G1 X0.1 Y200.0 Z0.3 F1500.0 E15 ; Draw the first line
G1 X0.4 Y200.0 Z0.3 F5000.0 ; Move to side a little
G1 X0.4 Y20 Z0.3 F1500.0 E30 ; Draw the second line
G92 E0 ; Reset Extruder
G1 Z2.0 F3000 ; Move Z Axis up little to prevent scratching of Heat Bed
G1 X5 Y20 Z0.3 F5000.0 ; Move over to prevent blob squish
G92 E0
G92 E0
G1 F1500 E-6.5
;LAYER_COUNT:248
;LAYER:0
M107
;MESH:2_head_support_7.73cm.stl
G0 F6000 X97.405 Y112.527 Z0.2
;TYPE:WALL-INNER
G1 F1500 E0
G1 F1200 X122.595 Y112.527 E0.83782
G1 X125.647 Y107.845 E1.02371
G1 X126.82 Y105.997 E1.09651
G1 X127.261 Y105.282 E1.12445
G1 X127.604 Y104.707 E1.14672
G1 X127.996 Y103.999 E1.17364
G1 X128.157 Y103.665 E1.18597
G1 X128.303 Y103.288 E1.19942
G1 X128.351 Y102.85 E1.21407
G1 X128.353 Y90.102 E1.63807
G1 X128.343 Y89.671 E1.65241
G1 X128.306 Y89.242 E1.66673
G1 X128.228 Y88.857 E1.6798
G1 X128.103 Y88.523 E1.69166
G1 X127.908 Y88.217 E1.70373
G1 X127.588 Y87.905 E1.71859
G1 X127.25 Y87.718 E1.73144
G1 X126.98 Y87.599 E1.74125
G1 X126.69 Y87.504 E1.7514
G1 X126.335 Y87.408 E1.76364
G1 X125.946 Y87.324 E1.77687
G1 X125.518 Y87.25 E1.79132
G1 X124.957 Y87.176 E1.81014
G1 X124.466 Y87.125 E1.82656
G1 X123.509 Y87.056 E1.85847
G1 X122.842 Y87.023 E1.88068
G1 X121.682 Y86.99 E1.91928
G1 X120.615 Y86.976 E1.95477
G1 X99.445 Y86.977 E2.65889
G1 X97.617 Y87.007 E2.7197
G1 X96.435 Y87.058 E2.75905
G1 X95.481 Y87.129 E2.79086
G1 X94.946 Y87.186 E2.80876
G1 X94.485 Y87.249 E2.82423
G1 X93.999 Y87.334 E2.84064
G1 X93.664 Y87.407 E2.85205
G1 X93.324 Y87.498 E2.86375
G1 X93.007 Y87.604 E2.87487
G1 X92.75 Y87.717 E2.88421
G1 X92.53 Y87.838 E2.89256
G1 X92.137 Y88.145 E2.90915
G1 X91.896 Y88.526 E2.92414
G1 X91.772 Y88.856 E2.93587
G1 X91.694 Y89.244 E2.94903
G1 X91.659 Y89.634 E2.96205
G1 X91.646 Y90.097 E2.97746
G1 X91.646 Y103.023 E3.40738
G1 X91.738 Y103.392 E3.42003
G1 X91.842 Y103.661 E3.42962
G1 X92.006 Y104.001 E3.44217
G1 X92.219 Y104.399 E3.45719
G1 X92.73 Y105.27 E3.49078
G1 X93.24 Y106.092 E3.52295
G1 X94.334 Y107.815 E3.59083
G1 X97.405 Y112.527 E3.7779
G0 F6000 X97.188 Y112.927
;TYPE:WALL-OUTER
G1 F1200 X122.812 Y112.927 E4.63016
G1 X125.985 Y108.059 E4.82343
G1 X127.16 Y106.207 E4.89638
G1 X127.605 Y105.487 E4.92453
G1 X127.951 Y104.907 E4.94699
G1 X128.352 Y104.183 E4.97452
G1 X128.525 Y103.824 E4.98777
G1 X128.695 Y103.382 E5.00352
G1 X128.751 Y102.872 E5.02059
G1 X128.753 Y90.093 E5.44562
G1 X128.743 Y89.649 E5.46039
G1 X128.702 Y89.185 E5.47588
G1 X128.614 Y88.747 E5.49074
G1 X128.463 Y88.344 E5.50506
G1 X128.228 Y87.973 E5.51966
G1 X127.895 Y87.647 E5.53516
G1 X127.682 Y87.5 E5.54377
G1 X127.428 Y87.359 E5.55343
G1 X127.124 Y87.225 E5.56448
G1 X126.805 Y87.12 E5.57565
G1 X126.429 Y87.019 E5.5886
G1 X126.022 Y86.931 E5.60245
G1 X125.578 Y86.854 E5.61744
G1 X125.003 Y86.778 E5.63673
G1 X124.501 Y86.727 E5.65351
G1 X123.533 Y86.656 E5.6858
G1 X122.858 Y86.623 E5.70827
G1 X121.69 Y86.59 E5.74714
G1 X120.617 Y86.576 E5.78283
G1 X99.439 Y86.577 E6.48721
G1 X97.605 Y86.607 E6.54822
G1 X96.409 Y86.659 E6.58803
G1 X95.873 Y86.695 E6.6059
G1 X95.352 Y86.74 E6.62329
G1 X94.898 Y86.789 E6.63848
G1 X94.424 Y86.853 E6.65439
G1 X93.981 Y86.93 E6.66935
G1 X93.57 Y87.018 E6.68333
G1 X93.209 Y87.114 E6.69575
G1 X92.863 Y87.23 E6.70789
G1 X92.572 Y87.358 E6.71846
G1 X92.318 Y87.498 E6.72811
G1 X92 Y87.721 E6.74103
G1 X91.771 Y87.974 E6.75238
G1 X91.536 Y88.347 E6.76704
G1 X91.386 Y88.746 E6.78122
G1 X91.298 Y89.186 E6.79614
G1 X91.259 Y89.61 E6.8103
G1 X91.246 Y90.091 E6.82631
G1 X91.246 Y102.931 E7.25337
G1 X91.274 Y103.185 E7.26187
G1 X91.356 Y103.513 E7.27311
G1 X91.475 Y103.821 E7.28409
G1 X91.65 Y104.183 E7.29747
G1 X91.87 Y104.595 E7.313
G1 X92.388 Y105.476 E7.34699
G1 X92.902 Y106.306 E7.37946
G1 X93.999 Y108.033 E7.44751
G1 X97.188 Y112.927 E7.6418
G1 F1500 E1.1418
G0 F6000 X97.404 Y112.341
G0 X107.612 Y112.328
G0 X108.408 Y111.749
G0 X109.5 Y111.796
;TYPE:WALL-INNER
G1 F1500 E7.6418
G1 F1200 X108.973 Y111.714 E7.65953
G1 X108.456 Y111.575 E7.67734
G1 X107.899 Y111.359 E7.69721
G1 X107.489 Y111.145 E7.71259
G1 X106.983 Y110.812 E7.73274
G1 X106.579 Y110.471 E7.75032
G1 X106.25 Y110.134 E7.76599
G1 X105.919 Y109.719 E7.78364
G1 X105.629 Y109.264 E7.80159
G1 X105.394 Y108.786 E7.81931
G1 X105.209 Y108.292 E7.83685
G1 X105.064 Y107.685 E7.85761
G1 X105.001 Y107.211 E7.87351
G1 X104.988 Y106.536 E7.89597
G1 X104.992 Y106.45 E7.89883
G1 X105.029 Y106.15 E7.90888
G1 X105.141 Y105.569 E7.92856
G1 X105.293 Y105.081 E7.94556
G1 X105.488 Y104.619 E7.96224
G1 X105.73 Y104.179 E7.97894
G1 X106.074 Y103.688 E7.99888
G1 X106.383 Y103.335 E8.01449
G1 X106.788 Y102.952 E8.03303
G1 X107.251 Y102.614 E8.05209
G1 X107.716 Y102.343 E8.06999
G1 X108.199 Y102.128 E8.08758
G1 X108.712 Y101.961 E8.10552
G1 X109.192 Y101.857 E8.12186
G1 X109.699 Y101.803 E8.13882
G1 X110.298 Y101.803 E8.15874
G1 X110.828 Y101.862 E8.17648
G1 X111.348 Y101.978 E8.1942
G1 X111.855 Y102.149 E8.21199
G1 X112.281 Y102.341 E8.22753
G1 X112.79 Y102.641 E8.24718
G1 X113.165 Y102.914 E8.26261
G1 X113.612 Y103.33 E8.28292
G1 X113.963 Y103.734 E8.30072
G1 X114.264 Y104.17 E8.31834
G1 X114.512 Y104.62 E8.33543
G1 X114.725 Y105.13 E8.35382
G1 X114.862 Y105.581 E8.36949
G1 X114.965 Y106.11 E8.38742
G1 X115.01 Y106.526 E8.40133
G1 X114.999 Y107.203 E8.42385
G1 X114.934 Y107.69 E8.4402
G1 X114.81 Y108.226 E8.45849
G1 X114.631 Y108.726 E8.47616
G1 X114.404 Y109.202 E8.4937
G1 X114.12 Y109.663 E8.51171
G1 X113.755 Y110.128 E8.53137
G1 X113.382 Y110.508 E8.54908
G1 X113.021 Y110.81 E8.56473
G1 X112.574 Y111.109 E8.58262
G1 X112.027 Y111.395 E8.60315
G1 X111.548 Y111.574 E8.62016
G1 X111.03 Y111.714 E8.638
G1 X110.502 Y111.796 E8.65578
G1 X109.967 Y111.821 E8.67359
G1 X109.5 Y111.796 E8.68914
G0 F6000 X109.037 Y111.319
;TYPE:WALL-OUTER
G1 F1200 X108.543 Y111.183 E8.70619
G1 X108.084 Y111.004 E8.72257
G1 X107.657 Y110.78 E8.73861
G1 X107.239 Y110.505 E8.75525
G1 X106.88 Y110.205 E8.77081
G1 X106.522 Y109.838 E8.78786
G1 X106.221 Y109.454 E8.80409
G1 X105.957 Y109.032 E8.82065
G1 X105.754 Y108.612 E8.83616
G1 X105.577 Y108.13 E8.85324
G1 X105.46 Y107.632 E8.87026
G1 X105.4 Y107.18 E8.88542
G1 X105.388 Y106.528 E8.90711
G1 X105.428 Y106.187 E8.91853
G1 X105.523 Y105.686 E8.93549
G1 X105.655 Y105.255 E8.95048
G1 X105.848 Y104.793 E8.96714
G1 X106.08 Y104.373 E8.9831
G1 X106.375 Y103.952 E9.00019
G1 X106.684 Y103.599 E9.0158
G1 X107.052 Y103.252 E9.03262
G1 X107.455 Y102.958 E9.04921
G1 X107.881 Y102.707 E9.06566
G1 X108.306 Y102.515 E9.08117
G1 X108.797 Y102.352 E9.09837
G1 X109.261 Y102.251 E9.11417
G1 X109.741 Y102.201 E9.13022
G1 X110.256 Y102.201 E9.14735
G1 X110.744 Y102.253 E9.16367
G1 X111.202 Y102.352 E9.17926
G1 X111.691 Y102.514 E9.19639
G1 X112.136 Y102.716 E9.21264
G1 X112.538 Y102.954 E9.22818
G1 X112.948 Y103.253 E9.24506
G1 X113.312 Y103.594 E9.26165
G1 X113.622 Y103.946 E9.27725
G1 X113.914 Y104.364 E9.29421
G1 X114.152 Y104.794 E9.31056
G1 X114.342 Y105.246 E9.32686
G1 X114.479 Y105.697 E9.34254
G1 X114.574 Y106.198 E9.3595
G1 X114.609 Y106.492 E9.36935
G1 X114.599 Y107.182 E9.3923
G1 X114.538 Y107.637 E9.40757
G1 X114.421 Y108.134 E9.42455
G1 X114.248 Y108.605 E9.44124
G1 X114.033 Y109.048 E9.45762
G1 X113.769 Y109.468 E9.47412
G1 X113.468 Y109.849 E9.49027
G1 X113.125 Y110.201 E9.50661
G1 X112.764 Y110.503 E9.52227
G1 X112.336 Y110.786 E9.53933
G1 X111.885 Y111.021 E9.55625
G1 X111.441 Y111.188 E9.57203
G1 X110.966 Y111.319 E9.58841
G1 X110.502 Y111.394 E9.60405
G1 X109.989 Y111.421 E9.62113
G1 X109.501 Y111.394 E9.63739
G1 X109.037 Y111.319 E9.65302
G0 F6000 X108.829 Y112.109
;TYPE:SKIN
G1 F1036.7 X109.46 Y112.16 E9.67739
G1 F1203 X109.948 Y112.174 E9.69359
G1 F1188.1 X110.63 Y112.156 E9.71651
G1 F1025.6 X111.179 Y112.109 E9.73795
G0 F6000 X111.178 Y111.781
G0 X108.834 Y111.784
G0 X108.829 Y112.109
G1 F1050.3 X107.729 Y111.678 E9.78285
G1 F1200 X107.237 Y111.415 E9.8014
G1 X106.823 Y111.143 E9.81788
G1 X106.318 Y110.72 E9.83979
G1 X105.921 Y110.307 E9.85884
G1 X105.636 Y109.942 E9.87424
G1 X105.313 Y109.436 E9.89421
G1 X105.071 Y108.944 E9.91245
G1 X104.862 Y108.395 E9.93198
G1 X104.716 Y107.795 E9.95252
G1 X104.642 Y107.238 E9.97121
G1 X104.628 Y106.456 E9.99722
G1 X104.674 Y106.093 E10.00939
G1 X104.794 Y105.463 E10.03072
G1 X104.926 Y105.034 E10.04565
G1 X105.167 Y104.456 E10.06648
G1 X105.469 Y103.919 E10.08697
G1 X105.804 Y103.447 E10.10622
G1 X106.165 Y103.042 E10.12427
G1 X106.551 Y102.679 E10.14189
G1 X107.052 Y102.314 E10.16251
G1 X107.57 Y102.012 E10.18245
G1 X108.008 Y101.816 E10.19841
G1 X108.554 Y101.63 E10.2176
G1 X109.125 Y101.502 E10.23706
G1 X109.66 Y101.445 E10.25495
G1 X110.254 Y101.44 E10.27471
G1 X110.802 Y101.493 E10.29302
G1 X111.382 Y101.613 E10.31272
G1 X112.006 Y101.822 E10.33461
G1 X112.441 Y102.018 E10.35048
G1 X112.986 Y102.339 E10.37152
G1 X113.452 Y102.683 E10.39078
G1 X113.829 Y103.035 E10.40794
G1 X114.193 Y103.442 E10.4261
G1 X114.581 Y103.997 E10.44862
G1 X114.837 Y104.465 E10.46636
G1 X115.065 Y105.008 E10.48595
G1 X115.231 Y105.571 E10.50547
G1 X115.324 Y106.068 E10.52229
G1 X115.37 Y106.448 E10.53502
G1 X115.353 Y107.285 E10.56287
G1 X115.289 Y107.757 E10.57871
G1 X115.164 Y108.305 E10.5974
G1 X114.93 Y108.943 E10.62001
G1 X114.73 Y109.358 E10.63533
G1 X114.365 Y109.941 E10.65821
G1 X114.014 Y110.38 E10.6769
G1 X113.672 Y110.73 E10.69318
G1 X113.237 Y111.098 E10.71213
G1 X112.779 Y111.408 E10.73052
G1 X112.242 Y111.693 E10.75074
G1 F1050.3 X111.179 Y112.109 E10.79412
G1 X111.741 Y112.167 E10.81559
G1 F1200 X122.4 Y112.166 E11.17011
G1 X125.325 Y107.678 E11.34828
G1 X126.487 Y105.848 E11.42038
G1 X126.923 Y105.143 E11.44795
G1 X127.291 Y104.529 E11.47176
G1 X127.676 Y103.832 E11.49825
G1 X127.825 Y103.524 E11.50962
G1 X127.95 Y103.189 E11.52152
G1 X127.991 Y102.828 E11.5336
G1 X127.992 Y90.077 E11.9577
G1 X127.983 Y89.691 E11.97054
G1 X127.948 Y89.293 E11.98383
G1 X127.88 Y88.955 E11.9953
G1 X127.778 Y88.683 E12.00496
G1 X127.624 Y88.441 E12.0145
G1 X127.428 Y88.249 E12.02363
G1 X127.086 Y88.039 E12.03698
G1 X126.851 Y87.935 E12.04552
G1 X126.575 Y87.843 E12.0552
G1 X126.252 Y87.759 E12.0663
G1 X125.877 Y87.678 E12.07906
G1 X125.464 Y87.607 E12.093
G1 X124.914 Y87.533 E12.11146
G1 X124.383 Y87.481 E12.1292
G1 X123.487 Y87.415 E12.15908
G1 X122.83 Y87.383 E12.18096
G1 X121.674 Y87.35 E12.21943
G1 X120.66 Y87.337 E12.25315
G1 X99.516 Y87.337 E12.95641
G1 X97.627 Y87.367 E13.01924
G1 X96.509 Y87.415 E13.05646
G1 X95.456 Y87.494 E13.09158
G1 X94.991 Y87.544 E13.10714
G1 X94.541 Y87.604 E13.12224
G1 X94.082 Y87.687 E13.13775
G1 X93.749 Y87.759 E13.14908
G1 X93.442 Y87.839 E13.15963
G1 X93.137 Y87.939 E13.17031
G1 X92.801 Y88.088 E13.18254
G1 X92.576 Y88.246 E13.19168
G1 X92.376 Y88.441 E13.20097
G1 X92.219 Y88.689 E13.21073
G1 X92.121 Y88.952 E13.22007
G1 X92.052 Y89.296 E13.23174
G1 X92.019 Y89.654 E13.24369
G1 X92.007 Y90.1 E13.25853
G1 X92.006 Y102.976 E13.68679
G1 X92.08 Y103.269 E13.69684
G1 X92.173 Y103.516 E13.70562
G1 X92.357 Y103.894 E13.7196
G1 X92.532 Y104.222 E13.73197
G1 X92.997 Y105.014 E13.76252
G1 X93.487 Y105.808 E13.79355
G1 X94.595 Y107.555 E13.86235
G1 X97.6 Y112.166 E14.04541
G1 X108.318 Y112.167 E14.40189
G1 F1050.3 X108.829 Y112.109 E14.42143
G1 F1500 E7.92143
G0 F6000 X108.834 Y111.784
G0 X106.94 Y111.005
G0 X106.94 Y112.708
G0 X97.822 Y111.964
G1 F1500 E14.42143
G1 F1200 X97.493 Y111.635 E14.43691
G0 F6000 X98.388 Y111.964
G1 F1200 X96.436 Y110.013 E14.5287
G0 F6000 X96.05 Y110.264
G0 X94.993 Y108.641
G0 X95.379 Y108.39
G1 F1200 X98.953 Y111.964 E14.69681
G0 F6000 X99.519 Y111.964
G1 F1200 X94.349 Y106.794 E14.93999
G0 F6000 X93.958 Y107.035
G0 X92.996 Y105.51
G0 X93.389 Y105.268
G1 F1200 X100.085 Y111.964 E15.25495
G0 F6000 X100.65 Y111.964
G1 F1200 X92.587 Y103.901 E15.63421
G0 F6000 X92.181 Y104.117
G0 X91.754 Y102.988
G0 X92.207 Y102.955
G1 F1200 X101.216 Y111.964 E16.05797
G0 F6000 X101.782 Y111.964
G1 F1200 X92.206 Y102.388 E16.50839
G0 F6000 X92.206 Y101.822
G1 F1200 X102.348 Y111.964 E16.98544
G0 F6000 X102.913 Y111.964
G1 F1200 X92.206 Y101.256 E17.48909
G0 F6000 X92.206 Y100.691
G1 F1200 X103.479 Y111.964 E18.01934
G0 F6000 X104.045 Y111.964
G1 F1200 X92.206 Y100.125 E18.57621
G0 F6000 X92.206 Y99.559
G1 F1200 X104.61 Y111.964 E19.15968
G0 F6000 X105.176 Y111.964
G1 F1200 X92.206 Y98.994 E19.76975
G0 F6000 X92.206 Y98.428
G1 F1200 X105.742 Y111.964 E20.40644
G0 F6000 X106.307 Y111.964
G1 F1200 X92.206 Y97.862 E21.06973
G0 F6000 X92.206 Y97.297
G1 F1200 X106.873 Y111.964 E21.75962
G0 F6000 X106.914 Y111.44
G1 F1200 X107.439 Y111.964 E21.78429
G1 F1500 E15.28429
G0 F6000 X107.437 Y112.427
G0 X106.36 Y112.328
G0 X106.45 Y110.596
G0 X105.368 Y109.894
G1 F1500 E21.78429
G1 F1200 X92.206 Y96.731 E22.40341
G0 F6000 X92.206 Y96.166
G1 F1200 X104.78 Y108.74 E22.99486
G0 F6000 X104.547 Y107.941
G1 F1200 X92.206 Y95.6 E23.57534
G0 F6000 X92.206 Y95.035
G1 F1200 X104.446 Y107.275 E24.15107
G0 F6000 X104.431 Y106.694
G1 F1200 X92.206 Y94.469 E24.7261
G0 F6000 X92.206 Y93.903
G1 F1200 X104.465 Y106.162 E25.30272
G0 F6000 X104.548 Y105.679
G1 F1200 X92.206 Y93.338 E25.88323
G0 F6000 X92.206 Y92.772
G1 F1200 X104.66 Y105.225 E26.469
G0 F6000 X104.804 Y104.804
G1 F1200 X92.206 Y92.206 E27.06158
G0 F6000 X92.206 Y91.641
G1 F1200 X104.97 Y104.405 E27.66196
G0 F6000 X105.172 Y104.04
G1 F1200 X92.206 Y91.075 E28.27181
G0 F6000 X92.206 Y90.509
G1 F1200 X105.387 Y103.69 E28.89181
G0 F6000 X105.622 Y103.359
G1 F1200 X92.21 Y89.947 E29.52267
G0 F6000 X92.24 Y89.412
G1 F1200 X105.884 Y103.056 E30.16444
G0 F6000 X106.162 Y102.768
G1 F1200 X92.327 Y88.933 E30.81519
G0 F6000 X92.529 Y88.57
G1 F1200 X106.458 Y102.498 E31.47035
G0 F6000 X106.785 Y102.259
G1 F1200 X92.838 Y88.313 E32.12635
G0 F6000 X93.215 Y88.124
G1 F1200 X107.128 Y102.036 E32.78075
G0 F6000 X107.488 Y101.831
G1 F1200 X93.649 Y87.992 E33.43169
G0 F6000 X94.108 Y87.886
G1 F1200 X107.877 Y101.655 E34.07935
G0 F6000 X108.295 Y101.507
G1 F1200 X94.587 Y87.799 E34.72413
G0 F6000 X95.087 Y87.733
G1 F1200 X108.737 Y101.383 E35.36618
G0 F6000 X109.211 Y101.291
G1 F1200 X95.602 Y87.682 E36.00631
G0 F6000 X96.128 Y87.643
G1 F1200 X109.73 Y101.244 E36.64608
G0 F6000 X110.293 Y101.242
G1 F1200 X96.661 Y87.61 E37.28729
G0 F6000 X97.203 Y87.586
G1 F1200 X110.933 Y101.317 E37.93313
G0 F6000 X111.686 Y101.504
G1 F1200 X97.748 Y87.565 E38.58875
G0 F6000 X98.304 Y87.556
G1 F1200 X112.671 Y101.923 E39.26453
G0 F6000 X112.44 Y102.314
G0 X114.481 Y104.354
G0 X114.881 Y104.133
G1 F1200 X122.458 Y111.71 E39.62093
G0 F6000 X122.148 Y111.966
G1 F1200 X115.307 Y105.125 E39.94271
G0 F6000 X115.491 Y105.874
G1 F1200 X121.582 Y111.966 E40.22924
G0 F6000 X121.017 Y111.966
G1 F1200 X115.565 Y106.515 E40.48566
G0 F6000 X115.556 Y107.071
G1 F1200 X120.451 Y111.966 E40.7159
G0 F6000 X119.885 Y111.966
G1 F1200 X115.511 Y107.591 E40.92167
G0 F6000 X115.421 Y108.067
G1 F1200 X119.32 Y111.966 E41.10506
G0 F6000 X118.754 Y111.966
G1 F1200 X115.298 Y108.51 E41.26762
G0 F6000 X115.147 Y108.924
G1 F1200 X118.188 Y111.966 E41.41069
G0 F6000 X117.622 Y111.966
G1 F1200 X114.971 Y109.314 E41.53541
G0 F6000 X114.766 Y109.675
G1 F1200 X117.057 Y111.966 E41.64317
G0 F6000 X116.491 Y111.966
G1 F1200 X114.549 Y110.024 E41.73451
G0 F6000 X114.298 Y110.339
G1 F1200 X115.925 Y111.966 E41.81104
G0 F6000 X115.36 Y111.966
G1 F1200 X114.036 Y110.642 E41.87332
G0 F6000 X113.752 Y110.924
G1 F1200 X114.794 Y111.966 E41.92233
G0 F6000 X114.228 Y111.966
G1 F1200 X113.445 Y111.182 E41.95918
G0 F6000 X113.117 Y111.42
G1 F1200 X113.663 Y111.966 E41.98487
G0 F6000 X113.097 Y111.966
