;FLAVOR:Marlin
;TIME:5125
;Filament used: 3.78047m
;Layer height: 0.2
;MINX:83.246
;MINY:95.557
;MINZ:0.2
;MAXX:136.753
;MAXY:124.573
;MAXZ:57
;Generated with Cura_SteamEngine 5.2.2
M82 ;absolute extrusion mode
; Ender 3 Custom Start G-code
G92 E0 ; Reset Extruder
G28 ; Home all axes
M104 S175 ; Start heating up the nozzle most of the way
M190 S60 ; Start heating the bed, wait until target temperature reached
M109 S200 ; Finish heating the nozzle
G1 Z2.0 F3000 ; Move Z Axis up little to prevent scratching of Heat Bed
G1 X0.1 Y20 Z0.3 F5000.0 ; Move to start position
G1 X0.1 Y200.0 Z0.3 F1500.0 E15 ; Draw the first line
G1 X0.4 Y200.0 Z0.3 F5000.0 ; Move to side a little
G1 X0.4 Y20 Z0.3 F1500.0 E30 ; Draw the second line
G92 E0 ; Reset Extruder
G1 Z2.0 F3000 ; Move Z Axis up little to prevent scratching of Heat Bed
G1 X5 Y20 Z0.3 F5000.0 ; Move over to prevent blob squish
G92 E0
G92 E0
G1 F1500 E-6.5
;LAYER_COUNT:285
;LAYER:0
M107
G0 F6000 X86.177 Y98.693 Z0.2
;TYPE:SKIRT
G1 F1500 E0
G1 F1200 X86.771 Y98.172 E0.02628
G1 X87.543 Y97.633 E0.0576
G1 X87.911 Y97.408 E0.07194
G1 X88.863 Y96.913 E0.10763
G1 X89.097 Y96.811 E0.11612
G1 X89.674 Y96.586 E0.13672
G1 X89.944 Y96.493 E0.14622
G1 X90.413 Y96.348 E0.16254
G1 X90.718 Y96.264 E0.17307
G1 X91.125 Y96.164 E0.18701
G1 X91.838 Y96.017 E0.21122
G1 X92.483 Y95.912 E0.23295
G1 X93.232 Y95.818 E0.25806
G1 X94.399 Y95.71 E0.29704
G1 X95.432 Y95.647 E0.33146
G1 X96.916 Y95.593 E0.38085
G1 X98.167 Y95.57 E0.42247
G1 X99.423 Y95.56 E0.46425
G1 X103.066 Y95.557 E0.58541
G1 X103.854 Y95.596 E0.61165
G1 X104.635 Y95.715 E0.63793
G1 X105.4 Y95.912 E0.6642
G1 X106.14 Y96.186 E0.69045
G1 X106.85 Y96.533 E0.71673
G1 X107.52 Y96.95 E0.74298
G1 X108.145 Y97.432 E0.76923
G1 X108.719 Y97.976 E0.79553
G1 X109.234 Y98.574 E0.82178
G1 X109.686 Y99.222 E0.84806
G1 X109.988 Y99.764 E0.8687
G1 X110.524 Y98.903 E0.90243
G1 X111.007 Y98.279 E0.92868
G1 X111.55 Y97.706 E0.95493
G1 X112.149 Y97.191 E0.98121
G1 X112.797 Y96.74 E1.00746
G1 X113.488 Y96.356 E1.03376
G1 X114.213 Y96.044 E1.06001
G1 X114.966 Y95.807 E1.08627
G1 X115.74 Y95.648 E1.11255
G1 X116.525 Y95.567 E1.13879
G1 X116.94 Y95.557 E1.1526
G1 X121.376 Y95.565 E1.30014
G1 X122.658 Y95.584 E1.34279
G1 X123.799 Y95.615 E1.38075
G1 X125.277 Y95.687 E1.42997
G1 X126.493 Y95.787 E1.47055
G1 X127.165 Y95.864 E1.49305
G1 X127.582 Y95.922 E1.50705
G1 X128.159 Y96.016 E1.52649
G1 X128.898 Y96.169 E1.55159
G1 X129.338 Y96.278 E1.56667
G1 X129.62 Y96.357 E1.57641
G1 X130.056 Y96.493 E1.5916
G1 X130.326 Y96.586 E1.6011
G1 X130.899 Y96.809 E1.62155
G1 X131.131 Y96.91 E1.62997
G1 X132.092 Y97.41 E1.666
G1 X132.461 Y97.636 E1.68039
G1 X133.113 Y98.082 E1.70666
G1 X133.814 Y98.686 E1.73744
G1 X134.07 Y98.934 E1.74929
G1 X134.609 Y99.511 E1.77556
G1 X135.281 Y100.44 E1.81369
G1 X135.447 Y100.709 E1.8242
G1 X135.827 Y101.401 E1.85046
G1 X136.203 Y102.323 E1.88358
G1 X136.297 Y102.603 E1.8934
G1 X136.511 Y103.363 E1.91966
G1 X136.618 Y103.934 E1.93899
G1 X136.658 Y104.202 E1.948
G1 X136.737 Y105.041 E1.97603
G1 X136.753 Y105.731 E1.99898
G1 X136.746 Y106.261 E2.01661
G1 X136.714 Y106.88 E2.03723
G1 X136.689 Y107.149 E2.04621
G1 X136.591 Y107.852 E2.06982
G1 X136.52 Y108.234 E2.08274
G1 X136.265 Y109.231 E2.11697
G1 X136.118 Y109.681 E2.13272
G1 X135.906 Y110.254 E2.15304
G1 X135.596 Y110.982 E2.17935
G1 X135.357 Y111.486 E2.19791
G1 X135.065 Y112.06 E2.21933
G1 X134.786 Y112.579 E2.23893
G1 X134.192 Y113.61 E2.2785
G1 X133.623 Y114.555 E2.31519
G1 X133.002 Y115.551 E2.35423
G1 X131.998 Y117.128 E2.41641
G1 X130.913 Y118.805 E2.48284
G1 X129.448 Y121.044 E2.57183
G1 X128.983 Y121.682 E2.59809
G1 X128.455 Y122.269 E2.62435
G1 X127.871 Y122.801 E2.65063
G1 X127.236 Y123.271 E2.6769
G1 X126.557 Y123.674 E2.70316
G1 X125.841 Y124.006 E2.72941
G1 X125.095 Y124.264 E2.75567
G1 X124.326 Y124.445 E2.78194
G1 X123.543 Y124.548 E2.80821
G1 X122.921 Y124.573 E2.82892
G1 X116.927 Y124.573 E3.02828
G1 X116.138 Y124.533 E3.05455
G1 X115.358 Y124.414 E3.0808
G1 X114.593 Y124.216 E3.10708
G1 X113.853 Y123.942 E3.13332
G1 X113.144 Y123.594 E3.15959
G1 X112.473 Y123.176 E3.18589
G1 X111.849 Y122.693 E3.21213
G1 X111.276 Y122.15 E3.23839
G1 X110.761 Y121.551 E3.26466
G1 X110.31 Y120.903 E3.29092
G1 X110.012 Y120.366 E3.31135
G1 X109.477 Y121.226 E3.34503
G1 X108.994 Y121.851 E3.37131
G1 X108.45 Y122.424 E3.39759
G1 X107.851 Y122.938 E3.42384
G1 X107.203 Y123.39 E3.45012
G1 X106.513 Y123.773 E3.47636
G1 X105.788 Y124.085 E3.50261
G1 X105.034 Y124.322 E3.5289
G1 X104.261 Y124.482 E3.55516
G1 X103.475 Y124.563 E3.58144
G1 X103.073 Y124.573 E3.59481
G1 X97.079 Y124.573 E3.79417
G1 X96.29 Y124.533 E3.82045
G1 X95.51 Y124.414 E3.84669
G1 X94.745 Y124.216 E3.87298
G1 X94.005 Y123.942 E3.89922
G1 X93.296 Y123.594 E3.92549
G1 X92.625 Y123.176 E3.95178
G1 X92.001 Y122.693 E3.97803
G1 X91.428 Y122.15 E4.00429
G1 X90.913 Y121.551 E4.03056
G1 X90.552 Y121.043 E4.05129
G1 X89.01 Y118.686 E4.14497
G1 X87.916 Y116.995 E4.21195
G1 X86.902 Y115.4 E4.27482
G1 X86.329 Y114.476 E4.31098
G1 X85.529 Y113.131 E4.36303
G1 X85.042 Y112.26 E4.39622
G1 X84.618 Y111.437 E4.42701
G1 X84.442 Y111.066 E4.44067
G1 X84.184 Y110.483 E4.46187
G1 X83.892 Y109.715 E4.4892
G1 X83.743 Y109.252 E4.50538
G1 X83.562 Y108.594 E4.52808
G1 X83.491 Y108.282 E4.53872
G1 X83.364 Y107.574 E4.56264
G1 X83.328 Y107.302 E4.57177
G1 X83.267 Y106.58 E4.59587
G1 X83.246 Y105.834 E4.62069
G1 X83.249 Y105.426 E4.63426
G1 X83.283 Y104.757 E4.65654
G1 X83.309 Y104.479 E4.66583
G1 X83.48 Y103.428 E4.70124
G1 X83.542 Y103.163 E4.7103
G1 X83.761 Y102.404 E4.73657
G1 X84.061 Y101.657 E4.76334
G1 X84.222 Y101.31 E4.77607
G1 X84.591 Y100.612 E4.80233
G1 X85.028 Y99.954 E4.8286
G1 X85.529 Y99.344 E4.85485
G1 X85.863 Y98.998 E4.87085
G1 X86.177 Y98.693 E4.88541
G0 F6000 X86.456 Y98.98
G1 F1200 X87.035 Y98.473 E4.911
G1 X87.752 Y97.975 E4.94004
G1 X88.12 Y97.75 E4.95439
G1 X89.023 Y97.279 E4.98826
G1 X89.257 Y97.177 E4.99675
G1 X89.804 Y96.964 E5.01627
G1 X90.074 Y96.871 E5.02577
G1 X90.519 Y96.734 E5.04126
G1 X91.21 Y96.554 E5.06501
G1 X91.905 Y96.411 E5.08861
G1 X92.29 Y96.346 E5.10159
G1 X92.991 Y96.248 E5.12514
G1 X93.271 Y96.216 E5.13451
G1 X94.424 Y96.11 E5.17302
G1 X95.645 Y96.038 E5.2137
G1 X96.924 Y95.993 E5.25627
G1 X98.17 Y95.97 E5.29772
G1 X99.423 Y95.96 E5.33939
G1 X103.066 Y95.957 E5.46056
G1 X103.834 Y95.996 E5.48614
G1 X104.594 Y96.115 E5.51172
G1 X105.337 Y96.312 E5.53729
G1 X106.056 Y96.586 E5.56288
G1 X106.743 Y96.932 E5.58846
G1 X107.39 Y97.348 E5.61405
G1 X107.991 Y97.828 E5.63963
G1 X108.538 Y98.369 E5.66522
G1 X109.026 Y98.963 E5.69079
G1 X109.45 Y99.605 E5.71638
G1 X109.805 Y100.287 E5.74195
G1 X110 Y100.782 E5.75965
G1 X110.158 Y100.367 E5.77441
G1 X110.505 Y99.681 E5.79998
G1 X110.921 Y99.034 E5.82557
G1 X111.402 Y98.434 E5.85114
G1 X111.943 Y97.887 E5.87673
G1 X112.538 Y97.399 E5.90233
G1 X113.18 Y96.976 E5.9279
G1 X113.863 Y96.621 E5.9535
G1 X114.578 Y96.34 E5.97905
G1 X115.32 Y96.134 E6.00466
G1 X116.078 Y96.006 E6.03023
G1 X116.939 Y95.957 E6.05892
G1 X121.37 Y95.965 E6.20629
G1 X122.647 Y95.984 E6.24877
G1 X123.938 Y96.02 E6.29173
G1 X125.011 Y96.071 E6.32745
G1 X126.228 Y96.164 E6.36805
G1 X126.896 Y96.234 E6.39039
G1 X127.526 Y96.319 E6.41153
G1 X128.093 Y96.411 E6.43064
G1 X128.812 Y96.559 E6.45505
G1 X129.23 Y96.663 E6.46938
G1 X129.512 Y96.742 E6.47912
G1 X129.926 Y96.871 E6.49354
G1 X130.196 Y96.964 E6.50304
G1 X130.74 Y97.176 E6.52246
G1 X130.972 Y97.277 E6.53088
G1 X131.883 Y97.752 E6.56505
G1 X132.252 Y97.978 E6.57944
G1 X132.886 Y98.413 E6.60501
G1 X133.536 Y98.973 E6.63355
G1 X133.792 Y99.221 E6.6454
G1 X134.316 Y99.784 E6.67098
G1 X134.94 Y100.65 E6.70649
G1 X135.106 Y100.919 E6.717
G1 X135.476 Y101.594 E6.7426
G1 X135.824 Y102.45 E6.77334
G1 X135.918 Y102.73 E6.78316
G1 X136.125 Y103.471 E6.80875
G1 X136.222 Y103.993 E6.82641
G1 X136.262 Y104.261 E6.83542
G1 X136.337 Y105.057 E6.86201
G1 X136.353 Y105.726 E6.88427
G1 X136.346 Y106.256 E6.9019
G1 X136.315 Y106.843 E6.92145
G1 X136.29 Y107.112 E6.93043
G1 X136.197 Y107.779 E6.95283
G1 X136.126 Y108.161 E6.96576
G1 X135.885 Y109.107 E6.99823
G1 X135.738 Y109.557 E7.01397
G1 X135.537 Y110.101 E7.03326
G1 X135.234 Y110.814 E7.05903
G1 X135.001 Y111.304 E7.07707
G1 X134.709 Y111.878 E7.09849
G1 X134.434 Y112.388 E7.11776
G1 X133.849 Y113.404 E7.15676
G1 X133.283 Y114.344 E7.19325
G1 X132.665 Y115.337 E7.23215
G1 X131.662 Y116.911 E7.29423
G1 X130.578 Y118.586 E7.36059
G1 X129.113 Y120.825 E7.44958
G1 X128.659 Y121.446 E7.47517
G1 X128.143 Y122.016 E7.50074
G1 X127.571 Y122.53 E7.52632
G1 X126.948 Y122.981 E7.5519
G1 X126.282 Y123.366 E7.57749
G1 X125.58 Y123.679 E7.60305
G1 X124.848 Y123.918 E7.62866
G1 X124.096 Y124.079 E7.65424
G1 X123.332 Y124.162 E7.6798
G1 X122.921 Y124.173 E7.69348
G1 X116.927 Y124.173 E7.89284
G1 X116.159 Y124.133 E7.91842
G1 X115.399 Y124.014 E7.944
G1 X114.656 Y123.816 E7.96958
G1 X113.937 Y123.542 E7.99517
G1 X113.251 Y123.195 E8.02074
G1 X112.604 Y122.779 E8.04632
G1 X112.004 Y122.298 E8.0719
G1 X111.457 Y121.757 E8.09749
G1 X110.969 Y121.162 E8.12308
G1 X110.546 Y120.52 E8.14865
G1 X110.191 Y119.837 E8.17425
G1 X109.999 Y119.35 E8.19167
G1 X109.842 Y119.763 E8.20636
G1 X109.495 Y120.449 E8.23193
G1 X109.079 Y121.096 E8.25751
G1 X108.598 Y121.696 E8.28309
G1 X108.057 Y122.243 E8.30868
G1 X107.462 Y122.731 E8.33427
G1 X106.82 Y123.154 E8.35985
G1 X106.138 Y123.509 E8.38542
G1 X105.422 Y123.79 E8.411
G1 X104.681 Y123.996 E8.43658
G1 X103.923 Y124.124 E8.46215
G1 X103.073 Y124.173 E8.49047
G1 X97.079 Y124.173 E8.68983
G1 X96.311 Y124.133 E8.71541
G1 X95.551 Y124.014 E8.74099
G1 X94.808 Y123.816 E8.76657
G1 X94.089 Y123.542 E8.79216
G1 X93.403 Y123.195 E8.81773
G1 X92.756 Y122.779 E8.84331
G1 X92.156 Y122.298 E8.86889
G1 X91.609 Y121.757 E8.89448
G1 X91.121 Y121.162 E8.92007
G1 X90.886 Y120.824 E8.93376
G1 X89.345 Y118.468 E9.0274
G1 X88.253 Y116.78 E9.09426
G1 X87.242 Y115.189 E9.15696
G1 X86.595 Y114.143 E9.19787
G1 X85.873 Y112.927 E9.24491
G1 X85.391 Y112.065 E9.27775
G1 X84.975 Y111.256 E9.30801
G1 X84.808 Y110.904 E9.32097
G1 X84.55 Y110.321 E9.34217
G1 X84.273 Y109.593 E9.36808
G1 X84.124 Y109.13 E9.38426
G1 X83.952 Y108.505 E9.40582
G1 X83.881 Y108.193 E9.41646
G1 X83.761 Y107.522 E9.43913
G1 X83.725 Y107.25 E9.44826
G1 X83.667 Y106.565 E9.47112
G1 X83.646 Y105.837 E9.49535
G1 X83.649 Y105.429 E9.50892
G1 X83.681 Y104.794 E9.53006
G1 X83.707 Y104.516 E9.53935
G1 X83.87 Y103.519 E9.57295
G1 X83.932 Y103.254 E9.582
G1 X84.145 Y102.515 E9.60758
G1 X84.424 Y101.825 E9.63234
G1 X84.585 Y101.478 E9.64506
G1 X84.945 Y100.799 E9.67062
G1 X85.373 Y100.16 E9.6962
G1 X85.865 Y99.569 E9.72178
G1 X86.142 Y99.285 E9.73497
G1 X86.456 Y98.98 E9.74953
G0 F6000 X86.735 Y99.267
G1 F1200 X87.298 Y98.775 E9.7744
G1 X87.961 Y98.316 E9.80122
G1 X88.329 Y98.091 E9.81557
G1 X89.183 Y97.646 E9.8476
G1 X89.417 Y97.544 E9.85609
G1 X89.934 Y97.343 E9.87454
G1 X90.204 Y97.25 E9.88403
G1 X90.625 Y97.119 E9.8987
G1 X91.295 Y96.945 E9.92172
G1 X91.972 Y96.806 E9.94471
G1 X92.59 Y96.705 E9.96554
G1 X93.309 Y96.614 E9.98964
G1 X94.448 Y96.509 E10.02768
G1 X95.659 Y96.437 E10.06803
G1 X96.815 Y96.396 E10.10651
G1 X98.174 Y96.37 E10.15172
G1 X99.423 Y96.36 E10.19326
G1 X103.066 Y96.357 E10.31443
G1 X103.813 Y96.396 E10.3393
G1 X104.552 Y96.515 E10.3642
G1 X105.273 Y96.712 E10.38906
G1 X105.97 Y96.985 E10.41396
G1 X106.633 Y97.331 E10.43883
G1 X107.256 Y97.745 E10.46371
G1 X107.831 Y98.224 E10.4886
G1 X108.352 Y98.761 E10.51349
G1 X108.812 Y99.351 E10.53837
G1 X109.207 Y99.986 E10.56324
G1 X109.532 Y100.66 E10.58813
G1 X109.782 Y101.365 E10.61301
G1 X109.957 Y102.092 E10.63788
G1 X109.998 Y102.415 E10.64871
G1 X110.086 Y101.872 E10.667
G1 X110.284 Y101.15 E10.69191
G1 X110.557 Y100.454 E10.71677
G1 X110.904 Y99.791 E10.74166
G1 X111.319 Y99.168 E10.76656
G1 X111.798 Y98.594 E10.79142
G1 X112.335 Y98.073 E10.81631
G1 X112.925 Y97.614 E10.84117
G1 X113.561 Y97.219 E10.86607
G1 X114.235 Y96.895 E10.89095
G1 X114.94 Y96.645 E10.91582
G1 X115.668 Y96.471 E10.94072
G1 X116.41 Y96.376 E10.9656
G1 X116.938 Y96.357 E10.98317
G1 X121.365 Y96.365 E11.13042
G1 X122.636 Y96.384 E11.17269
G1 X123.919 Y96.42 E11.21538
G1 X125.214 Y96.485 E11.25851
G1 X126.197 Y96.563 E11.29131
G1 X126.853 Y96.632 E11.31325
G1 X127.67 Y96.745 E11.34068
G1 X128.026 Y96.805 E11.35269
G1 X128.727 Y96.95 E11.3765
G1 X129.404 Y97.128 E11.39978
G1 X129.796 Y97.25 E11.41343
G1 X130.066 Y97.343 E11.42293
G1 X130.58 Y97.543 E11.44127
G1 X130.812 Y97.644 E11.44969
G1 X131.674 Y98.093 E11.48202
G1 X132.043 Y98.319 E11.49641
G1 X132.659 Y98.743 E11.52128
G1 X133.258 Y99.26 E11.5476
G1 X133.514 Y99.508 E11.55945
G1 X134.022 Y100.057 E11.58433
G1 X134.6 Y100.86 E11.61724
G1 X134.766 Y101.129 E11.62775
G1 X135.124 Y101.786 E11.65264
G1 X135.445 Y102.577 E11.68103
G1 X135.539 Y102.857 E11.69085
G1 X135.739 Y103.578 E11.71574
G1 X135.826 Y104.052 E11.73177
G1 X135.866 Y104.32 E11.74078
G1 X135.937 Y105.073 E11.76594
G1 X135.953 Y105.72 E11.78746
G1 X135.946 Y106.25 E11.80509
G1 X135.917 Y106.806 E11.82361
G1 X135.892 Y107.075 E11.8326
G1 X135.804 Y107.706 E11.85379
G1 X135.733 Y108.088 E11.86671
G1 X135.505 Y108.983 E11.89743
G1 X135.358 Y109.433 E11.91317
G1 X135.167 Y109.947 E11.93141
G1 X134.871 Y110.645 E11.95663
G1 X134.644 Y111.123 E11.97423
G1 X134.261 Y111.87 E12.00215
G1 X133.998 Y112.349 E12.02032
G1 X133.507 Y113.198 E12.05294
G1 X133 Y114.041 E12.08566
G1 X132.327 Y115.122 E12.12801
G1 X131.327 Y116.693 E12.18995
G1 X130.244 Y118.367 E12.25627
G1 X128.779 Y120.606 E12.34526
G1 X128.336 Y121.209 E12.37015
G1 X127.832 Y121.761 E12.39501
G1 X127.271 Y122.257 E12.41991
G1 X126.661 Y122.69 E12.4448
G1 X126.009 Y123.055 E12.46965
G1 X125.321 Y123.349 E12.49453
G1 X124.605 Y123.567 E12.51943
G1 X123.87 Y123.708 E12.54432
G1 X122.921 Y123.773 E12.57596
G1 X116.927 Y123.773 E12.77532
G1 X116.18 Y123.733 E12.8002
G1 X115.442 Y123.614 E12.82506
G1 X114.72 Y123.416 E12.84996
G1 X114.024 Y123.143 E12.87483
G1 X113.361 Y122.796 E12.89972
G1 X112.738 Y122.381 E12.92461
G1 X112.164 Y121.902 E12.94948
G1 X111.643 Y121.365 E12.97436
G1 X111.184 Y120.775 E12.99923
G1 X110.789 Y120.139 E13.02413
G1 X110.465 Y119.465 E13.049
G1 X110.215 Y118.76 E13.07388
G1 X110.041 Y118.032 E13.09878
G1 X110.001 Y117.719 E13.10927
G1 X109.914 Y118.258 E13.12743
G1 X109.716 Y118.979 E13.1523
G1 X109.443 Y119.676 E13.1772
G1 X109.097 Y120.339 E13.20207
G1 X108.682 Y120.961 E13.22694
G1 X108.203 Y121.536 E13.25183
G1 X107.665 Y122.056 E13.27672
G1 X107.075 Y122.516 E13.3016
G1 X106.439 Y122.91 E13.32648
G1 X105.765 Y123.235 E13.35137
G1 X105.06 Y123.485 E13.37625
G1 X104.333 Y123.659 E13.40111
G1 X103.591 Y123.754 E13.42599
G1 X103.073 Y123.773 E13.44323
G1 X97.079 Y123.773 E13.64259
G1 X96.332 Y123.733 E13.66748
G1 X95.594 Y123.614 E13.69234
G1 X94.872 Y123.416 E13.71724
G1 X94.176 Y123.143 E13.74211
G1 X93.513 Y122.796 E13.76699
G1 X92.89 Y122.381 E13.79189
G1 X92.316 Y121.902 E13.81676
G1 X91.795 Y121.365 E13.84164
G1 X91.221 Y120.605 E13.87332
G1 X89.681 Y118.251 E13.96688
G1 X88.591 Y116.566 E14.03363
G1 X87.582 Y114.978 E14.0962
G1 X86.939 Y113.939 E14.13684
G1 X86.217 Y112.723 E14.18388
G1 X85.741 Y111.871 E14.21634
G1 X85.332 Y111.075 E14.24611
G1 X85.174 Y110.742 E14.25837
G1 X84.916 Y110.159 E14.27957
G1 X84.654 Y109.47 E14.30409
G1 X84.505 Y109.007 E14.32026
G1 X84.343 Y108.416 E14.34065
G1 X84.272 Y108.104 E14.35129
G1 X84.158 Y107.469 E14.37275
G1 X84.122 Y107.197 E14.38187
G1 X84.066 Y106.549 E14.4035
G1 X84.046 Y105.84 E14.4271
G1 X84.049 Y105.432 E14.44067
G1 X84.079 Y104.831 E14.46068
G1 X84.105 Y104.553 E14.46997
G1 X84.259 Y103.61 E14.50175
G1 X84.321 Y103.345 E14.5108
G1 X84.53 Y102.627 E14.53567
G1 X84.787 Y101.994 E14.55839
G1 X84.948 Y101.647 E14.57112
G1 X85.299 Y100.986 E14.59601
G1 X85.718 Y100.366 E14.6209
G1 X86.421 Y99.572 E14.65617
G1 X86.735 Y99.267 E14.67073
G0 F6000 X87.013 Y99.554
G1 F1200 X87.562 Y99.077 E14.69492
G1 X88.169 Y98.657 E14.71947
G1 X88.537 Y98.432 E14.73382
G1 X89.343 Y98.013 E14.76403
G1 X89.577 Y97.911 E14.77252
G1 X90.065 Y97.721 E14.78994
