;FLAVOR:Marlin
;TIME:3515
;Filament used: 3.47178m
;Layer height: 0.2
;MINX:76.279
;MINY:91.246
;MINZ:0.2
;MAXX:143.699
;MAXY:128.754
;MAXZ:26.8
;Generated with Cura_SteamEngine 5.2.2
M82 ;absolute extrusion mode
; Ender 3 Custom Start G-code
G92 E0 ; Reset Extruder
G28 ; Home all axes
M104 S175 ; Start heating up the nozzle most of the way
M190 S60 ; Start heating the bed, wait until target temperature reached
M109 S200 ; Finish heating the nozzle
G1 Z2.0 F3000 ; Move Z Axis up little to prevent scratching of Heat Bed
G1 X0.1 Y20 Z0.3 F5000.0 ; Move to start position
G1 X0.1 Y200.0 Z0.3 F1500.0 E15 ; Draw the first line
G1 X0.4 Y200.0 Z0.3 F5000.0 ; Move to side a little
G1 X0.4 Y20 Z0.3 F1500.0 E30 ; Draw the second line
G92 E0 ; Reset Extruder
G1 Z2.0 F3000 ; Move Z Axis up little to prevent scratching of Heat Bed
G1 X5 Y20 Z0.3 F5000.0 ; Move over to prevent blob squish
G92 E0
G92 E0
G1 F1500 E-6.5
;LAYER_COUNT:134
;LAYER:0
M107
;MESH:4_joint_support.stl
G0 F6000 X101.436 Y122.334 Z0.2
;TYPE:WALL-INNER
G1 F1500 E0
G1 F1200 X123.334 Y122.334 E0.72833
G1 X123.337 Y117.23 E0.89809
G1 X123.424 Y116.833 E0.91161
G1 X123.656 Y116.418 E0.92742
G1 X123.833 Y116.285 E0.93479
G1 X124.141 Y116.15 E0.94597
G1 X124.4 Y116.125 E0.95462
G1 X124.825 Y116.222 E0.96912
G1 X125.179 Y116.429 E0.98276
G1 X129.083 Y119.994 E1.1586
G1 X129.463 Y120.142 E1.17217
G1 X129.727 Y120.172 E1.181
G1 X130.079 Y120.141 E1.19276
G1 X130.445 Y120.002 E1.20578
G1 X143.117 Y110.406 E1.73446
G1 X143.299 Y110.087 E1.74668
G1 X143.299 Y109.913 E1.75246
G1 X143.117 Y109.594 E1.76468
G1 X130.445 Y99.998 E2.29336
G1 X130.08 Y99.858 E2.30636
G1 X129.727 Y99.828 E2.31815
G1 X129.463 Y99.858 E2.32698
G1 X129.083 Y100.006 E2.34055
G1 X125.179 Y103.571 E2.51639
G1 X124.827 Y103.778 E2.52997
G1 X124.408 Y103.877 E2.54429
G1 X124.141 Y103.85 E2.55321
G1 X123.833 Y103.715 E2.5644
G1 X123.655 Y103.582 E2.57179
G1 X123.416 Y103.15 E2.58821
G1 X123.337 Y102.77 E2.60112
G1 X123.334 Y97.666 E2.77088
G1 X101.437 Y97.667 E3.49918
G1 X101.435 Y110.845 E3.93748
G1 X101.332 Y111.142 E3.94793
G1 X101.191 Y111.288 E3.95468
G1 X101.043 Y111.367 E3.96026
G1 X100.836 Y111.404 E3.96726
G1 X89.727 Y111.402 E4.33675
G1 X89.465 Y111.324 E4.34584
G1 X89.394 Y111.255 E4.34913
G1 X89.309 Y111.305 E4.35241
G1 X89.089 Y111.324 E4.35976
G1 X88.77 Y111.2 E4.37114
G1 X88.199 Y110.63 E4.39797
G1 X87.622 Y111.206 E4.42509
G1 X87.232 Y111.179 E4.43809
G1 X87.227 Y114.741 E4.55657
G1 X87.379 Y114.8 E4.56199
G1 X89.047 Y114.794 E4.61747
G1 X89.513 Y114.61 E4.63413
G1 X100.836 Y114.608 E5.01073
G1 X101.043 Y114.644 E5.01772
G1 X101.191 Y114.724 E5.02332
G1 X101.332 Y114.869 E5.03005
G1 X101.432 Y115.136 E5.03953
G1 X101.436 Y122.334 E5.27893
G0 F6000 X101.036 Y122.734
;TYPE:WALL-OUTER
G1 F1200 X123.734 Y122.734 E6.03387
G1 X123.735 Y117.275 E6.21544
G1 X123.797 Y116.988 E6.22521
G1 X123.968 Y116.678 E6.23698
G1 X124.304 Y116.51 E6.24948
G1 X124.689 Y116.604 E6.26266
G1 X124.939 Y116.752 E6.27232
G1 X128.779 Y120.259 E6.44529
G1 X129.039 Y120.406 E6.45522
G1 X129.367 Y120.534 E6.46693
G1 X129.708 Y120.572 E6.47834
G1 X130.26 Y120.525 E6.49677
G1 X130.651 Y120.348 E6.51105
G1 X143.397 Y110.696 E7.04281
G1 X143.557 Y110.499 E7.05126
G1 X143.699 Y110.169 E7.0632
G1 X143.699 Y109.831 E7.07445
G1 X143.557 Y109.501 E7.08639
G1 X143.397 Y109.304 E7.09484
G1 X130.651 Y99.652 E7.6266
G1 X130.262 Y99.475 E7.64082
G1 X129.708 Y99.428 E7.65931
G1 X129.367 Y99.466 E7.67072
G1 X129.039 Y99.594 E7.68243
G1 X128.779 Y99.741 E7.69237
G1 X124.939 Y103.248 E7.86534
G1 X124.689 Y103.396 E7.875
G1 X124.307 Y103.488 E7.88807
G1 X123.983 Y103.346 E7.89983
G1 X123.804 Y103.029 E7.91194
G1 X123.735 Y102.725 E7.92231
G1 X123.734 Y97.266 E8.10388
G1 X101.037 Y97.267 E8.85878
G1 X101.031 Y110.852 E9.31062
G1 X100.955 Y110.965 E9.31515
G1 X100.836 Y111.004 E9.31932
G1 X89.751 Y111.003 E9.688
G1 X89.591 Y110.906 E9.69423
G1 X89.564 Y110.59 E9.70478
G1 X89.288 Y110.868 E9.7178
G1 X89.127 Y110.926 E9.7235
G1 X89.025 Y110.886 E9.72714
G1 X88.2 Y110.066 E9.76583
G1 X87.373 Y110.886 E9.80456
G1 X87.11 Y110.868 E9.81333
G1 X86.832 Y110.59 E9.82641
G1 X86.827 Y115.015 E9.97358
G1 X87.305 Y115.2 E9.99063
G1 X89.125 Y115.194 E10.05117
G1 X89.592 Y115.008 E10.06788
G1 X100.836 Y115.008 E10.44186
G1 X100.955 Y115.046 E10.44602
G1 X101.035 Y115.184 E10.45132
G1 X101.036 Y122.734 E10.70244
G0 F6000 X101.306 Y122.464
G0 X101.536 Y121.974
G0 X101.796 Y121.974
;TYPE:SKIN
G1 F1200 X122.974 Y121.974 E11.40682
G1 X122.982 Y117.171 E11.56657
G1 X123.075 Y116.718 E11.58195
G1 X123.345 Y116.248 E11.59998
G1 X123.631 Y115.986 E11.61288
G1 X124.046 Y115.799 E11.62802
G1 X124.438 Y115.766 E11.6411
G1 X124.968 Y115.885 E11.65917
G1 X125.404 Y116.15 E11.67614
G1 X129.22 Y119.632 E11.84796
G1 X129.621 Y119.82 E11.86269
G1 X129.997 Y119.787 E11.87524
G1 X130.266 Y119.685 E11.88481
G1 X142.852 Y110.153 E12.40992
G1 X142.939 Y109.999 E12.41581
G1 X142.852 Y109.847 E12.42163
G1 X130.261 Y100.313 E12.94692
G1 X129.999 Y100.213 E12.95625
G1 X129.618 Y100.181 E12.96897
G1 X129.222 Y100.367 E12.98352
G1 X125.379 Y103.874 E13.15656
G1 X124.94 Y104.123 E13.17335
G1 X124.505 Y104.224 E13.1882
G1 X124.049 Y104.203 E13.20338
G1 X123.638 Y104.025 E13.21828
G1 X123.352 Y103.778 E13.23085
G1 X123.081 Y103.294 E13.2493
G1 X122.982 Y102.829 E13.26511
G1 X122.974 Y98.026 E13.42486
G1 X101.798 Y98.027 E14.12917
G1 X101.795 Y110.868 E14.55627
G1 X101.717 Y111.194 E14.56742
G1 X101.547 Y111.457 E14.57783
G1 X101.171 Y111.706 E14.59283
G1 X100.867 Y111.762 E14.60311
G1 X89.685 Y111.76 E14.97503
G1 X89.349 Y111.662 E14.98667
G1 X89.039 Y111.684 E14.99701
G1 X88.559 Y111.496 E15.01415
G1 X88.198 Y111.139 E15.03104
G1 X87.846 Y111.486 E15.04748
G1 X87.592 Y111.516 E15.05598
G1 X87.589 Y114.438 E15.15317
G1 X88.978 Y114.434 E15.19937
G1 X89.439 Y114.253 E15.21584
G1 X100.871 Y114.25 E15.59607
G1 X101.171 Y114.305 E15.60622
G1 X101.421 Y114.448 E15.61579
G1 X101.681 Y114.741 E15.62882
G1 X101.79 Y115.092 E15.64105
G1 X101.796 Y121.974 E15.86994
G0 F6000 X101.536 Y121.974
G0 X101.264 Y114.78
G0 X87.4 Y114.627
G0 X87.329 Y114.233
G0 X88.212 Y114.234
G1 F1200 X87.788 Y113.81 E15.88989
G0 F6000 X87.789 Y113.245
G1 F1200 X88.777 Y114.233 E15.93636
G0 F6000 X89.229 Y114.119
G1 F1200 X87.79 Y112.68 E16.00405
G0 F6000 X87.79 Y112.115
G1 F1200 X89.724 Y114.049 E16.09502
G0 F6000 X90.29 Y114.049
G1 F1200 X87.906 Y111.664 E16.20718
G0 F6000 X88.489 Y111.682
G1 F1200 X90.856 Y114.049 E16.31851
G0 F6000 X91.421 Y114.049
G1 F1200 X89.241 Y111.869 E16.42105
G0 F6000 X89.9 Y111.962
G1 F1200 X91.987 Y114.049 E16.51922
G0 F6000 X92.553 Y114.049
G1 F1200 X90.466 Y111.962 E16.61738
G0 F6000 X91.032 Y111.962
G1 F1200 X93.119 Y114.049 E16.71555
G0 F6000 X93.685 Y114.049
G1 F1200 X91.597 Y111.961 E16.81376
G0 F6000 X92.162 Y111.961
G1 F1200 X94.25 Y114.049 E16.91198
G0 F6000 X94.816 Y114.049
G1 F1200 X92.728 Y111.961 E17.01019
G0 F6000 X93.294 Y111.961
G1 F1200 X95.383 Y114.05 E17.10845
G0 F6000 X95.948 Y114.05
G1 F1200 X93.859 Y111.961 E17.20671
G0 F6000 X94.424 Y111.961
G1 F1200 X96.514 Y114.05 E17.30499
G0 F6000 X97.08 Y114.05
G1 F1200 X94.99 Y111.961 E17.40328
G0 F6000 X95.555 Y111.96
G1 F1200 X97.645 Y114.05 E17.50158
G0 F6000 X98.212 Y114.051
G1 F1200 X96.121 Y111.96 E17.59994
G0 F6000 X96.686 Y111.96
G1 F1200 X98.777 Y114.051 E17.69829
G0 F6000 X99.343 Y114.051
G1 F1200 X97.251 Y111.959 E17.79669
G0 F6000 X97.817 Y111.959
G1 F1200 X99.909 Y114.051 E17.8951
G0 F6000 X100.474 Y114.051
G1 F1200 X98.383 Y111.959 E17.99347
G0 F6000 X98.948 Y111.959
G1 F1200 X101.073 Y114.084 E18.09343
G0 F6000 X100.994 Y114.536
G0 X101.52 Y115.051
G0 X101.966 Y114.976
G1 F1200 X108.762 Y121.773 E18.41311
G0 F6000 X108.197 Y121.773
G1 F1200 X101.99 Y115.567 E18.70505
G0 F6000 X101.991 Y116.133
G1 F1200 X107.631 Y121.773 E18.97034
G0 F6000 X107.065 Y121.773
G1 F1200 X101.991 Y116.699 E19.209
G0 F6000 X101.992 Y117.265
G1 F1200 X106.5 Y121.773 E19.42104
G0 F6000 X105.934 Y121.773
G1 F1200 X101.992 Y117.831 E19.60646
G0 F6000 X101.993 Y118.397
G1 F1200 X105.368 Y121.773 E19.76524
G0 F6000 X104.803 Y121.773
G1 F1200 X101.993 Y118.964 E19.89739
G0 F6000 X101.993 Y119.53
G1 F1200 X104.237 Y121.773 E20.00291
G0 F6000 X103.671 Y121.773
G1 F1200 X101.994 Y120.096 E20.0818
G0 F6000 X101.994 Y120.662
G1 F1200 X103.106 Y121.773 E20.13408
G0 F6000 X102.54 Y121.773
G1 F1200 X101.995 Y121.228 E20.15971
G0 F6000 X101.536 Y121.228
G0 X101.608 Y122.162
G0 X109.328 Y122.234
G0 X109.328 Y121.773
G1 F1200 X99.513 Y111.959 E20.62136
G0 F6000 X100.079 Y111.959
G1 F1200 X109.894 Y121.773 E21.083
G0 F6000 X110.459 Y121.773
G1 F1200 X100.645 Y111.959 E21.54462
G0 F6000 X101.16 Y111.908
G1 F1200 X111.025 Y121.773 E22.00864
G0 F6000 X111.591 Y121.773
G1 F1200 X101.528 Y111.71 E22.48197
G0 F6000 X101.805 Y111.422
G1 F1200 X112.157 Y121.773 E22.96888
G0 F6000 X112.722 Y121.773
G1 F1200 X101.964 Y111.015 E23.4749
G0 F6000 X101.99 Y110.476
G1 F1200 X113.288 Y121.773 E24.0063
G0 F6000 X113.854 Y121.773
G1 F1200 X101.99 Y109.91 E24.56432
G0 F6000 X101.991 Y109.345
G1 F1200 X114.419 Y121.773 E25.1489
G0 F6000 X114.985 Y121.773
G1 F1200 X101.991 Y108.779 E25.76009
G0 F6000 X101.991 Y108.214
G1 F1200 X115.551 Y121.773 E26.39789
G0 F6000 X116.116 Y121.773
G1 F1200 X101.992 Y107.649 E27.06224
G0 F6000 X101.992 Y107.083
G1 F1200 X116.682 Y121.773 E27.75321
G0 F6000 X117.248 Y121.773
G1 F1200 X101.993 Y106.518 E28.47076
G0 F6000 X101.993 Y105.952
G1 F1200 X117.813 Y121.773 E29.21491
G0 F6000 X118.379 Y121.773
G1 F1200 X101.993 Y105.387 E29.98566
G0 F6000 X101.993 Y104.822
G1 F1200 X118.945 Y121.773 E30.783
G0 F6000 X119.51 Y121.773
G1 F1200 X101.993 Y104.256 E31.60695
G0 F6000 X101.994 Y103.691
G1 F1200 X120.076 Y121.773 E32.45747
G0 F6000 X120.642 Y121.773
G1 F1200 X101.994 Y103.125 E33.33462
G0 F6000 X101.994 Y102.56
G1 F1200 X121.208 Y121.773 E34.23836
G0 F6000 X121.773 Y121.773
G1 F1200 X101.995 Y101.995 E35.16866
G0 F6000 X101.995 Y101.429
G1 F1200 X122.339 Y121.773 E36.12558
G0 F6000 X122.774 Y121.642
G1 F1200 X101.995 Y100.864 E37.10293
G0 F6000 X101.995 Y100.298
G1 F1200 X122.774 Y121.077 E38.08031
G0 F6000 X122.774 Y120.512
G1 F1200 X101.995 Y99.733 E39.05769
G0 F6000 X101.996 Y99.168
G1 F1200 X122.775 Y119.947 E40.03508
G0 F6000 X122.776 Y119.382
G1 F1200 X101.996 Y98.602 E41.0125
G0 F6000 X102.186 Y98.227
G1 F1200 X122.777 Y118.817 E41.98102
G0 F6000 X122.777 Y118.252
G1 F1200 X102.752 Y98.227 E42.92293
G0 F6000 X103.318 Y98.227
G1 F1200 X122.778 Y117.687 E43.83827
G0 F6000 X122.786 Y117.129
G1 F1200 X103.883 Y98.227 E44.72739
G0 F6000 X104.449 Y98.227
G1 F1200 X122.88 Y116.657 E45.5943
G0 F6000 X123.083 Y116.295
G1 F1200 X105.015 Y98.227 E46.44416
G0 F6000 X105.58 Y98.227
G1 F1200 X123.336 Y115.982 E47.27933
G0 F6000 X123.666 Y115.747
G1 F1200 X106.146 Y98.227 E48.10341
G0 F6000 X106.712 Y98.227
G1 F1200 X124.079 Y115.594 E48.9203
G0 F6000 X124.663 Y115.612
G1 F1200 X107.277 Y98.227 E49.73807
G0 F6000 X107.843 Y98.227
G1 F1200 X126.461 Y116.844 E50.61378
G0 F6000 X126.151 Y117.181
G0 X129.281 Y119.899
G0 X129.931 Y120.064
G0 X129.773 Y119.591
G1 F1200 X108.409 Y98.227 E51.61867
G0 F6000 X108.975 Y98.227
G1 F1200 X130.217 Y119.469 E52.61783
G0 F6000 X130.538 Y119.225
G1 F1200 X109.54 Y98.227 E53.60551
G0 F6000 X110.106 Y98.227
G1 F1200 X130.861 Y118.982 E54.58176
G0 F6000 X131.183 Y118.738
G1 F1200 X110.672 Y98.227 E55.54654
G0 F6000 X111.237 Y98.227
G1 F1200 X131.504 Y118.494 E56.49984
G0 F6000 X131.826 Y118.25
G1 F1200 X111.803 Y98.227 E57.44166
G0 F6000 X112.369 Y98.227
G1 F1200 X132.149 Y118.006 E58.37202
G0 F6000 X132.47 Y117.762
G1 F1200 X112.934 Y98.226 E59.29094
G0 F6000 X113.499 Y98.226
G1 F1200 X132.792 Y117.519 E60.19842
G0 F6000 X133.114 Y117.275
G1 F1200 X114.065 Y98.226 E61.09443
G0 F6000 X114.631 Y98.226
G1 F1200 X133.436 Y117.031 E61.97896
G0 F6000 X133.758 Y116.787
G1 F1200 X115.196 Y98.226 E62.85203
G0 F6000 X115.762 Y98.226
G1 F1200 X134.08 Y116.543 E63.71363
G0 F6000 X134.401 Y116.299
G1 F1200 X116.328 Y98.226 E64.56373
G0 F6000 X116.893 Y98.226
G1 F1200 X134.723 Y116.056 E65.4024
G0 F6000 X135.046 Y115.812
G1 F1200 X117.459 Y98.226 E66.22961
G0 F6000 X118.025 Y98.226
G1 F1200 X122.814 Y103.015 E66.45487
G0 F6000 X122.777 Y102.413
G1 F1200 X118.59 Y98.226 E66.65182
G0 F6000 X119.156 Y98.226
G1 F1200 X122.777 Y101.846 E66.82212
G0 F6000 X122.776 Y101.28
G1 F1200 X119.722 Y98.226 E66.96577
G0 F6000 X120.288 Y98.226
G1 F1200 X122.776 Y100.714 E67.08279
G0 F6000 X122.775 Y100.148
G1 F1200 X120.853 Y98.226 E67.1732
G0 F6000 X121.419 Y98.226
G1 F1200 X122.774 Y99.581 E67.23693
G0 F6000 X122.774 Y99.016
G1 F1200 X121.985 Y98.226 E67.27407
G0 F6000 X122.55 Y98.226
G1 F1200 X122.774 Y98.449 E67.28458
G0 F6000 X123.234 Y98.449
G0 X123.495 Y102.751
G0 X123.57 Y103.101
G0 X123.814 Y103.529
G0 X124.284 Y103.736
G0 X124.672 Y103.65
G0 X126.39 Y102.601
G0 X126.699 Y102.94
G1 F1200 X137.621 Y113.862 E67.79832
G0 F6000 X137.943 Y113.618
G1 F1200 X126.994 Y102.67 E68.3133
G0 F6000 X127.29 Y102.4
G1 F1200 X138.264 Y113.374 E68.82949
G0 F6000 X138.586 Y113.13
G1 F1200 X127.586 Y102.13 E69.34689
G0 F6000 X127.882 Y101.86
G1 F1200 X138.908 Y112.886 E69.86552
G0 F6000 X139.23 Y112.643
G1 F1200 X128.177 Y101.59 E70.38542
G0 F6000 X128.473 Y101.32
G1 F1200 X139.552 Y112.399 E70.90654
G0 F6000 X139.874 Y112.155
G1 F1200 X128.769 Y101.051 E71.42887
G0 F6000 X129.065 Y100.781
G1 F1200 X140.195 Y111.911 E71.95239
G0 F6000 X140.518 Y111.668
G1 F1200 X129.369 Y100.519 E72.4768
G0 F6000 X129.824 Y100.409
G1 F1200 X140.84 Y111.424 E72.99494
G0 F6000 X141.161 Y111.18
G1 F1200 X131.438 Y101.457 E73.45228
G0 F6000 X131.718 Y101.089
G0 X134.048 Y102.853
G0 X133.768 Y103.221
G1 F1200 X141.483 Y110.936 E73.81517
G0 F6000 X141.806 Y110.693
G1 F1200 X136.098 Y104.985 E74.08365
G0 F6000 X136.377 Y104.617
G0 X138.707 Y106.382
G0 X138.428 Y106.749
G1 F1200 X142.127 Y110.449 E74.25767
G0 F6000 X142.449 Y110.205
G1 F1200 X140.758 Y108.514 E74.33721
G0 F6000 X141.037 Y108.146
G0 X143.072 Y109.794
G0 X143.138 Y110.054
G0 X143 Y110.268
G0 X137.577 Y114.475
G0 X137.298 Y114.105
G1 F1200 X126.403 Y103.21 E74.84967
G0 F6000 X126.107 Y103.48
G1 F1200 X136.977 Y114.349 E75.36094
G0 F6000 X136.655 Y114.593
G1 F1200 X125.811 Y103.75 E75.87099
G0 F6000 X125.516 Y104.02
G1 F1200 X136.333 Y114.837 E76.37978
G0 F6000 X136.011 Y115.08
G1 F1200 X125.158 Y104.228 E76.89025
G0 F6000 X124.737 Y104.372
G1 F1200 X135.689 Y115.324 E77.4054
G0 F6000 X135.367 Y115.568
M104 S200
G1 F1200 X124.208 Y104.409 E77.93029
G1 F1500 E71.43029
;MESH:NONMESH
G0 F300 X124.208 Y104.409 Z0.4
G0 F6000 X124.542 Y103.949
G0 X129.28 Y100.101
G0 X129.808 Y99.99
G0 X130.362 Y100.137
G0 X143.072 Y109.794
G0 X143.138 Y110.054
G0 X142.966 Y110.319
G0 X130.253 Y119.913
G0 X129.734 Y120.011
G0 X129.213 Y119.86
G0 X124.261 Y115.962
G0 X123.173 Y117.299
G0 X123.162 Y122.162
G0 X101.436 Y122.434
G1 F1500 E77.93029
G0 F6000 X101.436 Y122.465
;TIME_ELAPSED:135.319357
;LAYER:1
M106 S85
;TYPE:WALL-INNER
;MESH:4_joint_support.stl
G1 F2850 X123.334 Y122.465 E78.65862
G1 X123.337 Y117.23 E78.83273
G1 X123.423 Y116.83 E78.84634
G1 X123.627 Y116.471 E78.86008
G1 X123.829 Y116.287 E78.86916
G1 X124.142 Y116.149 E78.88054
G1 X124.397 Y116.124 E78.88906
G1 X124.848 Y116.228 E78.90446
G1 X125.282 Y116.527 E78.92199
G1 X129.083 Y119.994 E79.0931
G1 X129.461 Y120.141 E79.10659
G1 X129.807 Y120.182 E79.11818
G1 X130.162 Y120.128 E79.13012
G1 X130.446 Y120.002 E79.14045
G1 X143.118 Y110.405 E79.66916
G1 X143.298 Y110.089 E79.68125
G1 X143.298 Y109.914 E79.68707
G1 X143.222 Y109.734 E79.69357
G1 X143.008 Y109.511 E79.70385
G1 X130.445 Y99.998 E80.22798
G1 X130.079 Y99.858 E80.24101
G1 X129.73 Y99.828 E80.25266
G1 X129.464 Y99.858 E80.26156
G1 X129.083 Y100.005 E80.27515
G1 X125.284 Y103.471 E80.44619
G1 X124.861 Y103.767 E80.46336
G1 X124.414 Y103.877 E80.47867
G1 X124.146 Y103.851 E80.48762
G1 X123.782 Y103.693 E80.50082
G1 X123.629 Y103.531 E80.50823
G1 X123.424 Y103.166 E80.52216
G1 X123.337 Y102.781 E80.53529
G1 X123.334 Y97.535 E80.70977
G1 X101.437 Y97.536 E81.43807
G1 X101.435 Y110.839 E81.88053
