;FLAVOR:Marlin
;TIME:3004
;Filament used: 1.97485m
;Layer height: 0.2
;MINX:97.126
;MINY:98.85
;MINZ:0.2
;MAXX:122.874
;MAXY:121.15
;MAXZ:48
;Generated with Cura_SteamEngine 5.2.2
M82 ;absolute extrusion mode
; Ender 3 Custom Start G-code
G92 E0 ; Reset Extruder
G28 ; Home all axes
M104 S175 ; Start heating up the nozzle most of the way
M190 S60 ; Start heating the bed, wait until target temperature reached
M109 S200 ; Finish heating the nozzle
G1 Z2.0 F3000 ; Move Z Axis up little to prevent scratching of Heat Bed
G1 X0.1 Y20 Z0.3 F5000.0 ; Move to start position
G1 X0.1 Y200.0 Z0.3 F1500.0 E15 ; Draw the first line
G1 X0.4 Y200.0 Z0.3 F5000.0 ; Move to side a little
G1 X0.4 Y20 Z0.3 F1500.0 E30 ; Draw the second line
G92 E0 ; Reset Extruder
G1 Z2.0 F3000 ; Move Z Axis up little to prevent scratching of Heat Bed
G1 X5 Y20 Z0.3 F5000.0 ; Move over to prevent blob squish
G92 E0
G92 E0
G1 F1500 E-6.5
;LAYER_COUNT:240
;LAYER:0
M107
;MESH:5_angle_screw.stl
G0 F6000 X110.304 Y120.75 Z0.2
;TYPE:WALL-INNER
G1 F1500 E0
G1 F1200 X111.869 Y120.612 E0.05225
G1 X113.687 Y120.126 E0.11484
G1 X115.389 Y119.331 E0.17732
G1 X116.925 Y118.255 E0.2397
G1 X118.257 Y116.925 E0.30231
G1 X119.158 Y115.639 E0.35453
G1 X119.463 Y115.11 E0.37484
G1 X120.125 Y113.688 E0.42701
G1 X120.612 Y111.869 E0.48964
G1 X120.776 Y109.999 E0.55208
G1 X120.612 Y108.131 E0.61445
G1 X120.127 Y106.312 E0.67706
G1 X119.462 Y104.89 E0.72927
G1 X119.157 Y104.36 E0.74961
G1 X118.256 Y103.076 E0.80178
G1 X116.924 Y101.746 E0.86439
G1 X115.389 Y100.669 E0.92676
G1 X113.687 Y99.874 E0.98924
G1 X111.87 Y99.387 E1.0518
G1 X110.303 Y99.251 E1.10412
G1 X109.696 Y99.251 E1.12431
G1 X108.131 Y99.388 E1.17656
G1 X106.313 Y99.874 E1.23915
G1 X104.611 Y100.669 E1.30163
G1 X103.075 Y101.745 E1.364
G1 X101.743 Y103.075 E1.42661
G1 X100.842 Y104.361 E1.47883
G1 X100.537 Y104.891 E1.49917
G1 X99.874 Y106.311 E1.5513
G1 X99.388 Y108.131 E1.61395
G1 X99.224 Y110.001 E1.67639
G1 X99.388 Y111.869 E1.73875
G1 X99.873 Y113.688 E1.80137
G1 X100.538 Y115.11 E1.85358
G1 X100.843 Y115.64 E1.87392
G1 X101.744 Y116.924 E1.92609
G1 X103.076 Y118.255 E1.98872
G1 X104.611 Y119.331 E2.05107
G1 X106.313 Y120.126 E2.11355
G1 X108.13 Y120.613 E2.17611
G1 X109.696 Y120.75 E2.2284
G1 X110.304 Y120.75 E2.24862
G0 F6000 X110.322 Y121.15
;TYPE:WALL-OUTER
G1 F1200 X111.939 Y121.008 E2.30261
G1 X113.825 Y120.503 E2.36755
G1 X115.59 Y119.679 E2.43233
G1 X117.183 Y118.563 E2.49703
G1 X118.565 Y117.183 E2.56198
G1 X119.496 Y115.854 E2.61595
G1 X119.818 Y115.294 E2.63744
G1 X120.503 Y113.825 E2.69135
G1 X121.008 Y111.939 E2.75629
G1 X121.178 Y109.999 E2.82106
G1 X121.008 Y108.061 E2.88577
G1 X120.504 Y106.174 E2.95073
G1 X119.817 Y104.705 E3.00467
G1 X119.495 Y104.145 E3.02615
G1 X118.564 Y102.818 E3.08007
G1 X117.182 Y101.438 E3.14502
G1 X115.59 Y100.321 E3.20971
G1 X113.825 Y99.497 E3.27449
G1 X111.94 Y98.991 E3.33941
G1 X110.321 Y98.851 E3.39346
G1 X109.678 Y98.851 E3.41484
G1 X108.061 Y98.992 E3.46883
G1 X106.175 Y99.497 E3.53377
G1 X104.41 Y100.321 E3.59855
G1 X102.817 Y101.437 E3.66325
G1 X101.435 Y102.817 E3.7282
G1 X100.504 Y104.146 E3.78217
G1 X100.182 Y104.706 E3.80366
G1 X99.497 Y106.174 E3.85754
G1 X98.992 Y108.061 E3.92251
G1 X98.822 Y110.001 E3.98728
G1 X98.992 Y111.939 E4.05199
G1 X99.496 Y113.826 E4.11695
G1 X100.183 Y115.295 E4.17089
G1 X100.505 Y115.855 E4.19237
G1 X101.436 Y117.182 E4.24629
G1 X102.818 Y118.563 E4.31127
G1 X104.41 Y119.679 E4.37593
G1 X106.175 Y120.503 E4.44072
G1 X108.06 Y121.009 E4.50564
G1 X109.678 Y121.15 E4.55965
G1 X110.322 Y121.15 E4.58107
G0 F6000 X110.288 Y120.389
;TYPE:SKIN
G1 F1200 X111.804 Y120.257 E4.63169
G1 X113.566 Y119.785 E4.69236
G1 X115.209 Y119.017 E4.75268
G1 X116.69 Y117.979 E4.81283
G1 X117.982 Y116.69 E4.87353
G1 X118.854 Y115.446 E4.92406
G1 X119.143 Y114.942 E4.94338
G1 X119.785 Y113.566 E4.99389
G1 X120.257 Y111.804 E5.05456
G1 X120.414 Y109.998 E5.11485
G1 X120.257 Y108.196 E5.17501
G1 X119.786 Y106.433 E5.23571
G1 X119.141 Y105.056 E5.28628
G1 X118.854 Y104.555 E5.30549
G1 X117.981 Y103.311 E5.35603
G1 X116.689 Y102.023 E5.41671
G1 X115.209 Y100.983 E5.47687
G1 X113.565 Y100.215 E5.53723
G1 X111.805 Y99.742 E5.59784
G1 X110.287 Y99.612 E5.64851
G1 X109.713 Y99.612 E5.66761
G1 X108.196 Y99.743 E5.71825
G1 X106.434 Y100.215 E5.77892
G1 X104.791 Y100.983 E5.83924
G1 X103.309 Y102.021 E5.89942
G1 X102.018 Y103.31 E5.9601
G1 X101.146 Y104.554 E6.01063
G1 X100.857 Y105.058 E6.02995
G1 X100.213 Y106.437 E6.08057
G1 X99.743 Y108.196 E6.14113
G1 X99.586 Y110.002 E6.20142
G1 X99.743 Y111.804 E6.26158
G1 X100.214 Y113.567 E6.32228
G1 X100.859 Y114.944 E6.37285
G1 X101.146 Y115.445 E6.39206
G1 X102.019 Y116.689 E6.4426
G1 X103.311 Y117.979 E6.50333
G1 X104.791 Y119.017 E6.56345
G1 X106.435 Y119.785 E6.62381
G1 X108.195 Y120.258 E6.68442
G1 X109.712 Y120.389 E6.73506
G1 X110.288 Y120.389 E6.75422
G0 F6000 X110.288 Y120.65
G0 X108.159 Y120.455
G0 X106.369 Y119.974
G0 X105.01 Y119.341
G0 X103.982 Y118.766
G0 X104.248 Y118.39
G1 F1200 X101.597 Y115.739 E6.87892
G0 F6000 X101.219 Y116.002
G0 X100.409 Y114.597
G0 X100.827 Y114.403
G1 F1200 X105.592 Y119.169 E7.10307
G0 F6000 X105.397 Y119.586
G0 X106.494 Y120.069
G0 X106.613 Y119.624
G1 F1200 X100.372 Y113.383 E7.39663
G0 F6000 X100.165 Y112.61
G1 F1200 X107.387 Y119.832 E7.73633
G0 F6000 X108.161 Y120.041
G1 F1200 X99.959 Y111.838 E8.12215
G0 F6000 X99.891 Y111.205
G1 F1200 X108.794 Y120.107 E8.5409
G0 F6000 X109.412 Y120.16
G1 F1200 X99.837 Y110.585 E8.99127
G0 F6000 X99.789 Y109.971
G1 F1200 X110.005 Y120.187 E9.4718
G0 F6000 X110.547 Y120.164
G1 F1200 X99.834 Y109.45 E9.97573
G0 F6000 X99.879 Y108.93
G1 F1200 X111.068 Y120.119 E10.50203
G0 F6000 X111.588 Y120.073
G1 F1200 X99.924 Y108.41 E11.05065
G0 F6000 X100.018 Y107.938
G1 F1200 X112.06 Y119.979 E11.61704
G0 F6000 X112.506 Y119.86
G1 F1200 X100.137 Y107.491 E12.19884
G0 F6000 X100.257 Y107.045
G1 F1200 X112.952 Y119.74 E12.79597
G0 F6000 X113.398 Y119.621
G1 F1200 X100.376 Y106.599 E13.40849
G0 F6000 X100.544 Y106.201
G1 F1200 X113.797 Y119.454 E14.03187
G0 F6000 X114.182 Y119.274
G1 F1200 X100.723 Y105.814 E14.66496
G0 F6000 X100.903 Y105.428
G1 F1200 X114.568 Y119.093 E15.30772
G0 F6000 X114.954 Y118.914
G1 F1200 X101.09 Y105.05 E15.95984
G0 F6000 X101.297 Y104.691
G1 F1200 X115.307 Y118.702 E16.61885
G0 F6000 X115.64 Y118.468
G1 F1200 X101.527 Y104.356 E17.28266
G0 F6000 X101.761 Y104.023
G1 F1200 X115.972 Y118.235 E17.95113
G0 F6000 X116.305 Y118.002
G1 F1200 X101.993 Y103.69 E18.62432
G0 F6000 X102.239 Y103.371
G1 F1200 X116.626 Y117.758 E19.30104
G0 F6000 X116.909 Y117.475
G1 F1200 X102.522 Y103.088 E19.97776
G0 F6000 X102.806 Y102.806
G1 F1200 X117.193 Y117.193 E20.65448
G0 F6000 X117.476 Y116.91
G1 F1200 X103.089 Y102.523 E21.3312
G0 F6000 X103.371 Y102.24
G1 F1200 X117.759 Y116.628 E22.00797
G0 F6000 X118.005 Y116.308
G1 F1200 X103.692 Y101.995 E22.68121
G0 F6000 X104.026 Y101.763
G1 F1200 X118.238 Y115.975 E23.3497
G0 F6000 X118.471 Y115.643
G1 F1200 X104.358 Y101.529 E24.01355
G0 F6000 X104.69 Y101.296
G1 F1200 X118.702 Y115.307 E24.67261
G0 F6000 X118.908 Y114.948
G1 F1200 X105.044 Y101.085 E25.32471
G0 F6000 X105.43 Y100.904
G1 F1200 X119.095 Y114.57 E25.96749
G0 F6000 X119.275 Y114.184
G1 F1200 X105.816 Y100.725 E26.60056
G0 F6000 X106.201 Y100.544
G1 F1200 X119.455 Y113.798 E27.22399
G0 F6000 X119.621 Y113.399
G1 F1200 X106.6 Y100.378 E27.83646
G0 F6000 X107.046 Y100.258
G1 F1200 X119.741 Y112.953 E28.43359
G0 F6000 X119.86 Y112.507
G1 F1200 X107.492 Y100.139 E29.01534
G0 F6000 X107.939 Y100.019
G1 F1200 X119.98 Y112.06 E29.58172
G0 F6000 X120.074 Y111.589
G1 F1200 X108.41 Y99.925 E30.13036
G0 F6000 X108.931 Y99.88
G1 F1200 X120.119 Y111.068 E30.6566
G0 F6000 X120.165 Y110.548
G1 F1200 X109.452 Y99.835 E31.16051
G0 F6000 X109.994 Y99.812
G1 F1200 X120.21 Y110.027 E31.64102
G0 F6000 X120.161 Y109.413
G1 F1200 X110.587 Y99.839 E32.09135
G0 F6000 X111.205 Y99.891
G1 F1200 X120.107 Y108.794 E32.51009
G0 F6000 X120.039 Y108.16
G1 F1200 X111.837 Y99.958 E32.89589
G0 F6000 X112.611 Y100.166
G1 F1200 X119.833 Y107.388 E33.23559
G0 F6000 X119.626 Y106.616
G1 F1200 X113.385 Y100.375 E33.52915
G0 F6000 X113.504 Y99.93
G0 X114.601 Y100.413
G0 X114.406 Y100.829
G1 F1200 X119.172 Y105.595 E33.75333
G0 F6000 X119.59 Y105.401
G0 X118.78 Y103.997
G0 X118.402 Y104.26
M104 S200
G1 F1200 X115.752 Y101.61 E33.87798
;MESH:NONMESH
G0 F300 X115.752 Y101.61 Z0.4
G0 F6000 X116.018 Y101.234
G0 X116.82 Y101.87
G0 X118.133 Y103.18
G0 X119.319 Y104.964
G0 X119.975 Y106.367
G0 X120.454 Y108.16
G0 X120.615 Y109.999
G0 X120.454 Y111.84
G0 X119.974 Y113.632
G0 X119.022 Y115.553
G0 X118.134 Y116.821
G0 X116.821 Y118.131
G0 X115.309 Y119.191
G0 X113.632 Y119.974
G0 X111.84 Y120.454
G0 X109.917 Y120.575
G0 X107.95 Y120.461
G0 X107.872 Y120.75
;TIME_ELAPSED:60.437490
;LAYER:1
M106 S85
;TYPE:WALL-INNER
;MESH:5_angle_screw.stl
G1 F2850 X112.128 Y120.75 E34.01953
G1 X113.756 Y120.314 E34.07559
G1 X115.489 Y119.505 E34.1392
G1 X117.054 Y118.41 E34.20273
G1 X118.245 Y117.218 E34.25877
G1 X120.376 Y113.526 E34.40055
G1 X120.809 Y111.904 E34.45639
G1 X120.976 Y109.997 E34.52006
G1 X120.81 Y108.095 E34.58356
G1 X120.374 Y106.471 E34.63949
G1 X118.243 Y102.78 E34.78124
G1 X117.053 Y101.591 E34.83719
G1 X115.489 Y100.495 E34.90071
G1 X113.757 Y99.686 E34.9643
G1 X112.127 Y99.251 E35.02041
G1 X107.872 Y99.25 E35.16193
G1 X106.244 Y99.686 E35.21798
G1 X104.511 Y100.495 E35.2816
G1 X102.946 Y101.59 E35.34512
G1 X101.758 Y102.779 E35.40103
G1 X99.624 Y106.475 E35.54298
G1 X99.191 Y108.096 E35.59878
G1 X99.024 Y110.003 E35.66245
G1 X99.19 Y111.905 E35.72595
G1 X99.626 Y113.527 E35.78181
G1 X101.756 Y117.219 E35.92358
G1 X102.947 Y118.409 E35.97958
G1 X104.511 Y119.505 E36.0431
G1 X106.243 Y120.314 E36.10668
G1 X107.872 Y120.75 E36.16277
G0 F10500 X107.82 Y121.15
;TYPE:WALL-OUTER
G1 F2850 X112.18 Y121.15 E36.30778
G1 X113.893 Y120.691 E36.36677
G1 X115.69 Y119.853 E36.43271
G1 X117.312 Y118.718 E36.49856
G1 X118.565 Y117.464 E36.55752
G1 X120.749 Y113.68 E36.70283
G1 X121.205 Y111.974 E36.76157
G1 X121.378 Y109.997 E36.82757
G1 X121.206 Y108.025 E36.89341
G1 X120.746 Y106.317 E36.95224
G1 X118.563 Y102.534 E37.09751
G1 X117.311 Y101.283 E37.15638
G1 X115.69 Y100.147 E37.22222
G1 X113.894 Y99.308 E37.28815
G1 X112.179 Y98.851 E37.34718
G1 X107.82 Y98.85 E37.49216
G1 X106.107 Y99.309 E37.55115
G1 X104.31 Y100.147 E37.61709
G1 X102.688 Y101.282 E37.68294
G1 X101.438 Y102.533 E37.74176
G1 X99.251 Y106.321 E37.88724
G1 X98.795 Y108.026 E37.94594
G1 X98.622 Y110.003 E38.01195
G1 X98.794 Y111.975 E38.07778
G1 X99.253 Y113.681 E38.13654
G1 X101.436 Y117.465 E38.28184
G1 X102.689 Y118.717 E38.34076
G1 X104.31 Y119.853 E38.40659
G1 X106.106 Y120.692 E38.47252
G1 X107.82 Y121.15 E38.53153
G0 F10500 X107.924 Y120.39
;TYPE:SKIN
G1 F2850 X112.076 Y120.389 E38.66963
G1 X113.634 Y119.973 E38.72326
G1 X115.309 Y119.191 E38.78475
G1 X116.819 Y118.134 E38.84605
G1 X117.958 Y116.994 E38.89965
G1 X120.041 Y113.384 E39.03827
G1 X120.454 Y111.839 E39.09146
G1 X120.614 Y109.994 E39.15306
G1 X120.455 Y108.16 E39.21429
G1 X120.037 Y106.615 E39.26752
G1 X117.952 Y102.999 E39.40635
G1 X116.818 Y101.867 E39.45964
G1 X115.309 Y100.809 E39.52094
G1 X113.635 Y100.026 E39.58241
G1 X112.076 Y99.612 E39.63606
G1 X107.924 Y99.611 E39.77415
G1 X106.366 Y100.027 E39.82779
G1 X104.691 Y100.809 E39.88927
G1 X103.181 Y101.866 E39.95057
G1 X102.045 Y103.003 E40.00403
G1 X99.959 Y106.617 E40.14282
G1 X99.546 Y108.161 E40.19598
G1 X99.386 Y110.006 E40.25758
G1 X99.454 Y110.791 E40.28378
G1 X99.545 Y111.84 E40.3188
G1 X99.962 Y113.386 E40.37206
G1 X102.045 Y116.998 E40.51074
G1 X103.182 Y118.133 E40.56418
G1 X104.691 Y119.191 E40.62547
G1 X106.365 Y119.974 E40.68694
G1 X107.924 Y120.39 E40.74061
G0 F10500 X107.857 Y120.641
G0 X112.106 Y120.589
G0 X113.7 Y120.162
G0 X115.408 Y119.365
G0 X116.95 Y118.286
G0 X117.999 Y117.236
G0 X118.844 Y115.979
G0 X118.445 Y115.748
G1 F2850 X115.15 Y119.043 E40.89559
G0 F10500 X115.344 Y119.462
G0 X114.284 Y119.957
G0 X114.089 Y119.538
G1 F2850 X119.217 Y114.41 E41.1368
G0 F10500 X119.617 Y114.641
G0 X120.334 Y113.291
G0 X119.889 Y113.172
G1 F2850 X113.174 Y119.887 E41.45265
G0 F10500 X112.402 Y120.094
G1 F2850 X120.096 Y112.4 E41.81455
G0 F10500 X120.267 Y111.663
G1 F2850 X111.741 Y120.189 E42.21559
G0 F10500 X111.176 Y120.189
G1 F2850 X120.321 Y111.044 E42.64574
G0 F10500 X120.375 Y110.424
G1 F2850 X110.61 Y120.189 E43.10506
G0 F10500 X110.044 Y120.189
G1 F2850 X120.398 Y109.835 E43.59208
G0 F10500 X120.353 Y109.315
G1 F2850 X109.479 Y120.189 E44.10356
G0 F10500 X108.913 Y120.189
G1 F2850 X120.307 Y108.794 E44.63952
G0 F10500 X120.262 Y108.274
G1 F2850 X108.347 Y120.189 E45.19997
G0 F10500 X107.817 Y120.153
G1 F2850 X120.153 Y107.817 E45.78021
G0 F10500 X120.033 Y107.372
G1 F2850 X107.37 Y120.034 E46.37582
G0 F10500 X106.924 Y119.915
G1 F2850 X119.913 Y106.926 E46.98678
G0 F10500 X119.752 Y106.522
G1 F2850 X106.478 Y119.795 E47.61113
G0 F10500 X106.086 Y119.621
G1 F2850 X119.544 Y106.163 E48.24415
G0 F10500 X119.337 Y105.805
G1 F2850 X105.701 Y119.441 E48.88555
G0 F10500 X105.315 Y119.261
G1 F2850 X119.131 Y105.445 E49.53541
G0 F10500 X118.924 Y105.087
G1 F2850 X104.93 Y119.081 E50.19364
G0 F10500 X104.578 Y118.866
G1 F2850 X118.717 Y104.728 E50.85867
G0 F10500 X118.51 Y104.369
G1 F2850 X104.245 Y118.634 E51.52966
G0 F10500 X103.913 Y118.4
G1 F2850 X118.303 Y104.011 E52.20649
G0 F10500 X118.096 Y103.651
G1 F2850 X103.581 Y118.167 E52.88926
G0 F10500 X103.257 Y117.925
G1 F2850 X117.889 Y103.293 E53.5775
G0 F10500 X117.643 Y102.973
G1 F2850 X102.974 Y117.642 E54.26749
G0 F10500 X102.69 Y117.36
G1 F2850 X117.36 Y102.69 E54.95752
G0 F10500 X117.077 Y102.408
G1 F2850 X102.408 Y117.077 E55.6475
G0 F10500 X102.147 Y116.773
G1 F2850 X116.794 Y102.126 E56.33645
G0 F10500 X116.479 Y101.874
G1 F2850 X101.94 Y116.414 E57.02035
G0 F10500 X101.732 Y116.056
G1 F2850 X116.147 Y101.641 E57.69839
G0 F10500 X115.814 Y101.408
G1 F2850 X101.526 Y115.696 E58.37045
G0 F10500 X101.319 Y115.338
G1 F2850 X115.481 Y101.175 E59.03661
G0 F10500 X115.14 Y100.951
G1 F2850 X101.112 Y114.979 E59.69644
G0 F10500 X100.905 Y114.62
G1 F2850 X114.754 Y100.771 E60.34786
G0 F10500 X114.369 Y100.59
G1 F2850 X100.698 Y114.262 E60.99092
G0 F10500 X100.491 Y113.903
G1 F2850 X113.984 Y100.41 E61.62559
G0 F10500 X113.598 Y100.23
G1 F2850 X100.284 Y113.544 E62.25184
G0 F10500 X100.107 Y113.156
G1 F2850 X113.157 Y100.105 E62.8657
G0 F10500 X112.71 Y99.987
G1 F2850 X99.987 Y112.71 E63.46415
G0 F10500 X99.867 Y112.264
G1 F2850 X112.263 Y99.868 E64.04722
G0 F10500 X111.754 Y99.811
G1 F2850 X99.747 Y111.819 E64.61201
G0 F10500 X99.699 Y111.3
G1 F2850 X111.189 Y99.811 E65.15245
G0 F10500 X110.623 Y99.811
G1 F2850 X99.654 Y110.78 E65.66839
G0 F10500 X99.609 Y110.259
G1 F2850 X110.057 Y99.811 E66.15984
G0 F10500 X109.492 Y99.81
G1 F2850 X99.614 Y109.689 E66.62449
G0 F10500 X99.668 Y109.069
G1 F2850 X108.926 Y99.81 E67.05998
G0 F10500 X108.361 Y99.81
G1 F2850 X99.721 Y108.45 E67.46638
G0 F10500 X99.865 Y107.741
G1 F2850 X107.739 Y99.866 E67.83677
G0 F10500 X106.967 Y100.073
G1 F2850 X100.071 Y106.968 E68.16112
G0 F10500 X99.628 Y106.85
G0 X100.243 Y105.602
G0 X100.641 Y105.833
G1 F2850 X106.105 Y100.369 E68.41813
G0 F10500 X105.911 Y99.952
G0 X104.851 Y100.447
G0 X105.044 Y100.864
G1 F2850 X101.413 Y104.495 E68.58892
G0 F10500 X101.016 Y104.265
G0 X101.788 Y102.928
G0 X102.185 Y103.158
G1 F2850 X103.357 Y101.986 E68.64404
;MESH:NONMESH
G0 F300 X103.357 Y101.986 Z0.6
G0 F10500 X103.094 Y101.609
G0 X101.887 Y102.878
G0 X99.774 Y106.537
G0 X99.349 Y108.125
G0 X99.185 Y110.003
G0 X99.348 Y111.876
G0 X99.776 Y113.465
G0 X101.885 Y117.12
G0 X103.051 Y118.285
G0 X104.591 Y119.365
G0 X105.974 Y120.011
G0 X107.179 Y120.46
G0 X107.102 Y120.75
;TIME_ELAPSED:90.483411
;LAYER:2
M106 S170
;TYPE:WALL-INNER
;MESH:5_angle_screw.stl
G1 F4500 X112.898 Y120.75 E68.83682
G1 X113.825 Y120.502 E68.86874
G1 X115.589 Y119.678 E68.93349
G1 X117.182 Y118.563 E68.99817
G1 X117.86 Y117.885 E69.03006
G1 X120.761 Y112.859 E69.22307
