;FLAVOR:Marlin
;TIME:3199
;Filament used: 2.4133m
;Layer height: 0.2
;MINX:88.733
;MINY:89.238
;MINZ:0.2
;MAXX:131.267
;MAXY:130.88
;MAXZ:23.8
;Generated with Cura_SteamEngine 5.2.2
M82 ;absolute extrusion mode
; Ender 3 Custom Start G-code
G92 E0 ; Reset Extruder
G28 ; Home all axes
M104 S175 ; Start heating up the nozzle most of the way
M190 S60 ; Start heating the bed, wait until target temperature reached
M109 S200 ; Finish heating the nozzle
G1 Z2.0 F3000 ; Move Z Axis up little to prevent scratching of Heat Bed
G1 X0.1 Y20 Z0.3 F5000.0 ; Move to start position
G1 X0.1 Y200.0 Z0.3 F1500.0 E15 ; Draw the first line
G1 X0.4 Y200.0 Z0.3 F5000.0 ; Move to side a little
G1 X0.4 Y20 Z0.3 F1500.0 E30 ; Draw the second line
G92 E0 ; Reset Extruder
G1 Z2.0 F3000 ; Move Z Axis up little to prevent scratching of Heat Bed
G1 X5 Y20 Z0.3 F5000.0 ; Move over to prevent blob squish
G92 E0
G92 E0
G1 F1500 E-6.5
;LAYER_COUNT:119
;LAYER:0
M107
;MESH:7_angle_leg_screws.stl
G0 F6000 X109.699 Y107.843 Z0.2
;TYPE:WALL-INNER
G1 F1500 E0
G1 F1200 X111.088 Y107.561 E0.04714
G1 X112.489 Y107.114 E0.09605
G1 X113.361 Y106.687 E0.12835
G1 X113.766 Y106.447 E0.144
G1 X114.147 Y106.235 E0.15851
G1 X114.956 Y105.685 E0.19104
G1 X116.124 Y104.625 E0.2435
G1 X116.951 Y103.687 E0.2851
G1 X117.41 Y102.319 E0.33309
G1 X117.711 Y100.913 E0.38091
G1 X117.782 Y99.939 E0.41339
G1 X117.775 Y99.478 E0.42873
G1 X117.782 Y99.035 E0.44346
G1 X117.71 Y98.059 E0.47601
G1 X117.376 Y96.516 E0.52852
G1 X116.977 Y95.332 E0.57008
G1 X116.03 Y94.261 E0.61763
G1 X114.956 Y93.287 E0.66585
G1 X114.148 Y92.74 E0.6983
G1 X113.744 Y92.515 E0.71369
G1 X113.361 Y92.286 E0.72853
G1 X112.488 Y91.861 E0.76082
G1 X110.968 Y91.373 E0.81392
G1 X109.757 Y91.131 E0.85499
G1 X108.367 Y91.413 E0.90217
G1 X106.966 Y91.86 E0.95108
G1 X106.093 Y92.286 E0.98339
G1 X105.693 Y92.523 E0.99885
G1 X105.309 Y92.739 E1.0135
G1 X104.499 Y93.289 E1.04607
G1 X103.33 Y94.348 E1.09853
G1 X102.494 Y95.298 E1.14062
G1 X102.046 Y96.654 E1.18812
G1 X101.745 Y98.06 E1.23594
G1 X101.675 Y99.037 E1.26852
G1 X101.682 Y99.486 E1.28346
G1 X101.674 Y99.938 E1.29849
G1 X101.746 Y100.913 E1.33101
G1 X102.08 Y102.457 E1.38355
G1 X102.478 Y103.642 E1.42513
G1 X103.423 Y104.71 E1.47256
G1 X104.498 Y105.686 E1.52085
G1 X105.307 Y106.234 E1.55335
G1 X105.711 Y106.458 E1.56872
G1 X106.094 Y106.687 E1.58356
G1 X106.968 Y107.113 E1.6159
G1 X108.487 Y107.601 E1.66896
G1 X109.699 Y107.843 E1.71007
G0 F6000 X109.699 Y108.251
;TYPE:WALL-OUTER
G1 F1200 X111.189 Y107.949 E1.76063
G1 X112.639 Y107.486 E1.81126
G1 X113.552 Y107.039 E1.84507
G1 X113.96 Y106.797 E1.86085
G1 X114.357 Y106.576 E1.87596
G1 X115.204 Y106 E1.91003
G1 X116.41 Y104.906 E1.96419
G1 X117.306 Y103.89 E2.00924
G1 X117.796 Y102.425 E2.06062
G1 X118.108 Y100.97 E2.11011
G1 X118.182 Y99.95 E2.14413
G1 X118.175 Y99.485 E2.1596
G1 X118.182 Y99.024 E2.17493
G1 X118.107 Y98.002 E2.20901
G1 X117.762 Y96.41 E2.26319
G1 X117.329 Y95.126 E2.30826
G1 X116.315 Y93.979 E2.35918
G1 X115.204 Y92.971 E2.40908
G1 X114.358 Y92.399 E2.44304
G1 X113.949 Y92.171 E2.45862
G1 X113.551 Y91.934 E2.47402
G1 X112.638 Y91.489 E2.50781
G1 X111.068 Y90.985 E2.56265
G1 X109.757 Y90.723 E2.60711
G1 X108.266 Y91.025 E2.65771
G1 X106.817 Y91.488 E2.70831
G1 X105.903 Y91.934 E2.74213
G1 X105.498 Y92.174 E2.75779
G1 X105.099 Y92.398 E2.77301
G1 X104.251 Y92.974 E2.80711
G1 X103.045 Y94.067 E2.86124
G1 X102.149 Y95.085 E2.90635
G1 X101.66 Y96.548 E2.95765
G1 X101.348 Y98.004 E3.00718
G1 X101.275 Y99.025 E3.04122
G1 X101.282 Y99.486 E3.05656
G1 X101.274 Y99.95 E3.07199
G1 X101.349 Y100.97 E3.10601
G1 X101.694 Y102.563 E3.16022
G1 X102.126 Y103.848 E3.20531
G1 X103.138 Y104.992 E3.25611
G1 X104.25 Y106.001 E3.30605
G1 X105.097 Y106.575 E3.34008
G1 X105.506 Y106.802 E3.35564
G1 X105.904 Y107.039 E3.37105
G1 X106.818 Y107.485 E3.40487
G1 X108.387 Y107.989 E3.45969
G1 X109.699 Y108.251 E3.50418
G0 F6000 X109.71 Y107.477
;TYPE:SKIN
G1 F1200 X110.984 Y107.214 E3.54745
G1 X112.351 Y106.78 E3.59515
G1 X113.189 Y106.37 E3.62618
G1 X113.562 Y106.148 E3.64062
G1 X113.959 Y105.927 E3.65573
G1 X114.734 Y105.399 E3.68692
G1 X115.869 Y104.37 E3.73788
G1 X116.639 Y103.498 E3.77657
G1 X117.061 Y102.226 E3.82114
G1 X117.354 Y100.861 E3.86758
G1 X117.421 Y99.929 E3.89866
G1 X117.415 Y99.456 E3.91439
G1 X117.421 Y99.045 E3.92806
G1 X117.353 Y98.11 E3.95924
G1 X117.027 Y96.611 E4.01026
G1 X116.654 Y95.505 E4.04909
G1 X115.773 Y94.513 E4.09321
G1 X114.733 Y93.569 E4.13993
G1 X113.959 Y93.047 E4.17098
G1 X113.557 Y92.823 E4.18629
G1 X113.188 Y92.605 E4.20054
G1 X112.36 Y92.197 E4.23124
G1 X110.863 Y91.72 E4.2835
G1 X109.747 Y91.497 E4.32135
G1 X108.471 Y91.759 E4.36468
G1 X107.095 Y92.196 E4.41269
G1 X106.266 Y92.604 E4.44343
G1 X105.88 Y92.833 E4.45835
G1 X105.498 Y93.045 E4.47288
G1 X104.721 Y93.574 E4.50415
G1 X103.586 Y94.603 E4.5551
G1 X102.814 Y95.479 E4.59394
G1 X102.394 Y96.747 E4.63837
G1 X102.102 Y98.113 E4.68483
G1 X102.036 Y99.046 E4.71594
G1 X102.043 Y99.485 E4.73054
G1 X102.035 Y99.929 E4.74531
G1 X102.058 Y100.259 E4.75631
G1 X102.103 Y100.859 E4.77632
G1 X102.429 Y102.363 E4.82751
G1 X102.802 Y103.469 E4.86633
G1 X103.679 Y104.456 E4.91024
G1 X104.719 Y105.401 E4.95698
G1 X105.495 Y105.925 E4.98812
G1 X105.859 Y106.127 E5.00197
G1 X106.266 Y106.369 E5.01772
G1 X107.098 Y106.778 E5.04855
G1 X108.592 Y107.257 E5.10074
G1 X109.71 Y107.477 E5.13863
G0 F6000 X109.772 Y107.729
G0 X108.128 Y107.317
G0 X107.029 Y106.964
G0 X105.392 Y106.097
G0 X104.598 Y105.559
G0 X103.249 Y104.271
G0 X102.662 Y103.564
G0 X102.344 Y102.925
G0 X102.78 Y102.78
G1 F1200 X105.946 Y105.946 E5.28755
G0 F6000 X105.721 Y106.348
G0 X106.434 Y106.749
G0 X107.143 Y106.577
G1 F1200 X102.55 Y101.984 E5.50359
G0 F6000 X102.394 Y101.262
G1 F1200 X107.982 Y106.851 E5.76646
G0 F6000 X108.789 Y107.092
G1 F1200 X102.282 Y100.585 E6.07253
G0 F6000 X102.237 Y99.974
G1 F1200 X109.493 Y107.23 E6.41383
G0 F6000 X110.033 Y107.205
G1 F1200 X102.241 Y99.412 E6.78036
G0 F6000 X102.249 Y98.854
G1 F1200 X110.503 Y107.108 E7.16861
G0 F6000 X110.968 Y107.008
G1 F1200 X102.286 Y98.326 E7.57698
G0 F6000 X102.364 Y97.838
G1 F1200 X111.397 Y106.872 E8.00189
G0 F6000 X111.827 Y106.736
G1 F1200 X102.463 Y97.372 E8.44234
G0 F6000 X102.563 Y96.906
G1 F1200 X112.256 Y106.599 E8.89827
G0 F6000 X112.638 Y106.416
G1 F1200 X102.694 Y96.471 E9.36603
G0 F6000 X102.835 Y96.047
G1 F1200 X113.018 Y106.23 E9.84501
G0 F6000 X113.377 Y106.023
G1 F1200 X102.975 Y95.622 E10.33426
G0 F6000 X103.229 Y95.309
G1 F1200 X113.739 Y105.819 E10.82862
G0 F6000 X114.084 Y105.599
G1 F1200 X103.494 Y95.008 E11.32677
G0 F6000 X103.763 Y94.712
G1 F1200 X114.42 Y105.369 E11.82804
G0 F6000 X114.739 Y105.122
G1 F1200 X104.059 Y94.443 E12.33037
G0 F6000 X104.356 Y94.174
G1 F1200 X115.035 Y104.853 E12.83268
G0 F6000 X115.332 Y104.584
G1 F1200 X104.653 Y93.905 E13.33499
G0 F6000 X104.964 Y93.65
G1 F1200 X115.628 Y104.315 E13.83661
G0 F6000 X115.905 Y104.026
G1 F1200 X105.3 Y93.421 E14.33544
G0 F6000 X105.64 Y93.195
G1 F1200 X116.17 Y103.725 E14.83074
G0 F6000 X116.436 Y103.425
G1 F1200 X106.003 Y92.993 E15.32145
G0 F6000 X106.358 Y92.781
G1 F1200 X116.589 Y103.012 E15.80268
G0 F6000 X116.729 Y102.587
G1 F1200 X106.737 Y92.594 E16.2727
G0 F6000 X107.116 Y92.408
G1 F1200 X116.869 Y102.162 E16.73148
G0 F6000 X116.969 Y101.696
G1 F1200 X107.538 Y92.265 E17.17508
G0 F6000 X107.968 Y92.128
G1 F1200 X117.069 Y101.23 E17.60319
G0 F6000 X117.159 Y100.754
G1 F1200 X108.397 Y91.992 E18.01532
G0 F6000 X108.854 Y91.884
G1 F1200 X117.197 Y100.227 E18.40775
G0 F6000 X117.217 Y99.68
G1 F1200 X109.324 Y91.788 E18.77899
G0 F6000 X109.816 Y91.714
G1 F1200 X117.219 Y99.117 E19.12721
G0 F6000 X117.181 Y98.514
G1 F1200 X110.524 Y91.856 E19.44036
G0 F6000 X111.304 Y92.07
G1 F1200 X117.094 Y97.86 E19.7127
G0 F6000 X116.936 Y97.137
G1 F1200 X112.135 Y92.336 E19.93852
G0 F6000 X112.894 Y92.172
G0 X113.459 Y92.461
G0 X113.222 Y92.857
G1 F1200 X116.734 Y96.37 E20.10374
G0 F6000 X117.171 Y96.223
G0 X116.79 Y95.405
G0 X116.339 Y94.763
G0 X115.996 Y95.066
G1 F1200 X115.141 Y94.211 E20.14396
G1 F1500 E13.64396
G0 F6000 X115.451 Y93.871
G0 X116.831 Y95.404
G0 X117.31 Y96.965
G0 X117.551 Y98.083
G0 X117.621 Y99.934
G0 X117.552 Y100.89
G0 X117.16 Y102.556
G0 X116.798 Y103.553
G0 X116.25 Y104.755
G0 X116.978 Y105.558
G0 X118.189 Y112.301
G0 X121.15 Y128.745
;TYPE:WALL-INNER
G1 F1500 E20.14396
G1 F1200 X122.362 Y128.987 E20.18506
G1 X123.752 Y128.705 E20.23224
G1 X125.152 Y128.258 E20.28112
G1 X126.024 Y127.831 E20.31341
G1 X126.429 Y127.591 E20.32907
G1 X126.81 Y127.379 E20.34357
G1 X127.619 Y126.829 E20.37611
G1 X128.787 Y125.769 E20.42857
G1 X129.614 Y124.831 E20.47016
G1 X130.073 Y123.463 E20.51815
G1 X130.374 Y122.057 E20.56598
G1 X130.445 Y121.083 E20.59846
G1 X130.438 Y120.622 E20.61379
G1 X130.445 Y120.179 E20.62853
G1 X130.373 Y119.203 E20.66108
G1 X130.039 Y117.661 E20.71356
G1 X129.64 Y116.476 E20.75514
G1 X128.693 Y115.406 E20.80267
G1 X127.619 Y114.43 E20.85094
G1 X126.811 Y113.884 E20.88337
G1 X126.407 Y113.659 E20.89875
G1 X126.024 Y113.43 E20.91359
G1 X125.151 Y113.005 E20.94589
G1 X123.632 Y112.517 E20.99895
G1 X122.42 Y112.275 E21.04006
G1 X121.03 Y112.557 E21.08723
G1 X119.63 Y113.004 E21.13611
G1 X118.757 Y113.43 E21.16842
G1 X118.356 Y113.668 E21.18393
G1 X117.973 Y113.883 E21.19854
G1 X117.163 Y114.433 E21.2311
G1 X115.995 Y115.493 E21.28356
G1 X115.168 Y116.431 E21.32516
G1 X114.709 Y117.798 E21.37312
G1 X114.408 Y119.204 E21.42094
G1 X114.338 Y120.181 E21.45352
G1 X114.345 Y120.63 E21.46846
G1 X114.337 Y121.082 E21.48349
G1 X114.409 Y122.057 E21.51601
G1 X114.743 Y123.601 E21.56855
G1 X115.148 Y124.8 E21.61064
G1 X116.087 Y125.854 E21.65759
G1 X117.161 Y126.83 E21.70586
G1 X117.971 Y127.378 E21.73839
G1 X118.375 Y127.602 E21.75375
G1 X118.759 Y127.831 E21.76862
G1 X119.631 Y128.257 E21.8009
G1 X121.15 Y128.745 E21.85397
G0 F6000 X121.05 Y129.133
;TYPE:WALL-OUTER
G1 F1200 X122.362 Y129.395 E21.89847
G1 X123.853 Y129.093 E21.94906
G1 X125.302 Y128.63 E21.99966
G1 X126.215 Y128.183 E22.03347
G1 X126.623 Y127.941 E22.04925
G1 X127.02 Y127.72 E22.06436
G1 X127.867 Y127.144 E22.09843
G1 X129.073 Y126.05 E22.15258
G1 X129.969 Y125.034 E22.19764
G1 X130.459 Y123.569 E22.24902
G1 X130.771 Y122.114 E22.29851
G1 X130.845 Y121.094 E22.33253
G1 X130.838 Y120.629 E22.34799
G1 X130.845 Y120.168 E22.36333
G1 X130.77 Y119.146 E22.39741
G1 X130.425 Y117.555 E22.45156
G1 X129.992 Y116.269 E22.49669
G1 X128.978 Y115.124 E22.54756
G1 X127.867 Y114.115 E22.59748
G1 X127.021 Y113.543 E22.63144
G1 X126.612 Y113.315 E22.64702
G1 X126.214 Y113.078 E22.66242
G1 X125.301 Y112.633 E22.69621
G1 X123.732 Y112.129 E22.75102
G1 X122.42 Y111.867 E22.79552
G1 X120.929 Y112.169 E22.84611
G1 X119.48 Y112.632 E22.89671
G1 X118.567 Y113.078 E22.9305
G1 X118.161 Y113.319 E22.94621
G1 X117.763 Y113.542 E22.96138
G1 X116.915 Y114.118 E22.99548
G1 X115.709 Y115.212 E23.04963
G1 X114.813 Y116.228 E23.09469
G1 X114.323 Y117.692 E23.14604
G1 X114.011 Y119.148 E23.19556
G1 X113.938 Y120.169 E23.22961
G1 X113.945 Y120.63 E23.24494
G1 X113.937 Y121.094 E23.26038
G1 X114.012 Y122.114 E23.2944
G1 X114.357 Y123.707 E23.34861
G1 X114.79 Y124.992 E23.39371
G1 X115.802 Y126.136 E23.44451
G1 X116.913 Y127.145 E23.49443
G1 X117.761 Y127.719 E23.52848
G1 X118.17 Y127.946 E23.54404
G1 X118.568 Y128.183 E23.55945
G1 X119.481 Y128.629 E23.59324
G1 X121.05 Y129.133 E23.64806
G0 F6000 X121.255 Y128.398
;TYPE:SKIN
G1 F1200 X122.372 Y128.621 E23.68594
G1 X123.648 Y128.359 E23.72927
G1 X125.023 Y127.922 E23.77725
G1 X125.852 Y127.513 E23.808
G1 X126.225 Y127.292 E23.82242
G1 X126.622 Y127.071 E23.83753
G1 X127.397 Y126.543 E23.86872
G1 X128.532 Y125.514 E23.91968
G1 X129.302 Y124.642 E23.95837
G1 X129.724 Y123.37 E24.00294
G1 X130.017 Y122.005 E24.04938
G1 X130.084 Y121.073 E24.08046
G1 X130.078 Y120.6 E24.09619
G1 X130.084 Y120.189 E24.10986
G1 X130.016 Y119.254 E24.14104
G1 X129.69 Y117.756 E24.19203
G1 X129.317 Y116.648 E24.23091
G1 X128.436 Y115.658 E24.27499
G1 X127.396 Y114.713 E24.32173
G1 X126.622 Y114.191 E24.35278
G1 X126.233 Y113.974 E24.3676
G1 X125.851 Y113.749 E24.38234
G1 X125.023 Y113.341 E24.41304
G1 X123.527 Y112.864 E24.46527
G1 X122.41 Y112.641 E24.50315
G1 X121.134 Y112.903 E24.54648
G1 X119.758 Y113.34 E24.5945
G1 X118.928 Y113.748 E24.62526
G1 X118.531 Y113.984 E24.64062
G1 X118.163 Y114.189 E24.65463
G1 X117.385 Y114.719 E24.68594
G1 X116.25 Y115.748 E24.73689
G1 X115.481 Y116.619 E24.77554
G1 X115.058 Y117.891 E24.82012
G1 X114.765 Y119.256 E24.86656
G1 X114.699 Y120.19 E24.8977
G1 X114.706 Y120.628 E24.91227
G1 X114.698 Y121.071 E24.92701
G1 X114.766 Y122.004 E24.95812
G1 X115.092 Y123.505 E25.00921
G1 X115.466 Y124.613 E25.0481
G1 X116.342 Y125.6 E25.092
G1 X117.382 Y126.545 E25.13873
G1 X118.159 Y127.069 E25.1699
G1 X118.522 Y127.27 E25.18371
G1 X118.931 Y127.513 E25.19953
G1 X119.761 Y127.921 E25.23029
G1 X121.255 Y128.398 E25.28245
G0 F6000 X121.205 Y128.653
G0 X119.692 Y128.108
G0 X118.056 Y127.241
G0 X117.261 Y126.703
G0 X115.912 Y125.414
G0 X115.325 Y124.707
G0 X115.011 Y124.081
G0 X115.447 Y123.933
G1 F1200 X118.595 Y127.081 E25.43052
G0 F6000 X118.37 Y127.484
G0 X118.928 Y127.802
G0 X119.793 Y127.713
G1 F1200 X115.216 Y123.136 E25.64581
G0 F6000 X115.059 Y122.413
G1 F1200 X120.635 Y127.989 E25.90809
G0 F6000 X121.442 Y128.23
G1 F1200 X114.946 Y121.734 E26.21364
G0 F6000 X114.902 Y121.125
G1 F1200 X122.149 Y128.371 E26.55449
G0 F6000 X122.692 Y128.349
G1 F1200 X114.904 Y120.56 E26.92084
G0 F6000 X114.911 Y120.003
G1 F1200 X123.162 Y128.253 E27.30892
G0 F6000 X123.628 Y128.153
G1 F1200 X114.949 Y119.474 E27.71715
G0 F6000 X115.026 Y118.986
G1 F1200 X124.057 Y128.017 E28.14194
G0 F6000 X124.486 Y127.88
G1 F1200 X115.126 Y118.52 E28.58221
G0 F6000 X115.226 Y118.055
G1 F1200 X124.916 Y127.744 E29.03797
G0 F6000 X125.298 Y127.561
G1 F1200 X115.357 Y117.62 E29.50557
G0 F6000 X115.498 Y117.195
G1 F1200 X125.677 Y127.374 E29.98436
G0 F6000 X126.037 Y127.168
G1 F1200 X115.64 Y116.771 E30.4734
G0 F6000 X115.89 Y116.456
G1 F1200 X126.399 Y126.965 E30.96771
G0 F6000 X126.744 Y126.744
G1 F1200 X116.155 Y116.155 E31.46579
G0 F6000 X116.425 Y115.86
G1 F1200 X127.081 Y126.515 E31.96699
G0 F6000 X127.4 Y126.268
G1 F1200 X116.722 Y115.59 E32.46925
G0 F6000 X117.018 Y115.321
G1 F1200 X127.696 Y125.999 E32.97151
G0 F6000 X127.993 Y125.73
G1 F1200 X117.315 Y115.052 E33.47377
G0 F6000 X117.625 Y114.797
G1 F1200 X128.289 Y125.461 E33.97537
G0 F6000 X128.566 Y125.172
G1 F1200 X117.962 Y114.568 E34.47415
G0 F6000 X118.301 Y114.341
G1 F1200 X128.832 Y124.872 E34.9695
G0 F6000 X129.097 Y124.571
G1 F1200 X118.663 Y114.138 E35.46026
G0 F6000 X119.018 Y113.926
G1 F1200 X129.251 Y124.16 E35.94161
G0 F6000 X129.392 Y123.735
G1 F1200 X119.397 Y113.74 E36.41174
G0 F6000 X119.776 Y113.553
G1 F1200 X129.532 Y123.309 E36.87064
G0 F6000 X129.631 Y122.843
G1 F1200 X120.198 Y113.41 E37.31433
G0 F6000 X120.628 Y113.274
G1 F1200 X129.731 Y122.377 E37.74251
G0 F6000 X129.822 Y121.903
G1 F1200 X121.057 Y113.137 E38.15481
G0 F6000 X121.514 Y113.029
G1 F1200 X129.861 Y121.376 E38.54743
G0 F6000 X129.879 Y120.828
G1 F1200 X121.984 Y112.933 E38.91879
G0 F6000 X122.474 Y112.857
G1 F1200 X129.882 Y120.266 E39.26726
G0 F6000 X129.845 Y119.662
G1 F1200 X123.181 Y112.999 E39.58069
G0 F6000 X123.96 Y113.212
G1 F1200 X129.758 Y119.01 E39.85341
G0 F6000 X129.6 Y118.286
G1 F1200 X124.791 Y113.477 E40.07961
G0 F6000 X125.502 Y113.289
G0 X126.112 Y113.599
G0 X125.875 Y113.996
G1 F1200 X129.399 Y117.519 E40.24535
G0 F6000 X129.836 Y117.373
G0 X129.453 Y116.551
G0 X129.037 Y115.947
G0 X128.694 Y116.249
G1 F1200 X127.759 Y115.314 E40.28933
G1 F1500 E33.78933
G0 F6000 X127.504 Y114.474
G0 X125.556 Y113.382
G0 X124.599 Y112.996
G0 X123.333 Y112.622
G0 X122.32 Y112.459
G0 X120.801 Y112.798
G0 X119.69 Y113.153
G0 X118.057 Y114.019
G0 X117.263 Y114.56
G0 X115.937 Y115.802
G0 X115.277 Y116.609
G0 X114.802 Y118.13
G0 X114.613 Y119.018
G0 X114.229 Y122.086
G0 X113.17 Y122.315
G0 X106.084 Y125.076
G0 X97.58 Y128.987
;TYPE:WALL-INNER
G1 F1500 E40.28933
G1 F1200 X98.97 Y128.705 E40.3365
