;FLAVOR:Marlin
;TIME:2655
;Filament used: 2.40693m
;Layer height: 0.2
;MINX:78.726
;MINY:94.736
;MINZ:0.2
;MAXX:141.274
;MAXY:125.264
;MAXZ:16.2
;Generated with Cura_SteamEngine 5.2.2
M82 ;absolute extrusion mode
; Ender 3 Custom Start G-code
G92 E0 ; Reset Extruder
G28 ; Home all axes
M104 S175 ; Start heating up the nozzle most of the way
M190 S60 ; Start heating the bed, wait until target temperature reached
M109 S200 ; Finish heating the nozzle
G1 Z2.0 F3000 ; Move Z Axis up little to prevent scratching of Heat Bed
G1 X0.1 Y20 Z0.3 F5000.0 ; Move to start position
G1 X0.1 Y200.0 Z0.3 F1500.0 E15 ; Draw the first line
G1 X0.4 Y200.0 Z0.3 F5000.0 ; Move to side a little
G1 X0.4 Y20 Z0.3 F1500.0 E30 ; Draw the second line
G92 E0 ; Reset Extruder
G1 Z2.0 F3000 ; Move Z Axis up little to prevent scratching of Heat Bed
G1 X5 Y20 Z0.3 F5000.0 ; Move over to prevent blob squish
G92 E0
G92 E0
G1 F1500 E-6.5
;LAYER_COUNT:81
;LAYER:0
M107
;MESH:9_length_leg_screws.stl
G0 F6000 X89.683 Y124.864 Z0.2
;TYPE:WALL-INNER
G1 F1500 E0
G1 F1200 X90.747 Y124.769 E0.03553
G1 X92.222 Y124.375 E0.08631
G1 X93.602 Y123.73 E0.13697
G1 X94.848 Y122.858 E0.18756
G1 X95.928 Y121.779 E0.23833
G1 X96.541 Y120.905 E0.27384
G1 X96.992 Y120.122 E0.30389
G1 X97.442 Y119.154 E0.3394
G1 X97.838 Y117.678 E0.39023
G1 X97.971 Y116.163 E0.44081
G1 X97.838 Y114.649 E0.49136
G1 X97.443 Y113.173 E0.54218
G1 X96.992 Y112.206 E0.57767
G1 X96.54 Y111.422 E0.60777
G1 X95.927 Y110.549 E0.64324
G1 X94.847 Y109.469 E0.69404
G1 X93.602 Y108.597 E0.7446
G1 X92.222 Y107.952 E0.79527
G1 X90.748 Y107.557 E0.84602
G1 X89.683 Y107.464 E0.88158
G1 X88.781 Y107.464 E0.91158
G1 X87.718 Y107.558 E0.94707
G1 X86.243 Y107.952 E0.99785
G1 X84.863 Y108.597 E1.04852
G1 X83.617 Y109.469 E1.0991
G1 X82.537 Y110.548 E1.14987
G1 X81.923 Y111.423 E1.18543
G1 X81.472 Y112.206 E1.21548
G1 X81.023 Y113.172 E1.25091
G1 X80.627 Y114.649 E1.30177
G1 X80.494 Y116.165 E1.35239
G1 X80.56 Y116.921 E1.37763
G1 X80.627 Y117.678 E1.4029
G1 X81.022 Y119.155 E1.45376
G1 X81.472 Y120.122 E1.48923
G1 X81.924 Y120.905 E1.5193
G1 X82.537 Y121.778 E1.55478
G1 X83.618 Y122.858 E1.6056
G1 X84.863 Y123.73 E1.65616
G1 X86.243 Y124.375 E1.70682
G1 X87.717 Y124.77 E1.75758
G1 X88.781 Y124.864 E1.79311
G1 X89.683 Y124.864 E1.82311
G0 F6000 X89.671 Y124.764
G0 X90.746 Y124.666
G0 X90.817 Y125.165
;TYPE:WALL-OUTER
G1 F1200 X92.36 Y124.752 E1.87623
G1 X93.803 Y124.078 E1.92921
G1 X95.106 Y123.166 E1.9821
G1 X96.236 Y122.037 E2.03523
G1 X96.879 Y121.12 E2.07248
G1 X97.348 Y120.306 E2.10373
G1 X97.82 Y119.291 E2.14096
G1 X98.234 Y117.748 E2.1941
G1 X98.373 Y116.163 E2.24701
G1 X98.234 Y114.579 E2.2999
G1 X97.821 Y113.035 E2.35306
G1 X97.347 Y112.021 E2.39029
G1 X96.878 Y111.207 E2.42153
G1 X96.235 Y110.291 E2.45876
G1 X95.105 Y109.161 E2.51191
G1 X93.803 Y108.249 E2.56478
G1 X92.36 Y107.575 E2.61775
G1 X90.818 Y107.161 E2.67086
G1 X89.7 Y107.064 E2.70818
G1 X88.763 Y107.064 E2.73935
G1 X87.648 Y107.162 E2.77657
G1 X86.105 Y107.575 E2.8297
G1 X84.662 Y108.249 E2.88267
G1 X83.359 Y109.161 E2.93557
G1 X82.229 Y110.29 E2.9887
G1 X81.585 Y111.208 E3.026
G1 X81.116 Y112.022 E3.05724
G1 X80.645 Y113.035 E3.0944
G1 X80.231 Y114.579 E3.14757
G1 X80.092 Y116.165 E3.20052
G1 X80.162 Y116.956 E3.22693
G1 X80.231 Y117.748 E3.25337
G1 X80.644 Y119.292 E3.30653
G1 X81.117 Y120.307 E3.34378
G1 X81.586 Y121.121 E3.37502
G1 X82.23 Y122.036 E3.41224
G1 X83.36 Y123.166 E3.46539
G1 X84.662 Y124.078 E3.51826
G1 X86.105 Y124.752 E3.57123
G1 X87.647 Y125.166 E3.62434
G1 X88.763 Y125.264 E3.6616
G1 X89.701 Y125.264 E3.6928
G1 X90.817 Y125.165 E3.73006
G0 F6000 X90.746 Y124.666
G0 X89.666 Y124.764
G0 X89.666 Y124.504
;TYPE:SKIN
G1 F1200 X90.682 Y124.414 E3.76398
G1 X92.101 Y124.034 E3.81284
G1 X93.422 Y123.416 E3.86135
G1 X94.614 Y122.582 E3.90974
G1 X95.653 Y121.544 E3.95858
G1 X96.238 Y120.711 E3.99244
G1 X96.673 Y119.954 E4.02148
G1 X97.102 Y119.032 E4.0553
G1 X97.483 Y117.613 E4.10417
G1 X97.609 Y116.162 E4.15261
G1 X97.483 Y114.714 E4.20095
G1 X97.103 Y113.294 E4.24985
G1 X96.671 Y112.372 E4.28371
G1 X96.237 Y111.617 E4.31267
G1 X95.652 Y110.784 E4.34653
G1 X94.612 Y109.745 E4.39543
G1 X93.422 Y108.911 E4.44376
G1 X92.1 Y108.293 E4.49229
G1 X90.683 Y107.912 E4.5411
G1 X89.668 Y107.825 E4.57498
G1 X88.797 Y107.824 E4.60395
G1 X87.783 Y107.913 E4.63781
G1 X86.364 Y108.293 E4.68666
G1 X85.043 Y108.911 E4.73517
G1 X83.851 Y109.745 E4.78356
G1 X82.812 Y110.783 E4.83241
G1 X82.227 Y111.617 E4.86629
G1 X81.791 Y112.374 E4.89534
G1 X81.361 Y113.298 E4.92924
G1 X80.982 Y114.714 E4.978
G1 X80.856 Y116.166 E5.02647
G1 X80.982 Y117.613 E5.07478
G1 X81.362 Y119.033 E5.12367
G1 X81.793 Y119.956 E5.15755
G1 X82.227 Y120.712 E5.18655
G1 X82.813 Y121.543 E5.22037
G1 X83.853 Y122.582 E5.26926
G1 X85.043 Y123.416 E5.31759
G1 X86.365 Y124.034 E5.36613
G1 X87.782 Y124.415 E5.41493
G1 X88.797 Y124.504 E5.44882
G1 X89.666 Y124.504 E5.47773
G0 F6000 X89.666 Y124.764
G0 X87.746 Y124.612
G0 X86.575 Y124.297
G0 X85.318 Y123.831
G0 X85.513 Y123.414
G1 F1200 X81.981 Y119.882 E5.64386
G0 F6000 X81.582 Y120.112
G0 X81.077 Y118.976
G0 X81.523 Y118.858
G1 F1200 X86.535 Y123.87 E5.87961
G0 F6000 X87.31 Y124.079
G1 F1200 X81.315 Y118.085 E6.16157
G0 F6000 X81.161 Y117.364
G1 F1200 X88.03 Y124.234 E6.48469
G0 F6000 X88.65 Y124.288
G1 F1200 X81.107 Y116.745 E6.83949
G0 F6000 X81.059 Y116.131
G1 F1200 X89.23 Y124.303 E7.22385
G0 F6000 X89.784 Y124.291
G1 F1200 X81.104 Y115.611 E7.63213
G0 F6000 X81.149 Y115.09
G1 F1200 X90.304 Y124.245 E8.06276
G0 F6000 X90.798 Y124.174
G1 F1200 X81.22 Y114.595 E8.5133
G0 F6000 X81.339 Y114.149
G1 F1200 X91.245 Y124.054 E8.97923
G0 F6000 X91.691 Y123.935
G1 F1200 X81.459 Y113.703 E9.46051
G0 F6000 X81.593 Y113.272
G1 F1200 X92.123 Y123.801 E9.95578
G0 F6000 X92.508 Y123.621
G1 F1200 X81.773 Y112.886 E10.46072
G0 F6000 X81.952 Y112.499
G1 F1200 X92.894 Y123.441 E10.9754
G0 F6000 X93.279 Y123.26
G1 F1200 X82.157 Y112.138 E11.49855
G0 F6000 X82.363 Y111.779
G1 F1200 X93.617 Y123.033 E12.0279
G0 F6000 X93.95 Y122.8
G1 F1200 X82.592 Y111.442 E12.56215
G0 F6000 X82.826 Y111.11
G1 F1200 X94.283 Y122.567 E13.10105
G0 F6000 X94.596 Y122.315
G1 F1200 X83.08 Y110.798 E13.64275
G0 F6000 X83.362 Y110.515
G1 F1200 X94.879 Y122.032 E14.18447
G0 F6000 X95.162 Y121.749
G1 F1200 X83.645 Y110.232 E14.7262
G0 F6000 X83.928 Y109.95
G1 F1200 X95.445 Y121.466 E15.2679
G0 F6000 X95.689 Y121.145
G1 F1200 X84.252 Y109.708 E15.80586
G0 F6000 X84.584 Y109.474
G1 F1200 X95.922 Y120.812 E16.33917
G0 F6000 X96.146 Y120.47
G1 F1200 X84.917 Y109.242 E16.86732
G0 F6000 X85.267 Y109.025
G1 F1200 X96.352 Y120.111 E17.38875
G0 F6000 X96.55 Y119.743
G1 F1200 X85.653 Y108.846 E17.90131
G0 F6000 X86.038 Y108.666
G1 F1200 X96.73 Y119.357 E18.4042
G0 F6000 X96.909 Y118.971
G1 F1200 X86.424 Y108.485 E18.89741
G0 F6000 X86.868 Y108.364
G1 F1200 X97.03 Y118.526 E19.3754
G0 F6000 X97.15 Y118.08
G1 F1200 X87.314 Y108.245 E19.83803
G0 F6000 X87.761 Y108.125
G1 F1200 X97.27 Y117.634 E20.28531
G0 F6000 X97.324 Y117.123
G1 F1200 X88.271 Y108.07 E20.71113
G0 F6000 X88.791 Y108.024
G1 F1200 X97.37 Y116.603 E21.11466
G0 F6000 X97.399 Y116.067
G1 F1200 X89.356 Y108.023 E21.493
G0 F6000 X89.947 Y108.049
G1 F1200 X97.345 Y115.447 E21.84098
G0 F6000 X97.292 Y114.828
G1 F1200 X90.566 Y108.102 E22.15735
G0 F6000 X91.32 Y108.29
G1 F1200 X97.105 Y114.076 E22.42948
G0 F6000 X96.875 Y113.28
G1 F1200 X92.116 Y108.521 E22.65333
G0 F6000 X92.311 Y108.105
G0 X93.373 Y108.601
G0 X93.178 Y109.018
G1 F1200 X96.315 Y112.154 E22.80086
G1 F1500 E16.30086
G0 F6000 X96.714 Y111.925
G0 X97.154 Y112.123
G0 X98.135 Y111.664
G0 X104.976 Y112.453
G0 X108.536 Y112.443
;TYPE:WALL-INNER
G1 F1500 E22.80086
G1 F1200 X109.6 Y112.536 E22.83639
G1 X110.503 Y112.536 E22.86642
G1 X111.567 Y112.442 E22.90195
G1 X113.042 Y112.047 E22.95274
G1 X114.422 Y111.403 E23.00339
G1 X115.668 Y110.531 E23.05397
G1 X116.748 Y109.452 E23.10475
G1 X117.361 Y108.577 E23.14028
G1 X117.813 Y107.794 E23.17035
G1 X118.262 Y106.827 E23.20581
G1 X118.658 Y105.351 E23.25664
G1 X118.791 Y103.835 E23.30725
G1 X118.658 Y102.322 E23.35777
G1 X118.263 Y100.845 E23.40862
G1 X117.812 Y99.878 E23.44411
G1 X117.36 Y99.094 E23.47421
G1 X116.747 Y98.222 E23.50966
G1 X115.667 Y97.142 E23.56046
G1 X114.422 Y96.27 E23.61102
G1 X113.042 Y95.625 E23.66168
G1 X111.568 Y95.23 E23.71244
G1 X110.502 Y95.136 E23.74803
G1 X109.601 Y95.136 E23.778
G1 X108.537 Y95.231 E23.81353
G1 X107.062 Y95.625 E23.86431
G1 X105.682 Y96.27 E23.91497
G1 X104.437 Y97.142 E23.96553
G1 X103.356 Y98.221 E24.01633
G1 X102.743 Y99.095 E24.05183
G1 X102.291 Y99.878 E24.0819
G1 X101.842 Y100.845 E24.11736
G1 X101.447 Y102.322 E24.16822
G1 X101.313 Y103.837 E24.2188
G1 X101.447 Y105.351 E24.26935
G1 X101.841 Y106.828 E24.3202
G1 X102.292 Y107.794 E24.35566
G1 X102.744 Y108.578 E24.38576
G1 X103.357 Y109.451 E24.42124
G1 X104.438 Y110.531 E24.47206
G1 X105.682 Y111.403 E24.52259
G1 X107.062 Y112.048 E24.57325
G1 X108.536 Y112.443 E24.62401
G0 F6000 X108.466 Y112.839
;TYPE:WALL-OUTER
G1 F1200 X109.583 Y112.936 E24.6613
G1 X110.521 Y112.936 E24.6925
G1 X111.637 Y112.838 E24.72976
G1 X113.18 Y112.425 E24.78288
G1 X114.623 Y111.751 E24.83586
G1 X115.926 Y110.839 E24.88875
G1 X117.056 Y109.71 E24.94188
G1 X117.699 Y108.792 E24.97916
G1 X118.168 Y107.978 E25.01041
G1 X118.64 Y106.964 E25.04761
G1 X119.054 Y105.421 E25.10074
G1 X119.193 Y103.835 E25.1537
G1 X119.054 Y102.252 E25.20655
G1 X118.641 Y100.708 E25.25971
G1 X118.167 Y99.693 E25.29697
G1 X117.698 Y98.879 E25.32821
G1 X117.055 Y97.964 E25.36541
G1 X115.925 Y96.834 E25.41856
G1 X114.623 Y95.922 E25.47143
G1 X113.18 Y95.248 E25.5244
G1 X111.638 Y94.834 E25.57751
G1 X110.52 Y94.736 E25.61483
G1 X109.583 Y94.736 E25.646
G1 X108.467 Y94.835 E25.68326
G1 X106.924 Y95.248 E25.73639
G1 X105.481 Y95.922 E25.78936
G1 X104.179 Y96.834 E25.84223
G1 X103.048 Y97.963 E25.89539
G1 X102.405 Y98.88 E25.93264
G1 X101.936 Y99.694 E25.96388
G1 X101.464 Y100.708 E26.00108
G1 X101.051 Y102.252 E26.05424
G1 X100.911 Y103.837 E26.10716
G1 X101.051 Y105.421 E26.16005
G1 X101.463 Y106.965 E26.2132
G1 X101.937 Y107.979 E26.25043
G1 X102.406 Y108.793 E26.28168
G1 X103.049 Y109.709 E26.3189
G1 X104.18 Y110.839 E26.37208
G1 X105.481 Y111.751 E26.42492
G1 X106.924 Y112.425 E26.47789
G1 X108.466 Y112.839 E26.531
G0 F6000 X108.601 Y112.088
;TYPE:SKIN
G1 F1200 X109.615 Y112.176 E26.56485
G1 X110.487 Y112.175 E26.59385
G1 X111.502 Y112.087 E26.62774
G1 X112.921 Y111.707 E26.6766
G1 X114.242 Y111.089 E26.7251
G1 X115.433 Y110.255 E26.77346
G1 X116.472 Y109.217 E26.82231
G1 X117.058 Y108.383 E26.85621
G1 X117.493 Y107.626 E26.88525
G1 X117.922 Y106.705 E26.91904
G1 X118.303 Y105.286 E26.96791
G1 X118.429 Y103.834 E27.01639
G1 X118.303 Y102.387 E27.0647
G1 X117.923 Y100.967 E27.11359
G1 X117.492 Y100.045 E27.14744
G1 X117.056 Y99.287 E27.17652
G1 X116.472 Y98.457 E27.21028
G1 X115.432 Y97.418 E27.25917
G1 X114.242 Y96.584 E27.30751
G1 X112.92 Y95.966 E27.35604
G1 X111.503 Y95.585 E27.40485
G1 X110.486 Y95.496 E27.4388
G1 X109.618 Y95.496 E27.46767
G1 X108.602 Y95.586 E27.50159
G1 X107.183 Y95.966 E27.55045
G1 X105.862 Y96.584 E27.59896
G1 X104.671 Y97.418 E27.64732
G1 X103.631 Y98.456 E27.69619
G1 X103.047 Y99.289 E27.73003
G1 X102.611 Y100.046 E27.75908
G1 X102.18 Y100.971 E27.79302
G1 X101.802 Y102.387 E27.84177
G1 X101.675 Y103.838 E27.89022
G1 X101.802 Y105.286 E27.93856
G1 X102.181 Y106.706 E27.98744
G1 X102.613 Y107.628 E28.02131
G1 X103.047 Y108.384 E28.0503
G1 X103.632 Y109.216 E28.08413
G1 X104.673 Y110.255 E28.13305
G1 X105.862 Y111.089 E28.18135
G1 X107.184 Y111.707 E28.22989
G1 X108.601 Y112.088 E28.27869
G0 F6000 X108.579 Y112.346
G0 X107.118 Y111.896
G0 X105.228 Y110.961
G0 X105.493 Y110.584
G1 F1200 X103.292 Y108.383 E28.38222
G0 F6000 X102.914 Y108.645
G0 X102.18 Y107.317
G0 X102.597 Y107.123
G1 F1200 X106.761 Y111.287 E28.57808
G0 F6000 X107.669 Y111.628
G1 F1200 X102.258 Y106.218 E28.83258
G0 F6000 X102.052 Y105.446
G1 F1200 X108.442 Y111.836 E29.13314
G0 F6000 X109.1 Y111.929
G1 F1200 X101.959 Y104.787 E29.46906
G0 F6000 X101.904 Y104.167
G1 F1200 X109.711 Y111.974 E29.83628
G0 F6000 X110.277 Y111.974
G1 F1200 X101.896 Y103.593 E30.23049
G0 F6000 X101.942 Y103.073
G1 F1200 X110.813 Y111.944 E30.64776
G0 F6000 X111.333 Y111.899
G1 F1200 X101.988 Y102.553 E31.08734
G0 F6000 X102.088 Y102.088
G1 F1200 X111.799 Y111.799 E31.54412
G0 F6000 X112.245 Y111.679
G1 F1200 X102.207 Y101.641 E32.01627
G0 F6000 X102.326 Y101.194
G1 F1200 X112.691 Y111.56 E32.50383
G0 F6000 X113.098 Y111.401
G1 F1200 X102.485 Y100.788 E33.00304
G0 F6000 X102.664 Y100.402
G1 F1200 X113.484 Y111.221 E33.51195
G0 F6000 X113.869 Y111.041
G1 F1200 X102.853 Y100.025 E34.03011
G0 F6000 X103.06 Y99.665
G1 F1200 X114.239 Y110.845 E34.55596
G0 F6000 X114.572 Y110.612
G1 F1200 X103.273 Y99.313 E35.08743
G0 F6000 X103.506 Y98.98
G1 F1200 X114.904 Y110.379 E35.62358
G0 F6000 X115.237 Y110.146
G1 F1200 X103.739 Y98.648 E36.16441
G0 F6000 X104.013 Y98.357
G1 F1200 X115.53 Y109.873 E36.70611
G0 F6000 X115.813 Y109.59
G1 F1200 X104.296 Y98.074 E37.24781
G0 F6000 X104.579 Y97.791
G1 F1200 X116.096 Y109.308 E37.78954
G0 F6000 X116.369 Y109.015
G1 F1200 X104.873 Y97.519 E38.33028
G0 F6000 X105.206 Y97.287
G1 F1200 X116.602 Y108.683 E38.86631
G0 F6000 X116.835 Y108.349
G1 F1200 X105.539 Y97.054 E39.39761
G0 F6000 X105.872 Y96.821
G1 F1200 X117.048 Y107.997 E39.9233
G0 F6000 X117.255 Y107.638
G1 F1200 X106.243 Y96.626 E40.44127
G0 F6000 X106.628 Y96.446
G1 F1200 X117.442 Y107.26 E40.94993
G0 F6000 X117.621 Y106.873
G1 F1200 X107.014 Y96.266 E41.44885
G0 F6000 X107.422 Y96.109
G1 F1200 X117.778 Y106.464 E41.93594
G0 F6000 X117.898 Y106.018
G1 F1200 X107.869 Y95.989 E42.40767
G0 F6000 X108.315 Y95.87
G1 F1200 X118.018 Y105.573 E42.86407
G0 F6000 X118.117 Y105.106
G1 F1200 X108.782 Y95.771 E43.30316
G0 F6000 X109.301 Y95.725
G1 F1200 X118.162 Y104.586 E43.71996
G0 F6000 X118.207 Y104.065
G1 F1200 X109.838 Y95.696 E44.11361
G0 F6000 X110.404 Y95.696
G1 F1200 X118.197 Y103.49 E44.48019
G0 F6000 X118.144 Y102.87
G1 F1200 X111.017 Y95.744 E44.8154
G0 F6000 X111.679 Y95.84
G1 F1200 X118.047 Y102.208 E45.11493
G0 F6000 X117.84 Y101.435
G1 F1200 X112.454 Y96.049 E45.36827
G0 F6000 X113.367 Y96.397
G1 F1200 X117.493 Y100.523 E45.56235
G0 F6000 X117.912 Y100.328
G0 X117.158 Y98.98
G0 X116.779 Y99.243
G1 F1200 X114.653 Y97.116 E45.66237
G1 F1500 E39.16237
G0 F6000 X114.917 Y96.74
G0 X115.563 Y97.266
G0 X116.624 Y98.326
G0 X117.496 Y99.654
G0 X118.112 Y100.901
G0 X118.5 Y102.351
G0 X118.605 Y103.552
G0 X118.436 Y106.884
G0 X119.419 Y107.34
G0 X121.908 Y111.577
G0 X127.778 Y124.375
;TYPE:WALL-INNER
G1 F1500 E45.66237
G1 F1200 X129.252 Y124.77 E45.71312
G1 X130.316 Y124.864 E45.74865
G1 X131.218 Y124.864 E45.77865
G1 X132.282 Y124.769 E45.81418
G1 X133.757 Y124.375 E45.86496
G1 X135.137 Y123.73 E45.91563
G1 X136.383 Y122.858 E45.96621
G1 X137.463 Y121.779 E46.01698
G1 X138.077 Y120.905 E46.05251
G1 X138.528 Y120.122 E46.08256
G1 X138.977 Y119.154 E46.11805
G1 X139.373 Y117.678 E46.16888
G1 X139.506 Y116.163 E46.21947
G1 X139.373 Y114.649 E46.27002
G1 X138.978 Y113.172 E46.32087
G1 X138.528 Y112.206 E46.35631
G1 X138.076 Y111.422 E46.38641
G1 X137.462 Y110.549 E46.42191
G1 X136.382 Y109.469 E46.47271
G1 X135.137 Y108.597 E46.52326
G1 X133.757 Y107.952 E46.57393
G1 X132.283 Y107.557 E46.62468
G1 X131.218 Y107.464 E46.66024
G1 X130.316 Y107.464 E46.69024
G1 X129.253 Y107.558 E46.72574
G1 X127.778 Y107.952 E46.77651
G1 X126.398 Y108.597 E46.82718
G1 X125.152 Y109.469 E46.87776
G1 X124.072 Y110.548 E46.92854
G1 X123.458 Y111.423 E46.96409
G1 X123.007 Y112.206 E46.99414
G1 X122.558 Y113.172 E47.02958
G1 X122.162 Y114.649 E47.08044
G1 X122.029 Y116.165 E47.13105
G1 X122.162 Y117.678 E47.18157
G1 X122.557 Y119.155 E47.23242
G1 X123.007 Y120.122 E47.26789
G1 X123.459 Y120.905 E47.29796
G1 X124.072 Y121.778 E47.33344
G1 X125.153 Y122.858 E47.38427
G1 X126.398 Y123.73 E47.43482
G1 X127.778 Y124.375 E47.48549
G0 F6000 X127.64 Y124.752
;TYPE:WALL-OUTER
G1 F1200 X129.182 Y125.166 E47.53859
G1 X130.298 Y125.264 E47.57585
