;FLAVOR:Marlin
;TIME:607
;Filament used: 0.285769m
;Layer height: 0.3
;MINX:34.446
;MINY:35.464
;MINZ:0.2
;MAXX:55.363
;MAXY:56.341
;MAXZ:26.3
;Generated with Cura_SteamEngine 5.2.2
M82 ;absolute extrusion mode
; Ender 3 Custom Start G-code
G92 E0 ; Reset Extruder
G28 ; Home all axes
M104 S200 ; Heat hot end all the way
M190 S60 ; Heat bed all the way & wait
M109 S200 ; Wait for hot end to heat up all the way
G1 Z2.0 F3000 ; Move Z Axis up little to prevent scratching of Heat Bed
G1 X0.1 Y20 Z0.3 F5000.0 ; Move to start position
G1 X0.1 Y200.0 Z0.3 F1500.0 E15 ; Draw the first line
G1 X0.4 Y200.0 Z0.3 F5000.0 ; Move to side a little
G1 X0.4 Y20 Z0.3 F1500.0 E30 ; Draw the second line
G92 E0 ; Reset Extruder
G1 Z2.0 F3000 ; Move Z Axis up little to prevent scratching of Heat Bed
G1 X5 Y20 Z0.3 F5000.0 ; Move over to prevent blob squish
G92 E0
G92 E0
G1 F1500 E-6.5
;LAYER_COUNT:88
;LAYER:0
M107
G0 F6000 X40.249 Y38.394 Z0.2
;TYPE:SKIRT
G1 F1500 E0
G1 F1200 X40.792 Y37.82 E0.02628
G1 X41.39 Y37.304 E0.05255
G1 X42.037 Y36.852 E0.0788
G1 X42.514 Y36.576 E0.09713
G1 X42.839 Y36.403 E0.10938
G1 X43.554 Y36.067 E0.13565
G1 X44.299 Y35.806 E0.16191
G1 X45.067 Y35.622 E0.18817
G1 X46 Y35.504 E0.21945
G1 X46.448 Y35.475 E0.23438
G1 X47.238 Y35.464 E0.26066
G1 X48.024 Y35.533 E0.28691
G1 X48.8 Y35.681 E0.31318
G1 X49.557 Y35.907 E0.33946
G1 X50.571 Y36.349 E0.37625
G1 X50.951 Y36.548 E0.39051
G1 X51.631 Y36.949 E0.41677
G1 X52.267 Y37.417 E0.44303
G1 X52.852 Y37.947 E0.46929
G1 X53.381 Y38.534 E0.49557
G1 X53.848 Y39.171 E0.52184
G1 X54.189 Y39.74 E0.54391
G1 X54.42 Y40.166 E0.56002
G1 X54.761 Y40.878 E0.58628
G1 X55.028 Y41.621 E0.61254
G1 X55.218 Y42.388 E0.63882
G1 X55.33 Y43.169 E0.66506
G1 X55.363 Y43.958 E0.69133
G1 X55.322 Y44.68 E0.71538
G1 X55.279 Y45.099 E0.72939
G1 X55.159 Y45.88 E0.75567
G1 X54.96 Y46.644 E0.78193
G1 X54.686 Y47.384 E0.80818
G1 X54.348 Y48.074 E0.83373
G1 X54.163 Y48.409 E0.84646
G1 X53.747 Y49.08 E0.87272
G1 X53.265 Y49.705 E0.89897
G1 X52.722 Y50.279 E0.92525
G1 X52.124 Y50.795 E0.95152
G1 X51.477 Y51.247 E0.97777
G1 X51.009 Y51.519 E0.99577
G1 X50.688 Y51.69 E1.00787
G1 X50.467 Y52.098 E1.0233
G1 X50.052 Y52.77 E1.04957
G1 X49.571 Y53.397 E1.07586
G1 X49.03 Y53.972 E1.10212
G1 X48.433 Y54.489 E1.12838
G1 X47.787 Y54.943 E1.15464
G1 X47.312 Y55.219 E1.17292
G1 X46.987 Y55.393 E1.18518
G1 X46.272 Y55.73 E1.21147
G1 X45.528 Y55.994 E1.23772
G1 X44.76 Y56.18 E1.26401
G1 X43.809 Y56.301 E1.29589
G1 X43.361 Y56.33 E1.31082
G1 X42.571 Y56.341 E1.3371
G1 X41.785 Y56.272 E1.36334
G1 X41.009 Y56.124 E1.38962
G1 X40.252 Y55.898 E1.4159
G1 X39.238 Y55.456 E1.45269
G1 X38.858 Y55.257 E1.46695
G1 X38.178 Y54.856 E1.49321
G1 X37.542 Y54.388 E1.51947
G1 X36.957 Y53.858 E1.54573
G1 X36.428 Y53.271 E1.57201
G1 X35.961 Y52.634 E1.59828
G1 X35.62 Y52.065 E1.62034
G1 X35.389 Y51.639 E1.63646
G1 X35.048 Y50.927 E1.66272
G1 X34.781 Y50.184 E1.68898
G1 X34.591 Y49.417 E1.71526
G1 X34.479 Y48.636 E1.7415
G1 X34.446 Y47.847 E1.76777
G1 X34.487 Y47.125 E1.79182
G1 X34.53 Y46.706 E1.80583
G1 X34.65 Y45.925 E1.83211
G1 X34.849 Y45.161 E1.85837
G1 X35.123 Y44.421 E1.88461
G1 X35.452 Y43.747 E1.90956
G1 X35.636 Y43.412 E1.92227
G1 X36.051 Y42.74 E1.94854
G1 X36.532 Y42.113 E1.97482
G1 X37.073 Y41.538 E2.00108
G1 X37.67 Y41.021 E2.02735
G1 X38.316 Y40.567 E2.05361
G1 X38.791 Y40.291 E2.07188
G1 X39.12 Y40.115 E2.08429
G1 X39.351 Y39.69 E2.10038
G1 X39.767 Y39.019 E2.12664
G1 X40.249 Y38.394 E2.15289
G0 F6000 X40.579 Y38.623
G1 F1200 X41.112 Y38.068 E2.17849
G1 X41.699 Y37.571 E2.20407
G1 X42.334 Y37.138 E2.22963
G1 X42.702 Y36.929 E2.24371
G1 X43.027 Y36.756 E2.25595
G1 X43.724 Y36.43 E2.28154
G1 X44.451 Y36.179 E2.30713
G1 X45.2 Y36.004 E2.33271
G1 X46.026 Y35.903 E2.36039
G1 X46.474 Y35.874 E2.37532
G1 X47.243 Y35.865 E2.4009
G1 X48.009 Y35.935 E2.42648
G1 X48.764 Y36.084 E2.45208
G1 X49.499 Y36.311 E2.47766
G1 X50.385 Y36.704 E2.5099
G1 X50.765 Y36.903 E2.52417
G1 X51.427 Y37.294 E2.54974
G1 X52.045 Y37.753 E2.57534
G1 X52.611 Y38.273 E2.60091
G1 X53.121 Y38.849 E2.62649
G1 X53.568 Y39.474 E2.65205
G1 X53.837 Y39.931 E2.66969
G1 X54.068 Y40.357 E2.68581
G1 X54.399 Y41.051 E2.71138
G1 X54.656 Y41.776 E2.73696
G1 X54.837 Y42.523 E2.76253
G1 X54.939 Y43.286 E2.78813
G1 X54.961 Y44.055 E2.81372
G1 X54.924 Y44.639 E2.83318
G1 X54.881 Y45.058 E2.84719
G1 X54.763 Y45.818 E2.87277
G1 X54.567 Y46.562 E2.89836
G1 X54.294 Y47.281 E2.92394
G1 X53.998 Y47.88 E2.94616
G1 X53.813 Y48.215 E2.95889
G1 X53.407 Y48.868 E2.98447
G1 X52.935 Y49.476 E3.01007
G1 X52.402 Y50.031 E3.03566
G1 X51.815 Y50.528 E3.06124
G1 X51.18 Y50.961 E3.0868
G1 X50.82 Y51.166 E3.10058
G1 X50.375 Y51.403 E3.11735
G1 X50.3 Y51.57 E3.12344
G1 X50.116 Y51.905 E3.13615
G1 X49.711 Y52.559 E3.16174
G1 X49.241 Y53.168 E3.18732
G1 X48.71 Y53.724 E3.2129
G1 X48.124 Y54.222 E3.23847
G1 X47.489 Y54.657 E3.26407
G1 X47.123 Y54.867 E3.27811
G1 X46.798 Y55.041 E3.29037
G1 X46.102 Y55.368 E3.31595
G1 X45.375 Y55.621 E3.34155
G1 X44.627 Y55.798 E3.36712
G1 X43.783 Y55.902 E3.3954
G1 X43.335 Y55.931 E3.41033
G1 X42.566 Y55.94 E3.43591
G1 X41.8 Y55.87 E3.46149
G1 X41.045 Y55.721 E3.48709
G1 X40.31 Y55.494 E3.51267
G1 X39.424 Y55.101 E3.54491
G1 X39.044 Y54.902 E3.55918
G1 X38.382 Y54.511 E3.58475
G1 X37.764 Y54.052 E3.61035
G1 X37.198 Y53.532 E3.63592
G1 X36.688 Y52.956 E3.66151
G1 X36.241 Y52.331 E3.68706
G1 X35.972 Y51.874 E3.7047
G1 X35.741 Y51.448 E3.72082
G1 X35.41 Y50.754 E3.74639
G1 X35.153 Y50.029 E3.77198
G1 X34.972 Y49.282 E3.79754
G1 X34.87 Y48.519 E3.82314
G1 X34.848 Y47.75 E3.84873
G1 X34.885 Y47.166 E3.86819
G1 X34.928 Y46.747 E3.8822
G1 X35.046 Y45.987 E3.90778
G1 X35.242 Y45.243 E3.93337
G1 X35.515 Y44.524 E3.95895
G1 X35.803 Y43.94 E3.98061
G1 X35.987 Y43.605 E3.99332
G1 X36.392 Y42.951 E4.01891
G1 X36.862 Y42.342 E4.04449
G1 X37.393 Y41.786 E4.07007
G1 X37.979 Y41.288 E4.09564
G1 X38.614 Y40.853 E4.12124
G1 X38.98 Y40.643 E4.13528
G1 X39.414 Y40.418 E4.15154
G1 X39.701 Y39.884 E4.1717
G1 X40.107 Y39.231 E4.19728
G1 X40.579 Y38.623 E4.22288
G0 F6000 X40.909 Y38.854
G1 F1200 X41.431 Y38.318 E4.24776
G1 X42.007 Y37.84 E4.27266
G1 X42.89 Y37.282 E4.3074
G1 X43.215 Y37.109 E4.31964
G1 X43.893 Y36.793 E4.34452
G1 X44.601 Y36.552 E4.3694
G1 X45.331 Y36.387 E4.39429
G1 X46.052 Y36.303 E4.41843
G1 X46.5 Y36.274 E4.43337
G1 X47.248 Y36.265 E4.45825
G1 X47.992 Y36.337 E4.48311
G1 X48.725 Y36.487 E4.50799
G1 X49.438 Y36.715 E4.53289
G1 X50.199 Y37.058 E4.56065
G1 X50.579 Y37.257 E4.57492
G1 X51.223 Y37.639 E4.59982
G1 X51.821 Y38.087 E4.62468
G1 X52.369 Y38.597 E4.64957
G1 X52.859 Y39.162 E4.67445
G1 X53.286 Y39.777 E4.69935
G1 X53.486 Y40.121 E4.71259
G1 X53.717 Y40.547 E4.7287
G1 X54.037 Y41.223 E4.75358
G1 X54.284 Y41.929 E4.77846
G1 X54.455 Y42.657 E4.80333
G1 X54.546 Y43.4 E4.82823
G1 X54.558 Y44.148 E4.85311
G1 X54.526 Y44.599 E4.86815
G1 X54.483 Y45.018 E4.88216
G1 X54.367 Y45.757 E4.90704
G1 X54.173 Y46.479 E4.9319
G1 X53.903 Y47.177 E4.95679
G1 X53.648 Y47.687 E4.97576
G1 X53.463 Y48.022 E4.98849
G1 X53.067 Y48.657 E5.01338
G1 X52.605 Y49.245 E5.03825
G1 X52.083 Y49.781 E5.06313
G1 X51.507 Y50.259 E5.08803
G1 X50.632 Y50.813 E5.12247
G1 X50.308 Y50.986 E5.13469
G1 X50.079 Y51.093 E5.1431
G1 X49.949 Y51.378 E5.15352
G1 X49.765 Y51.713 E5.16623
G1 X49.371 Y52.348 E5.19108
G1 X48.911 Y52.938 E5.21597
G1 X48.39 Y53.475 E5.24085
G1 X47.815 Y53.954 E5.26574
G1 X46.934 Y54.514 E5.30046
G1 X46.609 Y54.688 E5.31272
G1 X45.932 Y55.006 E5.3376
G1 X45.224 Y55.249 E5.3625
G1 X44.495 Y55.415 E5.38737
G1 X43.757 Y55.502 E5.41208
G1 X43.309 Y55.531 E5.42701
G1 X42.561 Y55.54 E5.45189
G1 X41.817 Y55.468 E5.47675
G1 X41.084 Y55.318 E5.50164
G1 X40.371 Y55.09 E5.52654
G1 X39.61 Y54.747 E5.5543
G1 X39.23 Y54.548 E5.56857
G1 X38.586 Y54.166 E5.59347
G1 X37.988 Y53.718 E5.61832
G1 X37.44 Y53.208 E5.64322
G1 X36.95 Y52.643 E5.6681
G1 X36.523 Y52.028 E5.693
G1 X36.323 Y51.684 E5.70623
G1 X36.092 Y51.258 E5.72235
G1 X35.772 Y50.582 E5.74723
G1 X35.525 Y49.876 E5.7721
G1 X35.354 Y49.148 E5.79698
G1 X35.263 Y48.405 E5.82187
G1 X35.251 Y47.657 E5.84676
G1 X35.283 Y47.206 E5.86179
G1 X35.326 Y46.787 E5.8758
G1 X35.442 Y46.048 E5.90068
G1 X35.636 Y45.326 E5.92555
G1 X35.906 Y44.628 E5.95044
G1 X36.154 Y44.132 E5.96888
G1 X36.338 Y43.797 E5.9816
G1 X36.732 Y43.162 E6.00645
G1 X37.192 Y42.572 E6.03134
G1 X37.713 Y42.035 E6.05622
G1 X38.288 Y41.556 E6.08111
G1 X39.169 Y40.996 E6.11583
G1 X39.494 Y40.822 E6.12809
G1 X39.731 Y40.711 E6.1368
G1 X39.866 Y40.412 E6.14771
G1 X40.051 Y40.077 E6.16044
G1 X40.447 Y39.442 E6.18533
G1 X40.909 Y38.854 E6.2102
G0 F6000 X41.238 Y39.085
G1 F1200 X41.749 Y38.569 E6.23435
G1 X42.313 Y38.112 E6.2585
G1 X43.078 Y37.635 E6.28848
G1 X43.403 Y37.462 E6.30073
G1 X44.062 Y37.156 E6.32489
G1 X44.75 Y36.925 E6.34903
G1 X45.46 Y36.771 E6.3732
G1 X46.078 Y36.702 E6.39388
G1 X46.526 Y36.673 E6.40881
G1 X47.252 Y36.666 E6.43296
G1 X47.975 Y36.739 E6.45713
G1 X48.685 Y36.891 E6.48128
G1 X49.374 Y37.12 E6.50543
G1 X50.014 Y37.412 E6.52882
G1 X50.394 Y37.611 E6.54309
G1 X51.018 Y37.983 E6.56725
G1 X51.597 Y38.421 E6.5914
G1 X52.125 Y38.92 E6.61556
G1 X52.594 Y39.475 E6.63973
G1 X53.134 Y40.312 E6.67286
G1 X53.365 Y40.738 E6.68898
G1 X53.675 Y41.395 E6.71314
G1 X53.912 Y42.081 E6.73728
G1 X54.072 Y42.79 E6.76146
G1 X54.152 Y43.512 E6.78562
G1 X54.129 Y44.558 E6.82041
G1 X54.086 Y44.977 E6.83442
G1 X53.972 Y45.694 E6.85857
G1 X53.78 Y46.395 E6.88274
G1 X53.512 Y47.07 E6.9069
G1 X53.298 Y47.494 E6.9227
G1 X53.113 Y47.829 E6.93543
G1 X52.727 Y48.444 E6.95958
G1 X52.276 Y49.014 E6.98375
G1 X51.765 Y49.53 E7.0079
G1 X51.201 Y49.987 E7.03205
G1 X50.444 Y50.46 E7.06174
G1 X50.12 Y50.633 E7.07395
G1 X49.78 Y50.791 E7.08642
G1 X49.599 Y51.185 E7.10084
G1 X49.415 Y51.52 E7.11356
G1 X49.031 Y52.137 E7.13773
G1 X48.581 Y52.707 E7.16188
G1 X48.071 Y53.225 E7.18606
G1 X47.508 Y53.683 E7.2102
G1 X46.745 Y54.162 E7.24016
G1 X46.42 Y54.336 E7.25242
G1 X45.762 Y54.643 E7.27657
G1 X45.074 Y54.876 E7.30073
G1 X44.364 Y55.031 E7.3249
G1 X43.731 Y55.103 E7.34609
G1 X43.283 Y55.132 E7.36103
G1 X42.557 Y55.139 E7.38517
G1 X41.834 Y55.066 E7.40934
G1 X41.124 Y54.914 E7.43349
G1 X40.435 Y54.685 E7.45764
G1 X39.795 Y54.393 E7.48104
G1 X39.415 Y54.194 E7.49531
G1 X38.791 Y53.822 E7.51947
G1 X38.212 Y53.384 E7.54362
G1 X37.684 Y52.885 E7.56778
G1 X37.215 Y52.33 E7.59195
G1 X36.675 Y51.493 E7.62508
G1 X36.444 Y51.067 E7.64119
G1 X36.134 Y50.41 E7.66536
G1 X35.897 Y49.724 E7.6895
G1 X35.737 Y49.015 E7.71367
G1 X35.657 Y48.293 E7.73783
G1 X35.68 Y47.247 E7.77263
G1 X35.723 Y46.828 E7.78664
G1 X35.837 Y46.111 E7.81079
G1 X36.029 Y45.41 E7.83496
G1 X36.297 Y44.735 E7.85911
G1 X36.504 Y44.325 E7.87439
G1 X36.688 Y43.99 E7.8871
G1 X37.072 Y43.373 E7.91127
G1 X37.522 Y42.803 E7.93543
G1 X38.032 Y42.285 E7.95961
G1 X38.595 Y41.827 E7.98375
G1 X39.358 Y41.348 E8.01371
G1 X39.683 Y41.174 E8.02597
G1 X40.03 Y41.012 E8.03871
G1 X40.216 Y40.605 E8.05359
G1 X40.401 Y40.27 E8.06632
G1 X40.787 Y39.655 E8.09047
G1 X41.238 Y39.085 E8.11464
G0 F6000 X41.566 Y39.318
G1 F1200 X42.066 Y38.822 E8.13807
G1 X42.618 Y38.386 E8.16146
G1 X43.266 Y37.988 E8.18676
G1 X43.591 Y37.815 E8.199
G1 X44.23 Y37.52 E8.22241
G1 X44.898 Y37.299 E8.24581
G1 X45.588 Y37.156 E8.26925
G1 X46.103 Y37.101 E8.28648
G1 X46.551 Y37.072 E8.30141
G1 X47.255 Y37.066 E8.32483
G1 X47.956 Y37.141 E8.34827
G1 X48.643 Y37.294 E8.37168
G1 X49.308 Y37.524 E8.39509
G1 X49.828 Y37.767 E8.41418
G1 X50.208 Y37.966 E8.42844
G1 X50.812 Y38.327 E8.45185
G1 X51.372 Y38.755 E8.47529
G1 X51.879 Y39.243 E8.4987
G1 X52.327 Y39.786 E8.52211
G1 X52.782 Y40.503 E8.55035
G1 X53.013 Y40.929 E8.56647
G1 X53.313 Y41.565 E8.58986
G1 X53.539 Y42.232 E8.61328
G1 X53.688 Y42.92 E8.6367
G1 X53.757 Y43.621 E8.66013
G1 X53.731 Y44.517 E8.68994
G1 X53.688 Y44.936 E8.70395
G1 X53.576 Y45.631 E8.72736
G1 X53.387 Y46.309 E8.75077
G1 X53.121 Y46.961 E8.77419
G1 X52.947 Y47.3 E8.78687
G1 X52.762 Y47.635 E8.7996
G1 X52.388 Y48.231 E8.823
G1 X51.948 Y48.781 E8.84642
G1 X51.448 Y49.277 E8.86985
G1 X50.896 Y49.713 E8.89325
G1 X50.255 Y50.107 E8.91827
G1 X49.931 Y50.28 E8.93049
G1 X49.483 Y50.487 E8.9469
G1 X49.248 Y50.993 E8.96546
G1 X49.064 Y51.328 E8.97817
G1 X48.691 Y51.925 E9.00158
G1 X48.252 Y52.475 E9.02499
G1 X47.754 Y52.973 E9.04841
G1 X47.203 Y53.41 E9.0718
G1 X46.556 Y53.809 E9.09709
G1 X46.231 Y53.983 E9.10935
G1 X45.593 Y54.279 E9.13274
G1 X44.925 Y54.502 E9.15616
G1 X44.236 Y54.647 E9.17958
G1 X43.706 Y54.704 E9.19731
G1 X43.258 Y54.733 E9.21224
G1 X42.554 Y54.739 E9.23566
G1 X41.853 Y54.664 E9.25911
G1 X41.166 Y54.511 E9.28252
G1 X40.501 Y54.281 E9.30592
G1 X39.981 Y54.038 E9.32501
G1 X39.601 Y53.839 E9.33928
G1 X38.997 Y53.478 E9.36268
G1 X38.437 Y53.05 E9.38612
G1 X37.93 Y52.562 E9.40953
G1 X37.482 Y52.019 E9.43294
G1 X37.027 Y51.302 E9.46119
G1 X36.796 Y50.876 E9.4773
G1 X36.496 Y50.24 E9.50069
G1 X36.27 Y49.573 E9.52412
G1 X36.121 Y48.885 E9.54753
G1 X36.052 Y48.184 E9.57096
G1 X36.078 Y47.288 E9.60077
G1 X36.121 Y46.869 E9.61478
G1 X36.233 Y46.174 E9.63819
G1 X36.422 Y45.496 E9.6616
G1 X36.688 Y44.844 E9.68503
G1 X36.855 Y44.517 E9.69724
G1 X37.039 Y44.182 E9.70995
G1 X37.412 Y43.585 E9.73336
G1 X37.851 Y43.035 E9.75677
G1 X38.349 Y42.537 E9.78019
G1 X38.9 Y42.1 E9.80358
G1 X39.547 Y41.701 E9.82887
G1 X39.872 Y41.527 E9.84113
G1 X40.329 Y41.315 E9.85788
G1 X40.567 Y40.799 E9.87678
G1 X40.752 Y40.464 E9.88951
G1 X41.126 Y39.868 E9.91291
G1 X41.566 Y39.318 E9.93634
G0 F6000 X41.894 Y39.552
G1 F1200 X42.381 Y39.077 E9.95897
G1 X42.921 Y38.662 E9.98162
G1 X43.454 Y38.341 E10.00231
G1 X43.779 Y38.168 E10.01456
G1 X44.397 Y37.884 E10.03718
G1 X45.045 Y37.674 E10.05984
G1 X45.713 Y37.542 E10.08248
G1 X46.129 Y37.5 E10.09639
G1 X46.577 Y37.471 E10.11132
G1 X47.258 Y37.467 E10.13397
G1 X47.935 Y37.543 E10.15663
G1 X48.598 Y37.697 E10.17927
G1 X49.238 Y37.929 E10.20191
G1 X49.643 Y38.121 E10.21682
G1 X50.023 Y38.32 E10.23109
G1 X50.606 Y38.671 E10.25372
G1 X51.145 Y39.087 E10.27637
G1 X51.631 Y39.564 E10.29901
G1 X52.057 Y40.095 E10.32166
G1 X52.431 Y40.693 E10.34512
G1 X52.662 Y41.119 E10.36123
G1 X52.951 Y41.736 E10.38389
G1 X53.165 Y42.382 E10.40653
G1 X53.303 Y43.049 E10.42918
G1 X53.361 Y43.727 E10.45182
G1 X53.333 Y44.476 E10.47675
G1 X53.29 Y44.895 E10.49075
G1 X53.181 Y45.567 E10.5134
G1 X52.993 Y46.222 E10.53606
G1 X52.597 Y47.107 E10.56831
G1 X52.412 Y47.442 E10.58104
G1 X52.049 Y48.018 E10.60368
G1 X51.62 Y48.547 E10.62634
G1 X51.133 Y49.022 E10.64896
G1 X50.593 Y49.437 E10.67161
G1 X50.067 Y49.754 E10.69204
G1 X49.743 Y49.927 E10.70426
G1 X49.188 Y50.183 E10.72459
G1 X48.898 Y50.8 E10.74726
G1 X48.714 Y51.135 E10.75997
G1 X48.351 Y51.712 E10.78265
G1 X47.924 Y52.242 E10.80528
G1 X47.438 Y52.718 E10.82791
G1 X46.899 Y53.134 E10.85055
G1 X46.368 Y53.456 E10.87121
G1 X46.043 Y53.63 E10.88347
G1 X45.424 Y53.916 E10.90615
G1 X44.777 Y54.127 E10.92878
G1 X44.11 Y54.261 E10.95141
G1 X43.68 Y54.305 E10.96579
G1 X43.232 Y54.334 E10.98072
G1 X42.551 Y54.338 E11.00337
G1 X41.874 Y54.262 E11.02603
G1 X41.211 Y54.108 E11.04867
G1 X40.571 Y53.876 E11.07131
G1 X40.166 Y53.684 E11.08622
G1 X39.786 Y53.485 E11.10048
G1 X39.203 Y53.134 E11.12312
G1 X38.664 Y52.718 E11.14576
G1 X38.178 Y52.241 E11.16841
G1 X37.752 Y51.71 E11.19106
G1 X37.378 Y51.112 E11.21451
G1 X37.147 Y50.686 E11.23063
G1 X36.858 Y50.069 E11.25329
G1 X36.644 Y49.423 E11.27593
G1 X36.506 Y48.756 E11.29858
G1 X36.448 Y48.078 E11.32122
G1 X36.476 Y47.329 E11.34614
G1 X36.519 Y46.91 E11.36015
G1 X36.628 Y46.238 E11.3828
G1 X36.816 Y45.583 E11.40546
G1 X37.205 Y44.71 E11.43725
G1 X37.389 Y44.375 E11.44996
G1 X37.752 Y43.798 E11.47264
G1 X38.179 Y43.268 E11.49527
G1 X38.665 Y42.792 E11.5179
G1 X39.204 Y42.376 E11.54054
G1 X39.735 Y42.054 E11.5612
G1 X40.06 Y41.88 E11.57346
G1 X40.625 Y41.619 E11.59416
G1 X40.917 Y40.992 E11.61716
G1 X41.102 Y40.657 E11.62989
G1 X41.465 Y40.081 E11.65254
G1 X41.894 Y39.552 E11.67519
G0 F6000 X42.221 Y39.788
G1 F1200 X42.696 Y39.334 E11.69705
G1 X43.223 Y38.942 E11.71889
G1 X43.642 Y38.694 E11.73508
G1 X43.967 Y38.521 E11.74733
G1 X44.564 Y38.248 E11.76916
G1 X45.191 Y38.05 E11.79103
