;FLAVOR:Marlin
;TIME:565
;Filament used: 0.344243m
;Layer height: 0.3
;MINX:29.367
;MINY:29.689
;MINZ:0.2
;MAXX:190.634
;MAXY:190.311
;MAXZ:0.2
;Generated with Cura_SteamEngine 5.2.2
M82 ;absolute extrusion mode
; Ender 3 Custom Start G-code
G92 E0 ; Reset Extruder
G28 ; Home all axes
M104 S175 ; Start heating up the nozzle most of the way
M190 S60 ; Start heating the bed, wait until target temperature reached
M109 S200 ; Finish heating the nozzle
G1 Z2.0 F3000 ; Move Z Axis up little to prevent scratching of Heat Bed
G1 X0.1 Y20 Z0.3 F5000.0 ; Move to start position
G1 X0.1 Y200.0 Z0.3 F1500.0 E15 ; Draw the first line
G1 X0.4 Y200.0 Z0.3 F5000.0 ; Move to side a little
G1 X0.4 Y20 Z0.3 F1500.0 E30 ; Draw the second line
G92 E0 ; Reset Extruder
G1 Z2.0 F3000 ; Move Z Axis up little to prevent scratching of Heat Bed
G1 X5 Y20 Z0.3 F5000.0 ; Move over to prevent blob squish
G92 E0
G92 E0
G1 F1500 E-6.5
;LAYER_COUNT:1
;LAYER:0
M107
;MESH:Anet_A8_First_Layer_Test.stl
G0 F6000 X74.244 Y67.471 Z0.2
;TYPE:WALL-INNER
G1 F1500 E0
G1 F1200 X74.244 Y42.868 E0.8183
G1 X49.641 Y42.868 E1.6366
G1 X49.641 Y67.471 E2.4549
G1 X74.244 Y67.471 E3.2732
G0 F6000 X74.644 Y67.871
;TYPE:WALL-OUTER
G1 F1200 X74.644 Y42.468 E4.1181
G1 X49.241 Y42.468 E4.96301
G1 X49.241 Y67.871 E5.80792
G1 X74.644 Y67.871 E6.65283
G0 F6000 X74.374 Y67.601
G0 X74.144 Y67.11
G0 X73.884 Y67.11
;TYPE:SKIN
G1 F1200 X73.884 Y43.228 E7.44714
G1 X50.002 Y43.228 E8.24146
G1 X50.002 Y67.11 E9.03578
G1 X73.884 Y67.11 E9.8301
G0 F6000 X74.144 Y67.11
G0 X74.144 Y43.702
G0 X73.683 Y43.702
G1 F1200 X73.409 Y43.428 E9.84299
G0 F6000 X72.844 Y43.428
G1 F1200 X73.683 Y44.267 E9.88245
G0 F6000 X73.683 Y44.833
G1 F1200 X72.278 Y43.428 E9.94854
G0 F6000 X71.712 Y43.428
G1 F1200 X73.683 Y45.399 E10.04125
G0 F6000 X73.683 Y45.964
G1 F1200 X71.146 Y43.428 E10.16056
G0 F6000 X70.581 Y43.428
G1 F1200 X73.683 Y46.53 E10.30647
G0 F6000 X73.683 Y47.096
G1 F1200 X70.015 Y43.428 E10.479
G0 F6000 X69.449 Y43.428
G1 F1200 X73.683 Y47.661 E10.67813
G0 F6000 X73.683 Y48.227
G1 F1200 X68.884 Y43.428 E10.90386
G0 F6000 X68.318 Y43.428
G1 F1200 X73.683 Y48.793 E11.15621
G0 F6000 X73.683 Y49.358
G1 F1200 X67.752 Y43.428 E11.43516
G0 F6000 X67.187 Y43.428
G1 F1200 X73.683 Y49.924 E11.74072
G0 F6000 X73.683 Y50.49
G1 F1200 X66.621 Y43.428 E12.07289
G0 F6000 X66.055 Y43.428
G1 F1200 X73.683 Y51.055 E12.43167
G0 F6000 X73.683 Y51.621
G1 F1200 X65.49 Y43.428 E12.81704
G0 F6000 X64.924 Y43.428
G1 F1200 X73.683 Y52.187 E13.22904
G0 F6000 X73.683 Y52.752
G1 F1200 X64.358 Y43.428 E13.66763
G0 F6000 X63.793 Y43.428
G1 F1200 X73.683 Y53.318 E14.13283
G0 F6000 X73.683 Y53.884
G1 F1200 X63.227 Y43.428 E14.62464
G0 F6000 X62.661 Y43.428
G1 F1200 X73.683 Y54.45 E15.14309
G0 F6000 X73.683 Y55.015
G1 F1200 X62.095 Y43.428 E15.68813
G0 F6000 X61.53 Y43.428
G1 F1200 X73.683 Y55.581 E16.25977
G0 F6000 X73.683 Y56.147
G1 F1200 X60.964 Y43.428 E16.85803
G0 F6000 X60.398 Y43.428
G1 F1200 X73.683 Y56.712 E17.48289
G0 F6000 X73.683 Y57.278
G1 F1200 X59.833 Y43.428 E18.13435
G0 F6000 X59.267 Y43.428
G1 F1200 X73.683 Y57.844 E18.81244
G0 F6000 X73.683 Y58.409
G1 F1200 X58.701 Y43.428 E19.51712
G0 F6000 X58.136 Y43.428
G1 F1200 X73.683 Y58.975 E20.2484
G0 F6000 X73.683 Y59.541
G1 F1200 X57.57 Y43.428 E21.00631
G0 F6000 X57.004 Y43.428
G1 F1200 X73.683 Y60.106 E21.79082
G0 F6000 X73.683 Y60.672
G1 F1200 X56.439 Y43.428 E22.60192
G0 F6000 X55.873 Y43.428
G1 F1200 X73.683 Y61.238 E23.43965
G0 F6000 X73.683 Y61.803
G1 F1200 X55.307 Y43.428 E24.30398
G0 F6000 X54.742 Y43.428
G1 F1200 X73.683 Y62.369 E25.1949
G0 F6000 X73.683 Y62.935
G1 F1200 X54.176 Y43.428 E26.11245
G0 F6000 X53.61 Y43.428
G1 F1200 X73.683 Y63.501 E27.05662
G0 F6000 X73.683 Y64.066
G1 F1200 X53.045 Y43.428 E28.02737
G0 F6000 X52.479 Y43.428
G1 F1200 X73.683 Y64.632 E29.02474
G0 F6000 X73.683 Y65.198
G1 F1200 X51.913 Y43.428 E30.04874
G0 F6000 X51.347 Y43.428
G1 F1200 X73.683 Y65.763 E31.09933
G0 F6000 X73.683 Y66.329
G1 F1200 X50.782 Y43.428 E32.17652
G0 F6000 X50.216 Y43.428
G1 F1200 X73.683 Y66.895 E33.28034
G0 F6000 X73.131 Y66.909
G1 F1200 X50.201 Y43.978 E34.35892
G0 F6000 X50.201 Y44.544
G1 F1200 X72.566 Y66.909 E35.4109
G0 F6000 X72 Y66.909
G1 F1200 X50.201 Y45.109 E36.43628
G0 F6000 X50.201 Y45.675
G1 F1200 X71.434 Y66.909 E37.43504
G0 F6000 X70.869 Y66.909
G1 F1200 X50.201 Y46.241 E38.4072
G0 F6000 X50.201 Y46.806
G1 F1200 X70.303 Y66.909 E39.35276
G0 F6000 X69.737 Y66.909
G1 F1200 X50.201 Y47.372 E40.2717
G0 F6000 X50.201 Y47.938
G1 F1200 X69.172 Y66.909 E41.16404
G0 F6000 X68.606 Y66.909
G1 F1200 X50.201 Y48.503 E42.02977
G0 F6000 X50.201 Y49.069
G1 F1200 X68.04 Y66.909 E42.86889
G0 F6000 X67.474 Y66.909
G1 F1200 X50.201 Y49.635 E43.68138
G0 F6000 X50.201 Y50.201
G1 F1200 X66.909 Y66.909 E44.46727
G0 F6000 X66.343 Y66.909
G1 F1200 X50.201 Y50.766 E45.22657
G0 F6000 X50.201 Y51.332
G1 F1200 X65.777 Y66.909 E45.95924
G0 F6000 X65.212 Y66.909
G1 F1200 X50.201 Y51.898 E46.66531
G0 F6000 X50.201 Y52.463
G1 F1200 X64.646 Y66.909 E47.34478
G0 F6000 X64.08 Y66.909
G1 F1200 X50.201 Y53.029 E47.99763
G0 F6000 X50.201 Y53.595
G1 F1200 X63.515 Y66.909 E48.62388
G0 F6000 X62.949 Y66.909
G1 F1200 X50.201 Y54.16 E49.22353
G0 F6000 X50.201 Y54.726
G1 F1200 X62.383 Y66.909 E49.79656
G0 F6000 X61.818 Y66.909
G1 F1200 X50.201 Y55.292 E50.34299
G0 F6000 X50.201 Y55.857
G1 F1200 X61.252 Y66.909 E50.86282
G0 F6000 X60.686 Y66.909
G1 F1200 X50.201 Y56.423 E51.35602
G0 F6000 X50.201 Y56.989
G1 F1200 X60.121 Y66.909 E51.82263
G0 F6000 X59.555 Y66.909
G1 F1200 X50.201 Y57.554 E52.26264
G0 F6000 X50.201 Y58.12
G1 F1200 X58.989 Y66.909 E52.67602
G0 F6000 X58.423 Y66.909
G1 F1200 X50.201 Y58.686 E53.06278
G0 F6000 X50.201 Y59.252
G1 F1200 X57.858 Y66.909 E53.42294
G0 F6000 X57.292 Y66.909
G1 F1200 X50.201 Y59.817 E53.7565
G0 F6000 X50.201 Y60.383
G1 F1200 X56.726 Y66.909 E54.06344
G0 F6000 X56.161 Y66.909
G1 F1200 X50.201 Y60.949 E54.34378
G0 F6000 X50.201 Y61.514
G1 F1200 X55.595 Y66.909 E54.59752
G0 F6000 X55.029 Y66.909
G1 F1200 X50.201 Y62.08 E54.82464
G0 F6000 X50.201 Y62.646
G1 F1200 X54.464 Y66.909 E55.02516
G0 F6000 X53.898 Y66.909
G1 F1200 X50.201 Y63.211 E55.19908
G0 F6000 X50.201 Y63.777
G1 F1200 X53.332 Y66.909 E55.34638
G0 F6000 X52.767 Y66.909
G1 F1200 X50.201 Y64.343 E55.46707
G0 F6000 X50.201 Y64.908
G1 F1200 X52.201 Y66.909 E55.56117
G0 F6000 X51.635 Y66.909
G1 F1200 X50.201 Y65.474 E55.62865
G0 F6000 X50.201 Y66.04
G1 F1200 X51.07 Y66.909 E55.66952
G0 F6000 X50.504 Y66.909
G1 F1200 X50.201 Y66.605 E55.6838
G1 F1500 E49.1838
G0 F6000 X49.741 Y66.605
G0 X49.813 Y67.299
G0 X74.43 Y67.657
G0 X74.43 Y68.736
G0 X94.61 Y93.208
G0 X94.797 Y125.527
;TYPE:WALL-INNER
G1 F1500 E55.6838
G1 F1200 X125.849 Y125.527 E56.71659
G1 X125.849 Y94.474 E57.74942
G1 X94.797 Y94.474 E58.78221
G1 X94.797 Y125.527 E59.81504
G0 F6000 X94.397 Y125.927
;TYPE:WALL-OUTER
G1 F1200 X126.249 Y125.927 E60.87444
G1 X126.249 Y94.074 E61.93387
G1 X94.397 Y94.074 E62.99328
G1 X94.397 Y125.927 E64.05271
G0 F6000 X94.666 Y125.657
G0 X94.897 Y125.167
G0 X95.157 Y125.167
;TYPE:SKIN
G1 F1200 X125.489 Y125.167 E65.06156
G1 X125.489 Y94.835 E66.0704
G1 X95.157 Y94.835 E67.07925
G1 X95.157 Y125.167 E68.0881
G0 F6000 X95.55 Y124.966
G1 F1200 X95.356 Y124.771 E68.09725
G0 F6000 X95.356 Y124.206
G1 F1200 X96.116 Y124.966 E68.13299
G0 F6000 X96.682 Y124.966
G1 F1200 X95.356 Y123.64 E68.19536
G0 F6000 X95.356 Y123.074
G1 F1200 X97.247 Y124.966 E68.28433
G0 F6000 X97.813 Y124.966
G1 F1200 X95.356 Y122.509 E68.3999
G0 F6000 X95.356 Y121.943
G1 F1200 X98.379 Y124.966 E68.5421
G0 F6000 X98.944 Y124.966
G1 F1200 X95.356 Y121.377 E68.71089
G0 F6000 X95.356 Y120.812
G1 F1200 X99.51 Y124.966 E68.90628
G0 F6000 X100.076 Y124.966
G1 F1200 X95.356 Y120.246 E69.1283
G0 F6000 X95.356 Y119.68
G1 F1200 X100.641 Y124.966 E69.37691
G0 F6000 X101.207 Y124.966
G1 F1200 X95.356 Y119.114 E69.65215
G0 F6000 X95.356 Y118.549
G1 F1200 X101.773 Y124.966 E69.95398
G0 F6000 X102.338 Y124.966
G1 F1200 X95.356 Y117.983 E70.28242
G0 F6000 X95.356 Y117.417
G1 F1200 X102.904 Y124.966 E70.63748
G0 F6000 X103.47 Y124.966
G1 F1200 X95.356 Y116.852 E71.01913
G0 F6000 X95.356 Y116.286
G1 F1200 X104.035 Y124.966 E71.42739
G0 F6000 X104.601 Y124.966
G1 F1200 X95.356 Y115.72 E71.86227
G0 F6000 X95.356 Y115.155
G1 F1200 X105.167 Y124.966 E72.32375
G0 F6000 X105.732 Y124.966
G1 F1200 X95.356 Y114.589 E72.81183
G0 F6000 X95.356 Y114.023
G1 F1200 X106.298 Y124.966 E73.32653
G0 F6000 X106.864 Y124.966
G1 F1200 X95.356 Y113.458 E73.86783
G0 F6000 X95.356 Y112.892
G1 F1200 X107.43 Y124.966 E74.43575
G0 F6000 X107.995 Y124.966
G1 F1200 X95.356 Y112.326 E75.03028
G0 F6000 X95.356 Y111.761
G1 F1200 X108.561 Y124.966 E75.6514
G0 F6000 X109.127 Y124.966
G1 F1200 X95.356 Y111.195 E76.29915
G0 F6000 X95.356 Y110.629
G1 F1200 X109.692 Y124.966 E76.97349
G0 F6000 X110.258 Y124.966
G1 F1200 X95.356 Y110.063 E77.67446
G0 F6000 X95.356 Y109.498
G1 F1200 X110.824 Y124.966 E78.40203
G0 F6000 X111.389 Y124.966
G1 F1200 X95.356 Y108.932 E79.15619
G0 F6000 X95.356 Y108.366
G1 F1200 X111.955 Y124.966 E79.93698
G0 F6000 X112.521 Y124.966
G1 F1200 X95.356 Y107.801 E80.74437
G0 F6000 X95.356 Y107.235
G1 F1200 X113.086 Y124.966 E81.57836
G0 F6000 X113.652 Y124.966
G1 F1200 X95.356 Y106.669 E82.43897
G0 F6000 X95.356 Y106.104
G1 F1200 X114.218 Y124.966 E83.32618
G0 F6000 X114.783 Y124.966
G1 F1200 X95.356 Y105.538 E84.23999
G0 F6000 X95.356 Y104.972
G1 F1200 X115.349 Y124.966 E85.18042
G0 F6000 X115.915 Y124.966
G1 F1200 X95.356 Y104.407 E86.14746
G0 F6000 X95.356 Y103.841
G1 F1200 X116.48 Y124.966 E87.14109
G0 F6000 X117.046 Y124.966
G1 F1200 X95.356 Y103.275 E88.16134
G0 F6000 X95.356 Y102.71
G1 F1200 X117.612 Y124.966 E89.2082
G0 F6000 X118.178 Y124.966
G1 F1200 X95.356 Y102.144 E90.28167
G0 F6000 X95.356 Y101.578
G1 F1200 X118.743 Y124.966 E91.38175
G0 F6000 X119.309 Y124.966
G1 F1200 X95.356 Y101.013 E92.50843
G0 F6000 X95.356 Y100.447
G1 F1200 X119.875 Y124.966 E93.66173
G0 F6000 X120.44 Y124.966
G1 F1200 X95.356 Y99.881 E94.84162
G0 F6000 X95.356 Y99.315
G1 F1200 X121.006 Y124.966 E96.04814
G0 F6000 X121.572 Y124.966
G1 F1200 X95.356 Y98.75 E97.28126
G0 F6000 X95.356 Y98.184
G1 F1200 X122.137 Y124.966 E98.54098
G0 F6000 X122.703 Y124.966
G1 F1200 X95.356 Y97.618 E99.82733
G0 F6000 X95.356 Y97.053
G1 F1200 X123.269 Y124.966 E101.14027
G0 F6000 X123.834 Y124.966
G1 F1200 X95.356 Y96.487 E102.47981
G0 F6000 X95.356 Y95.921
G1 F1200 X124.4 Y124.966 E103.84597
G0 F6000 X124.966 Y124.966
G1 F1200 X95.356 Y95.356 E105.23874
G0 F6000 X95.6 Y95.035
G1 F1200 X125.288 Y124.722 E106.63515
G0 F6000 X125.288 Y124.156
G1 F1200 X96.166 Y95.035 E108.00493
G0 F6000 X96.732 Y95.035
G1 F1200 X125.288 Y123.59 E109.3481
G0 F6000 X125.288 Y123.025
G1 F1200 X97.297 Y95.035 E110.66468
G0 F6000 X97.863 Y95.035
G1 F1200 X125.288 Y122.459 E111.95465
G0 F6000 X125.288 Y121.893
G1 F1200 X98.429 Y95.035 E113.21799
G0 F6000 X98.994 Y95.035
G1 F1200 X125.288 Y121.328 E114.45475
G0 F6000 X125.288 Y120.762
G1 F1200 X99.56 Y95.035 E115.6649
G0 F6000 X100.126 Y95.035
G1 F1200 X125.288 Y120.196 E116.84842
G0 F6000 X125.288 Y119.631
G1 F1200 X100.692 Y95.035 E118.00534
G0 F6000 X101.257 Y95.035
G1 F1200 X125.288 Y119.065 E119.13566
G0 F6000 X125.288 Y118.499
G1 F1200 X101.823 Y95.035 E120.23936
G0 F6000 X102.389 Y95.035
G1 F1200 X125.288 Y117.934 E121.31646
G0 F6000 X125.288 Y117.368
G1 F1200 X102.954 Y95.035 E122.36695
G0 F6000 X103.52 Y95.035
G1 F1200 X125.288 Y116.802 E123.39083
G0 F6000 X125.288 Y116.237
G1 F1200 X104.086 Y95.035 E124.38811
G0 F6000 X104.651 Y95.035
G1 F1200 X125.288 Y115.671 E125.35879
G0 F6000 X125.288 Y115.105
G1 F1200 X105.217 Y95.035 E126.30284
G0 F6000 X105.783 Y95.035
G1 F1200 X125.288 Y114.539 E127.22027
G0 F6000 X125.288 Y113.974
G1 F1200 X106.348 Y95.035 E128.11113
G0 F6000 X106.914 Y95.035
G1 F1200 X125.288 Y113.408 E128.97536
G0 F6000 X125.288 Y112.842
G1 F1200 X107.48 Y95.035 E129.81297
G0 F6000 X108.045 Y95.035
G1 F1200 X125.288 Y112.277 E130.62401
G0 F6000 X125.288 Y111.711
G1 F1200 X108.611 Y95.035 E131.40842
G0 F6000 X109.177 Y95.035
G1 F1200 X125.288 Y111.145 E132.16621
G0 F6000 X125.288 Y110.58
G1 F1200 X109.742 Y95.035 E132.89742
G0 F6000 X110.308 Y95.035
G1 F1200 X125.288 Y110.014 E133.60201
G0 F6000 X125.288 Y109.448
G1 F1200 X110.874 Y95.035 E134.27998
G0 F6000 X111.44 Y95.035
G1 F1200 X125.288 Y108.883 E134.93134
G0 F6000 X125.288 Y108.317
G1 F1200 X112.005 Y95.035 E135.55611
G0 F6000 X112.571 Y95.035
G1 F1200 X125.288 Y107.751 E136.15426
G0 F6000 X125.288 Y107.186
G1 F1200 X113.137 Y95.035 E136.7258
G0 F6000 X113.702 Y95.035
G1 F1200 X125.288 Y106.62 E137.27075
G0 F6000 X125.288 Y106.054
G1 F1200 X114.268 Y95.035 E137.78907
G0 F6000 X114.834 Y95.035
G1 F1200 X125.288 Y105.489 E138.2808
G0 F6000 X125.288 Y104.923
G1 F1200 X115.399 Y95.035 E138.74592
G0 F6000 X115.965 Y95.035
G1 F1200 X125.288 Y104.357 E139.18442
G0 F6000 X125.288 Y103.791
G1 F1200 X116.531 Y95.035 E139.5963
G0 F6000 X117.096 Y95.035
G1 F1200 X125.288 Y103.226 E139.9816
G0 F6000 X125.288 Y102.66
G1 F1200 X117.662 Y95.035 E140.34028
G0 F6000 X118.228 Y95.035
G1 F1200 X125.288 Y102.094 E140.67234
G0 F6000 X125.288 Y101.529
G1 F1200 X118.793 Y95.035 E140.97782
G0 F6000 X119.359 Y95.035
G1 F1200 X125.288 Y100.963 E141.25668
G0 F6000 X125.288 Y100.397
G1 F1200 X119.925 Y95.035 E141.50892
G0 F6000 X120.49 Y95.035
G1 F1200 X125.288 Y99.832 E141.73458
G0 F6000 X125.288 Y99.266
G1 F1200 X121.056 Y95.035 E141.93361
G0 F6000 X121.622 Y95.035
G1 F1200 X125.288 Y98.7 E142.10603
G0 F6000 X125.288 Y98.135
G1 F1200 X122.188 Y95.035 E142.25184
G0 F6000 X122.753 Y95.035
G1 F1200 X125.288 Y97.569 E142.37106
G0 F6000 X125.288 Y97.003
G1 F1200 X123.319 Y95.035 E142.46365
G0 F6000 X123.885 Y95.035
G1 F1200 X125.288 Y96.438 E142.52964
G0 F6000 X125.288 Y95.872
G1 F1200 X124.45 Y95.035 E142.56904
G0 F6000 X125.016 Y95.035
G1 F1200 X125.288 Y95.306 E142.58181
G1 F1500 E136.08181
G0 F6000 X125.288 Y94.574
G0 X94.969 Y94.646
G0 X94.616 Y125.707
G0 X94.616 Y126.792
G0 X74.43 Y151.264
G0 X74.244 Y177.132
;TYPE:WALL-INNER
G1 F1500 E142.58181
G1 F1200 X74.244 Y152.53 E143.40007
G1 X49.642 Y152.53 E144.21834
G1 X49.642 Y177.132 E145.0366
G1 X74.244 Y177.132 E145.85487
G0 F6000 X74.644 Y177.532
;TYPE:WALL-OUTER
G1 F1200 X74.644 Y152.13 E146.69974
G1 X49.242 Y152.13 E147.54462
G1 X49.242 Y177.532 E148.38949
G1 X74.644 Y177.532 E149.23437
G0 F6000 X74.374 Y177.262
G0 X74.144 Y176.772
G0 X73.884 Y176.772
;TYPE:SKIN
G1 F1200 X73.884 Y152.89 E150.02868
G1 X50.002 Y152.89 E150.823
G1 X50.002 Y176.772 E151.61732
G1 X73.884 Y176.772 E152.41164
G0 F6000 X74.144 Y176.772
G0 X74.072 Y152.702
G0 X73.684 Y152.63
G0 X73.684 Y153.445
G1 F1200 X73.327 Y153.089 E152.42841
G0 F6000 X72.761 Y153.089
G1 F1200 X73.684 Y154.011 E152.4718
G0 F6000 X73.684 Y154.577
G1 F1200 X72.196 Y153.089 E152.54179
G0 F6000 X71.63 Y153.089
G1 F1200 X73.684 Y155.142 E152.63838
G0 F6000 X73.684 Y155.708
G1 F1200 X71.064 Y153.089 E152.76159
G0 F6000 X70.499 Y153.089
G1 F1200 X73.684 Y156.274 E152.91141
G0 F6000 X73.684 Y156.839
G1 F1200 X69.933 Y153.089 E153.08782
G0 F6000 X69.367 Y153.089
G1 F1200 X73.684 Y157.405 E153.29085
G0 F6000 X73.684 Y157.971
G1 F1200 X68.802 Y153.089 E153.52049
G0 F6000 X68.236 Y153.089
G1 F1200 X73.684 Y158.536 E153.77672
G0 F6000 X73.684 Y159.102
G1 F1200 X67.67 Y153.089 E154.05958
G0 F6000 X67.105 Y153.089
G1 F1200 X73.684 Y159.668 E154.36903
G0 F6000 X73.684 Y160.233
G1 F1200 X66.539 Y153.089 E154.70509
G0 F6000 X65.973 Y153.089
G1 F1200 X73.684 Y160.799 E155.06777
G0 F6000 X73.684 Y161.365
G1 F1200 X65.408 Y153.089 E155.45705
G0 F6000 X64.842 Y153.089
G1 F1200 X73.684 Y161.93 E155.87292
G0 F6000 X73.684 Y162.496
G1 F1200 X64.276 Y153.089 E156.31542
G0 F6000 X63.711 Y153.089
G1 F1200 X73.684 Y163.062 E156.78452
G0 F6000 X73.684 Y163.628
G1 F1200 X63.145 Y153.089 E157.28024
G0 F6000 X62.579 Y153.089
G1 F1200 X73.684 Y164.193 E157.80257
G0 F6000 X73.684 Y164.759
G1 F1200 X62.013 Y153.089 E158.35151
G0 F6000 X61.448 Y153.089
G1 F1200 X73.684 Y165.325 E158.92705
G0 F6000 X73.684 Y165.89
G1 F1200 X60.882 Y153.089 E159.5292
