;FLAVOR:Marlin
;TIME:6666
;Filament used: 0m
;Layer height: 0.1

;Generated with Cura_SteamEngine master
M104 S220
M105
M109 S220
M82 ;absolute extrusion mode
; Ender 3 Custom Start G-code
G28 ; Home all axes
G92 E0 ; Reset Extruder
G1 Z2.0 F3000 ; Move Z Axis up little to prevent scratching of Heat Bed
G1 X0.1 Y20 Z0.3 F5000.0 ; Move to start position
G1 X0.1 Y200.0 Z0.3 F1500.0 E15 ; Draw the first line
G1 X0.4 Y200.0 Z0.3 F5000.0 ; Move to side a little
G1 X0.4 Y20 Z0.3 F1500.0 E30 ; Draw the second line
G92 E0 ; Reset Extruder
G1 Z2.0 F3000 ; Move Z Axis up little to prevent scratching of Heat Bed
; End of custom start GCode
G92 E0
G1 F2400 E-5
;LAYER_COUNT:11
;LAYER:-8
M107
M204 S5000
M205 X30 Y30
G0 F7200 X98.4 Y103.493 Z0.24
M204 S500
M205 X20 Y20
;TYPE:SUPPORT-INTERFACE
G1 F2400 E0
G1 F2700 X98.691 Y103.222 E0.03174
G1 X99.909 Y102.217 E0.15779
G1 X100.243 Y101.967 E0.19109
G1 X101.689 Y101.019 E0.32912
G1 X101.988 Y100.847 E0.35665
G1 X103.267 Y100.185 E0.47161
G1 X103.667 Y100.004 E0.50666
G1 X104.97 Y99.484 E0.61864
G1 X105.321 Y99.363 E0.64828
G1 X106.85 Y98.898 E0.77585
G1 X106.844 Y98.876 E0.77767
G1 X107.262 Y98.706 E0.81369
G1 X107.966 Y98.296 E0.87872
G1 X108.454 Y97.959 E0.92606
G1 X109.503 Y97.271 E1.0262
G1 X110.404 Y96.716 E1.11068
G1 X111.3 Y96.216 E1.19258
G1 X111.463 Y96.132 E1.20722
G1 X112.291 Y95.748 E1.28007
G1 X113.261 Y95.377 E1.36297
G1 X113.436 Y95.318 E1.37772
G1 X114.281 Y95.067 E1.44808
G1 X114.445 Y95.025 E1.46159
G1 X115.343 Y94.828 E1.53498
G1 X116.368 Y94.676 E1.6177
G1 X116.56 Y94.655 E1.63311
G1 X117.448 Y94.594 E1.70416
G1 X117.609 Y94.588 E1.71703
G1 X118.495 Y94.592 E1.78775
G1 X118.692 Y94.6 E1.80349
G1 X119.563 Y94.667 E1.87322
G1 X119.741 Y94.687 E1.88752
G1 X120.617 Y94.819 E1.95823
G1 X120.801 Y94.853 E1.97317
G1 X121.665 Y95.048 E2.04387
G1 X122.844 Y95.407 E2.14225
G1 X123.688 Y95.733 E2.21448
G1 X124.672 Y96.193 E2.30118
G1 X125.618 Y96.721 E2.38766
G1 X126.122 Y97.027 E2.43473
G1 X126.51 Y97.271 E2.47131
G1 X127.635 Y98.013 E2.57889
G1 X128.407 Y98.551 E2.654
G1 X128.98 Y98.897 E2.70743
G1 X129.6 Y99.171 E2.76154
G1 X130.156 Y99.348 E2.80812
G1 X130.558 Y99.486 E2.84205
G1 X131.42 Y99.807 E2.91547
G1 X131.781 Y99.956 E2.94665
G1 X132.821 Y100.427 E3.03778
G1 X133.177 Y100.606 E3.06959
G1 X134.074 Y101.093 E3.15106
G1 X134.379 Y101.272 E3.17929
G1 X135.506 Y102.008 E3.28674
G1 X135.86 Y102.261 E3.32147
G1 X136.941 Y103.119 E3.43164
G1 X137.253 Y103.389 E3.46458
G1 X138.361 Y104.463 E3.58775
G1 X138.658 Y104.781 E3.62249
G1 X139.354 Y105.59 E3.70767
G1 X139.737 Y106.088 E3.75782
G1 X140.02 Y106.479 E3.79635
G1 X140.892 Y107.819 E3.92397
G1 X141.094 Y108.174 E3.95657
G1 X141.54 Y109.015 E4.03256
G1 X141.848 Y109.678 E4.09092
G1 X141.964 Y109.947 E4.1143
G1 X142.549 Y111.514 E4.24782
G1 X142.666 Y111.894 E4.27956
G1 X143.048 Y113.392 E4.40296
G1 X143.132 Y113.82 E4.43778
G1 X143.332 Y115.113 E4.54222
G1 X143.368 Y115.434 E4.568
G1 X143.454 Y116.759 E4.67399
G1 X143.464 Y117.146 E4.70489
G1 X143.414 Y118.713 E4.83004
G1 X143.367 Y119.264 E4.87419
G1 X143.228 Y120.348 E4.96142
G1 X143.041 Y121.308 E5.0395
G1 X142.761 Y122.429 E5.13173
G1 X142.51 Y123.216 E5.19767
G1 X142.361 Y123.635 E5.23317
G1 X141.959 Y124.643 E5.31979
G1 X141.655 Y125.295 E5.37722
G1 X141.478 Y125.646 E5.40859
G1 X140.98 Y126.558 E5.49154
G1 X140.53 Y127.276 E5.55918
G1 X140.308 Y127.606 E5.59093
G1 X139.875 Y128.389 E5.66235
G1 X139.498 Y129.232 E5.73607
G1 X139.309 Y129.609 E5.76973
G1 X138.663 Y130.771 E5.87586
G1 X138.438 Y131.132 E5.90981
G1 X137.693 Y132.227 E6.01553
G1 X137.47 Y132.525 E6.04524
G1 X136.624 Y133.559 E6.15189
G1 X136.415 Y133.795 E6.17705
G1 X135.48 Y134.757 E6.28414
G1 X135.172 Y135.046 E6.31785
G1 X134.223 Y135.866 E6.41797
G1 X133.878 Y136.137 E6.45299
G1 X132.882 Y136.856 E6.55104
G1 X132.428 Y137.152 E6.5943
G1 X131.288 Y137.825 E6.69998
G1 X130.894 Y138.031 E6.73547
G1 X129.7 Y138.595 E6.84088
G1 X129.327 Y138.749 E6.87309
G1 X128.138 Y139.19 E6.97432
G1 X127.721 Y139.32 E7.00919
G1 X126.329 Y139.693 E7.12422
G1 X126.074 Y139.75 E7.14508
G1 X125.323 Y139.88 E7.20592
G1 X124.703 Y140.027 E7.25678
G1 X124.7 Y140.018 E7.25754
G1 X123.28 Y140.54 E7.3783
G1 X122.877 Y140.67 E7.41211
G1 X121.979 Y140.93 E7.48673
G1 X121.799 Y140.974 E7.50152
G1 X120.945 Y141.155 E7.57121
G1 X120.763 Y141.185 E7.58593
G1 X119.704 Y141.326 E7.67121
G1 X119.298 Y141.363 E7.70376
G1 X118.347 Y141.418 E7.7798
G1 X118.169 Y141.422 E7.79401
G1 X117.289 Y141.409 E7.86426
G1 X117.109 Y141.4 E7.87865
G1 X116.021 Y141.3 E7.96586
G1 X115.558 Y141.236 E8.00317
G1 X114.691 Y141.091 E8.07334
G1 X114.498 Y141.051 E8.08907
G1 X113.637 Y140.842 E8.1598
G1 X113.453 Y140.79 E8.17506
G1 X112.399 Y140.443 E8.26364
G1 X111.82 Y140.219 E8.3132
G1 X111.192 Y140.003 E8.36621
G1 X110.829 Y139.918 E8.39597
G1 X109.402 Y139.63 E8.51217
G1 X109.01 Y139.531 E8.54445
G1 X107.713 Y139.14 E8.65258
G1 X107.333 Y139.005 E8.68477
G1 X106.065 Y138.494 E8.7939
G1 X105.69 Y138.32 E8.8269
G1 X104.565 Y137.746 E8.92772
G1 X104.177 Y137.523 E8.96344
G1 X103.161 Y136.887 E9.05912
G1 X102.746 Y136.601 E9.09935
G1 X101.721 Y135.824 E9.20202
G1 X101.408 Y135.563 E9.23455
G1 X100.42 Y134.666 E9.34108
G1 X100.131 Y134.377 E9.3737
G1 X99.26 Y133.434 E9.47617
G1 X98.985 Y133.106 E9.51034
G1 X98.163 Y132.037 E9.61798
G1 X97.933 Y131.705 E9.65022
G1 X97.249 Y130.633 E9.75173
G1 X97.025 Y130.24 E9.78784
G1 X96.427 Y129.091 E9.89123
G1 X96.322 Y128.867 E9.91098
G1 X96.13 Y128.413 E9.95033
G1 X95.835 Y127.816 E10.00348
G1 X95.08 Y126.608 E10.1172
G1 X94.887 Y126.275 E10.14792
G1 X94.431 Y125.413 E10.22576
G1 X94.088 Y124.664 E10.29152
G1 X93.925 Y124.28 E10.32482
G1 X93.57 Y123.345 E10.40466
G1 X93.372 Y122.733 E10.456
G1 X93.27 Y122.387 E10.4848
G1 X92.916 Y120.923 E10.60503
G1 X92.832 Y120.497 E10.63969
G1 X92.651 Y119.222 E10.74248
G1 X92.6 Y118.713 E10.78332
G1 X92.536 Y117.441 E10.88498
G1 X92.534 Y116.991 E10.9209
G1 X92.565 Y115.931 E11.00555
G1 X92.605 Y115.45 E11.04408
G1 X92.658 Y114.961 E11.08334
G1 X92.864 Y113.604 E11.19291
G1 X92.945 Y113.195 E11.22619
G1 X93.324 Y111.731 E11.3469
G1 X93.492 Y111.199 E11.39144
G1 X93.974 Y109.9 E11.50204
G1 X94.144 Y109.508 E11.53615
G1 X94.821 Y108.13 E11.6587
G1 X95.02 Y107.776 E11.69112
G1 X95.827 Y106.491 E11.81224
G1 X96.078 Y106.135 E11.84701
G1 X96.732 Y105.275 E11.93326
G1 X97.087 Y104.86 E11.97685
G1 X97.395 Y104.516 E12.01371
G1 X98.4 Y103.493 E12.12818
M204 S5000
M205 X30 Y30
G0 F7200 X99.2 Y102.802
M204 S500
M205 X20 Y20
G1 F2700 X99.2 Y133.362 E14.56761
M204 S5000
M205 X30 Y30
G0 F7200 X100.8 Y135.011
M204 S500
M205 X20 Y20
G1 F2700 X100.8 Y101.601 E17.23454
M204 S5000
M205 X30 Y30
G0 F7200 X102.4 Y100.633
M204 S500
M205 X20 Y20
G1 F2700 X102.4 Y136.338 E20.08467
M204 S5000
M205 X30 Y30
G0 F7200 X104 Y137.412
M204 S500
M205 X20 Y20
G1 F2700 X104 Y99.871 E23.08136
M204 S5000
M205 X30 Y30
G0 F7200 X105.6 Y99.278
M204 S500
M205 X20 Y20
G1 F2700 X105.6 Y138.274 E26.19419
M204 S5000
M205 X30 Y30
G0 F7200 X107.2 Y138.951
M204 S500
M205 X20 Y20
G1 F2700 X107.2 Y98.731 E29.40472
M204 S5000
M205 X30 Y30
G0 F7200 X108.8 Y97.732
M204 S500
M205 X20 Y20
G1 F2700 X108.8 Y139.467 E32.73619
M204 S5000
M205 X30 Y30
G0 F7200 X110.4 Y139.831
M204 S500
M205 X20 Y20
G1 F2700 X110.4 Y96.718 E36.17765
M204 S5000
M205 X30 Y30
G0 F7200 X112 Y95.882
M204 S500
M205 X20 Y20
G1 F2700 X112 Y140.288 E39.72233
M204 S5000
M205 X30 Y30
G0 F7200 X113.6 Y140.831
M204 S500
M205 X20 Y20
G1 F2700 X113.6 Y95.269 E43.35929
M204 S5000
M205 X30 Y30
G0 F7200 X115.2 Y94.859
M204 S500
M205 X20 Y20
G1 F2700 X115.2 Y141.176 E47.05651
M204 S5000
M205 X30 Y30
G0 F7200 X116.8 Y141.371
M204 S500
M205 X20 Y20
G1 F2700 X116.8 Y94.638 E50.78694
M204 S5000
M205 X30 Y30
G0 F7200 X118.4 Y94.592
M204 S500
M205 X20 Y20
G1 F2700 X118.4 Y141.415 E54.52456
M204 S5000
M205 X30 Y30
G0 F7200 X120 Y141.287
M204 S500
M205 X20 Y20
G1 F2700 X120 Y94.727 E58.24118
M204 S5000
M205 X30 Y30
G0 F7200 X121.6 Y95.034
M204 S500
M205 X20 Y20
G1 F2700 X121.6 Y141.017 E61.91174
M204 S5000
M205 X30 Y30
G0 F7200 X123.2 Y140.566
M204 S500
M205 X20 Y20
G1 F2700 X123.2 Y95.545 E65.50551
M204 S5000
M205 X30 Y30
G0 F7200 X124.8 Y96.265
M204 S500
M205 X20 Y20
G1 F2700 X124.8 Y140.005 E68.99703
M204 S5000
M205 X30 Y30
G0 F7200 X126.4 Y139.674
M204 S500
M205 X20 Y20
G1 F2700 X126.4 Y97.202 E72.38733
M204 S5000
M205 X30 Y30
G0 F7200 X128 Y98.268
M204 S500
M205 X20 Y20
G1 F2700 X128 Y139.234 E75.65741
M204 S5000
M205 X30 Y30
G0 F7200 X129.6 Y138.637
M204 S500
M205 X20 Y20
G1 F2700 X129.6 Y99.171 E78.80776
M204 S5000
M205 X30 Y30
G0 F7200 X131.2 Y99.726
M204 S500
M205 X20 Y20
G1 F2700 X131.2 Y137.872 E81.85273
M204 S5000
M205 X30 Y30
G0 F7200 X132.8 Y136.91
M204 S500
M205 X20 Y20
G1 F2700 X132.8 Y100.418 E84.76568
M204 S5000
M205 X30 Y30
G0 F7200 X134.4 Y101.286
M204 S500
M205 X20 Y20
G1 F2700 X134.4 Y135.714 E87.51388
M204 S5000
M205 X30 Y30
G0 F7200 X136 Y134.222
M204 S500
M205 X20 Y20
G1 F2700 X136 Y102.373 E90.0562
M204 S5000
M205 X30 Y30
G0 F7200 X137.6 Y103.726
M204 S500
M205 X20 Y20
G1 F2700 X137.6 Y132.352 E92.34125
M204 S5000
M205 X30 Y30
G0 F7200 X139.2 Y129.806
M204 S500
M205 X20 Y20
G1 F2700 X139.2 Y105.411 E94.28857
M204 S5000
M205 X30 Y30
G0 F7200 X140.8 Y107.678
M204 S500
M205 X20 Y20
G1 F2700 X140.8 Y126.846 E95.81864
M204 S5000
M205 X30 Y30
G0 F7200 X142.4 Y123.526
M204 S500
M205 X20 Y20
G1 F2700 X142.4 Y111.115 E96.80934
M204 S5000
M205 X30 Y30
G0 F7200 X97.6 Y104.307
M204 S500
M205 X20 Y20
G1 F2700 X97.6 Y131.183 E98.9547
M204 S5000
M205 X30 Y30
G0 F7200 X96 Y128.149
M204 S500
M205 X20 Y20
G1 F2700 X96 Y106.245 E100.70317
M204 S5000
M205 X30 Y30
G0 F7200 X94.4 Y108.986
M204 S500
M205 X20 Y20
G1 F2700 X94.4 Y125.345 E102.00901
M204 S5000
M205 X30 Y30
G0 F7200 X92.8 Y120.271
M204 S500
M205 X20 Y20
G1 F2700 X92.8 Y114.025 E102.5076
M204 S5000
M205 X30 Y30
G0 F7200 X98.985 Y133.105
;TIME_ELAPSED:40.011817
;LAYER:-7
G0 X98.985 Y133.105 Z0.39
M204 S500
M205 X20 Y20
;TYPE:SUPPORT
G1 F2700 X99.26 Y133.433 E102.52895
G1 X100.131 Y134.376 E102.593
G1 X100.419 Y134.664 E102.61332
G1 X101.407 Y135.562 E102.67993
G1 X101.72 Y135.823 E102.70026
G1 X102.387 Y136.328 E102.742
G1 X98.387 Y132.328 E103.02422
G1 X98.162 Y132.035 E103.04265
G1 X97.932 Y131.704 E103.06276
G1 X97.248 Y130.632 E103.1262
G1 X97.024 Y130.239 E103.14877
G1 X96.427 Y129.09 E103.21337
G1 X96.322 Y128.865 E103.22575
G1 X96.309 Y128.836 E103.22734
G1 X105.88 Y138.406 E103.90259
G1 X106.065 Y138.493 E103.91279
G1 X107.333 Y139.004 E103.98099
G1 X107.712 Y139.139 E104.00107
G1 X108.161 Y139.274 E104.02446
G1 X94.579 Y125.691 E104.98278
G1 X94.431 Y125.412 E104.99853
G1 X94.088 Y124.663 E105.03963
G1 X93.924 Y124.279 E105.06046
G1 X93.57 Y123.344 E105.11034
G1 X93.533 Y123.231 E105.11628
G1 X110.064 Y139.763 E106.28266
G1 X110.828 Y139.917 E106.32154
G1 X111.191 Y140.002 E106.34014
G1 X111.819 Y140.218 E106.37328
G1 X112.006 Y140.29 E106.38327
G1 X93.005 Y121.289 E107.7239
G1 X92.916 Y120.922 E107.74274
G1 X92.831 Y120.496 E107.76441
G1 X92.7 Y119.57 E107.81107
G1 X114.077 Y140.947 E109.31933
G1 X114.498 Y141.05 E109.34095
G1 X114.691 Y141.09 E109.35079
G1 X115.557 Y141.235 E109.39459
G1 X115.814 Y141.27 E109.40753
G1 X92.565 Y118.021 E111.04788
G1 X92.536 Y117.44 E111.0769
G1 X92.534 Y116.99 E111.09935
G1 X92.545 Y116.587 E111.11946
G1 X117.367 Y141.409 E112.87079
G1 X118.168 Y141.421 E112.91076
G1 X118.347 Y141.417 E112.91969
G1 X118.765 Y141.393 E112.94058
G1 X92.626 Y115.253 E114.78486
G1 X92.657 Y114.96 E114.79956
G1 X92.8 Y114.013 E114.84734
G1 X120.063 Y141.277 E116.77093
G1 X120.763 Y141.184 E116.80616
G1 X120.944 Y141.154 E116.81531
G1 X121.282 Y141.081 E116.83256
G1 X93.036 Y112.835 E118.82547
G1 X93.323 Y111.729 E118.88248
G1 X93.328 Y111.713 E118.88331
G1 X122.417 Y140.801 E120.93566
G1 X122.876 Y140.668 E120.95951
G1 X123.279 Y140.538 E120.98063
G1 X123.49 Y140.461 E120.99184
G1 X93.69 Y110.661 E123.09439
G1 X93.973 Y109.899 E123.13494
G1 X94.085 Y109.641 E123.14897
G1 X124.524 Y140.08 E125.29661
G1 X124.703 Y140.026 E125.30594
G1 X125.322 Y139.879 E125.33768
G1 X125.675 Y139.817 E125.35556
G1 X94.545 Y108.687 E127.55195
G1 X94.821 Y108.129 E127.58301
G1 X95.02 Y107.775 E127.60327
G1 X95.03 Y107.758 E127.60425
G1 X126.829 Y139.557 E129.84784
G1 X127.721 Y139.319 E129.8939
G1 X127.937 Y139.251 E129.9052
G1 X95.576 Y106.889 E132.18848
G1 X95.827 Y106.49 E132.212
G1 X96.078 Y106.134 E132.23373
G1 X96.145 Y106.044 E132.23933
G1 X128.977 Y138.877 E134.55584
G1 X129.327 Y138.748 E134.57445
G1 X129.7 Y138.594 E134.59458
G1 X129.977 Y138.462 E134.60989
G1 X96.757 Y105.242 E136.95374
G1 X97.087 Y104.859 E136.97896
G1 X97.394 Y104.515 E137.00196
G1 X97.418 Y104.489 E137.00373
G1 X130.936 Y138.007 E139.3686
G1 X131.287 Y137.824 E139.38835
G1 X131.84 Y137.497 E139.4204
G1 X98.119 Y103.776 E141.7996
G1 X98.399 Y103.492 E141.8195
G1 X98.691 Y103.221 E141.83937
G1 X98.849 Y103.091 E141.84958
G1 X132.718 Y136.96 E144.23922
G1 X132.881 Y136.855 E144.2489
G1 X133.546 Y136.374 E144.28984
G1 X99.623 Y102.451 E146.68329
G1 X99.908 Y102.216 E146.70172
G1 X100.242 Y101.966 E146.72254
G1 X100.43 Y101.844 E146.73372
G1 X134.344 Y135.758 E149.12653
G1 X135.103 Y135.103 E149.17655
G1 X101.284 Y101.284 E151.56266
G1 X101.688 Y101.019 E151.58677
G1 X101.987 Y100.847 E151.60398
G1 X102.168 Y100.754 E151.61413
G1 X135.821 Y134.406 E153.9885
G1 X136.414 Y133.795 E154.03098
G1 X136.513 Y133.684 E154.0384
G1 X103.1 Y100.271 E156.39586
G1 X103.266 Y100.185 E156.40519
G1 X103.666 Y100.003 E156.42712
G1 X104.081 Y99.838 E156.4494
G1 X137.153 Y132.911 E158.78284
G1 X137.469 Y132.525 E158.80773
G1 X137.692 Y132.226 E158.82634
G1 X137.77 Y132.113 E158.83319
G1 X105.097 Y99.44 E161.13844
G1 X105.32 Y99.363 E161.15021
G1 X106.174 Y99.103 E161.19475
G1 X138.342 Y131.271 E163.46438
G1 X138.437 Y131.131 E163.47282
G1 X138.662 Y130.77 E163.49404
G1 X138.875 Y130.389 E163.51582
G1 X107.211 Y98.726 E165.74985
G1 X107.261 Y98.705 E165.75255
G1 X107.965 Y98.296 E165.79317
G1 X108.101 Y98.202 E165.80142
G1 X139.374 Y129.475 E168.0079
G1 X139.497 Y129.231 E168.02153
G1 X139.821 Y128.508 E168.06106
G1 X108.948 Y97.635 E170.23932
G1 X109.502 Y97.271 E170.27239
G1 X109.81 Y97.082 E170.29042
G1 X140.318 Y127.59 E172.44292
G1 X140.528 Y127.276 E172.46177
G1 X140.871 Y126.729 E172.49398
G1 X110.695 Y96.553 E174.62306
G1 X111.298 Y96.216 E174.65752
G1 X111.461 Y96.131 E174.66669
G1 X111.616 Y96.06 E174.6752
G1 X141.38 Y125.823 E176.77517
G1 X141.477 Y125.646 E176.78524
G1 X141.654 Y125.295 E176.80486
G1 X141.849 Y124.878 E176.82782
G1 X112.6 Y95.629 E178.8915
G1 X113.26 Y95.377 E178.92674
G1 X113.435 Y95.317 E178.93597
G1 X113.641 Y95.257 E178.94668
G1 X142.263 Y123.878 E180.96608
G1 X142.36 Y123.634 E180.97918
G1 X142.508 Y123.216 E181.0013
G1 X142.631 Y122.832 E181.02142
G1 X114.755 Y94.956 E182.98822
G1 X115.342 Y94.827 E183.0182
G1 X115.951 Y94.738 E183.04891
G1 X142.936 Y121.723 E184.95285
G1 X143.039 Y121.307 E184.97423
G1 X143.186 Y120.558 E185.01231
G1 X117.236 Y94.608 E186.84322
G1 X117.447 Y94.593 E186.85378
G1 X117.608 Y94.587 E186.86181
G1 X118.494 Y94.592 E186.90602
G1 X118.64 Y94.598 E186.91331
G1 X143.36 Y119.318 E188.65744
G1 X143.366 Y119.264 E188.66015
G1 X143.413 Y118.712 E188.68779
G1 X143.437 Y117.981 E188.72428
G1 X120.215 Y94.759 E190.36271
G1 X120.616 Y94.819 E190.38294
G1 X120.8 Y94.852 E190.39227
G1 X121.664 Y95.047 E190.43646
G1 X122.029 Y95.159 E190.45551
G1 X143.441 Y116.571 E191.96624
G1 X143.367 Y115.433 E192.02313
G1 X143.331 Y115.113 E192.0392
G1 X143.319 Y115.034 E192.04318
G1 X124.307 Y96.022 E193.38458
G1 X124.671 Y96.193 E193.40465
G1 X125.617 Y96.72 E193.45867
G1 X126.121 Y97.027 E193.48812
G1 X126.509 Y97.271 E193.51098
G1 X127.634 Y98.013 E193.57822
G1 X127.89 Y98.191 E193.59377
G1 X143.032 Y113.333 E194.66212
G1 X142.665 Y111.893 E194.73626
G1 X142.548 Y111.513 E194.7561
G1 X142.502 Y111.389 E194.7627
G1 X130.623 Y99.51 E195.60082
G1 X131.419 Y99.807 E195.64321
G1 X131.779 Y99.955 E195.66263
G1 X132.82 Y100.426 E195.71963
G1 X133.088 Y100.561 E195.73461
